;FLAVOR:UltiGCode
;TIME:13035
;MATERIAL:34604
;MATERIAL2:0
;NOZZLE_DIAMETER:0.6
;MINX:64.32
;MINY:30.022
;MINZ:0.4
;MAXX:158.678
;MAXY:116.378
;MAXZ:14.95
;Generated with Cura_SteamEngine master
M82 ;absolute extrusion mode
G0 F3000 Y50 ;avoid prime blob
G92 E0
G92 E0
G10
;LAYER_COUNT:98
;LAYER:0
M107
G0 F3927.3 X65.719 Y48.805 Z0.4
;TYPE:SKIRT
G11
G1 F1800 X66.204 Y48.155 E0.17193
G1 X66.726 Y47.581 E0.33642
G1 X66.881 Y47.426 E0.38289
G1 X67.482 Y46.882 E0.55474
G1 X68.133 Y46.4 E0.72646
G1 X68.829 Y45.984 E0.89836
G1 X69.562 Y45.639 E1.07011
G1 X70.326 Y45.368 E1.24197
G1 X71.112 Y45.173 E1.41365
G1 X71.914 Y45.057 E1.58544
G1 X72.69 Y45.02 E1.75014
G1 X82.792 Y45.02 E3.89177
G1 X83.248 Y44.492 E4.03967
G1 X84.37 Y43.279 E4.38997
G1 X84.642 Y42.999 E4.47273
G1 X85.82 Y41.841 E4.82292
G1 X86.104 Y41.575 E4.90541
G1 X87.349 Y40.462 E5.25945
G1 X87.64 Y40.213 E5.34064
G1 X88.916 Y39.175 E5.68935
G1 X89.233 Y38.93 E5.77429
G1 X90.582 Y37.938 E6.12928
G1 X90.898 Y37.717 E6.21103
G1 X92.276 Y36.8 E6.56194
G1 X92.596 Y36.597 E6.64228
G1 X93.999 Y35.754 E6.98927
G1 X94.351 Y35.555 E7.075
G1 X95.82 Y34.768 E7.4283
G1 X96.16 Y34.595 E7.50918
G1 X97.658 Y33.88 E7.86107
G1 X98.016 Y33.72 E7.9442
G1 X99.552 Y33.075 E8.29738
G1 X99.92 Y32.931 E8.38116
G1 X101.484 Y32.361 E8.73406
G1 X101.845 Y32.238 E8.81491
G1 X103.415 Y31.747 E9.16365
G1 X103.794 Y31.639 E9.24719
G1 X105.397 Y31.221 E9.59839
G1 X105.774 Y31.132 E9.68052
G1 X107.409 Y30.787 E10.03477
G1 X107.792 Y30.716 E10.11735
G1 X109.422 Y30.452 E10.46741
G1 X109.813 Y30.398 E10.55109
G1 X111.468 Y30.211 E10.90418
G1 X111.851 Y30.177 E10.9857
G1 X113.492 Y30.069 E11.33434
G1 X113.883 Y30.052 E11.41731
G1 X115.547 Y30.022 E11.77014
G1 X115.937 Y30.025 E11.85282
G1 X117.602 Y30.074 E12.20595
G1 X117.989 Y30.094 E12.28811
G1 X119.631 Y30.22 E12.63723
G1 X120.02 Y30.259 E12.72011
G1 X121.67 Y30.465 E13.07263
G1 X122.053 Y30.522 E13.15472
G1 X123.688 Y30.805 E13.50649
G1 X124.076 Y30.882 E13.59036
G1 X125.703 Y31.245 E13.94376
G1 X126.073 Y31.337 E14.02459
G1 X127.663 Y31.77 E14.37394
G1 X128.044 Y31.883 E14.45819
G1 X129.616 Y32.394 E14.80862
G1 X129.986 Y32.525 E14.89183
G1 X131.549 Y33.117 E15.24616
G1 X131.898 Y33.258 E15.32596
G1 X133.416 Y33.914 E15.67654
G1 X133.771 Y34.077 E15.75935
G1 X135.245 Y34.799 E16.10732
G1 X135.606 Y34.989 E16.1938
G1 X137.065 Y35.794 E16.54707
G1 X137.391 Y35.984 E16.62706
G1 X138.811 Y36.855 E16.98022
G1 X139.148 Y37.073 E17.06531
G1 X140.506 Y38 E17.41388
G1 X140.818 Y38.224 E17.49531
G1 X142.153 Y39.23 E17.84969
G1 X142.458 Y39.472 E17.93223
G1 X143.734 Y40.532 E18.28391
G1 X144.031 Y40.791 E18.36745
G1 X145.244 Y41.901 E18.71602
G1 X145.522 Y42.167 E18.79759
G1 X146.701 Y43.352 E19.15197
G1 X146.973 Y43.639 E19.2358
G1 X148.076 Y44.86 E19.58463
G1 X148.326 Y45.151 E19.66597
G1 X149.388 Y46.443 E20.02053
G1 X149.633 Y46.755 E20.10463
G1 X150.613 Y48.072 E20.45265
G1 X150.833 Y48.383 E20.53341
G1 X151.765 Y49.765 E20.88679
G1 X151.979 Y50.099 E20.97089
G1 X152.835 Y51.511 E21.32094
G1 X153.028 Y51.847 E21.40309
G1 X153.827 Y53.317 E21.75779
G1 X154.002 Y53.658 E21.83905
G1 X154.719 Y55.138 E22.18769
G1 X154.884 Y55.501 E22.27222
G1 X155.539 Y57.039 E22.62661
G1 X155.682 Y57.398 E22.70854
G1 X156.255 Y58.941 E23.05748
G1 X156.381 Y59.305 E23.13914
G1 X156.884 Y60.882 E23.49006
G1 X156.995 Y61.261 E23.57378
G1 X157.423 Y62.866 E23.92593
G1 X157.513 Y63.239 E24.00728
G1 X157.865 Y64.859 E24.35873
G1 X157.939 Y65.244 E24.44184
G1 X158.213 Y66.877 E24.79288
G1 X158.268 Y67.265 E24.87596
G1 X158.466 Y68.929 E25.23122
G1 X158.503 Y69.315 E25.31342
G1 X158.62 Y70.954 E25.66177
G1 X158.639 Y71.346 E25.74498
G1 X158.678 Y73.003 E26.09636
G1 X158.678 Y73.388 E26.17798
G1 X158.639 Y75.06 E26.53254
G1 X158.62 Y75.453 E26.61595
G1 X158.503 Y77.091 E26.96409
G1 X158.466 Y77.48 E27.04693
G1 X158.269 Y79.129 E27.39901
G1 X158.214 Y79.513 E27.48124
G1 X157.938 Y81.16 E27.83528
G1 X157.864 Y81.543 E27.91797
G1 X157.515 Y83.152 E28.26701
G1 X157.424 Y83.53 E28.34944
G1 X156.996 Y85.133 E28.70118
G1 X156.886 Y85.508 E28.78403
G1 X156.379 Y87.099 E29.13803
G1 X156.254 Y87.462 E29.21943
G1 X155.682 Y89.004 E29.5681
G1 X155.537 Y89.369 E29.65136
G1 X154.886 Y90.896 E30.00327
G1 X154.723 Y91.254 E30.08667
G1 X154 Y92.747 E30.43834
G1 X153.825 Y93.088 E30.5196
G1 X153.027 Y94.557 E30.87401
G1 X152.829 Y94.901 E30.95816
G1 X151.976 Y96.305 E31.30643
G1 X151.766 Y96.633 E31.389
G1 X150.832 Y98.018 E31.74315
G1 X150.612 Y98.329 E31.82391
G1 X149.629 Y99.65 E32.17299
G1 X149.384 Y99.962 E32.25709
G1 X148.327 Y101.248 E32.60999
G1 X148.074 Y101.543 E32.69238
G1 X146.966 Y102.768 E33.04255
G1 X146.704 Y103.044 E33.12323
G1 X145.525 Y104.232 E33.47806
G1 X145.232 Y104.513 E33.56413
G1 X144.018 Y105.621 E33.91257
G1 X143.729 Y105.872 E33.99372
G1 X142.453 Y106.932 E34.3454
G1 X142.147 Y107.174 E34.42811
G1 X140.813 Y108.179 E34.78219
G1 X140.498 Y108.405 E34.86438
G1 X139.137 Y109.333 E35.2136
G1 X138.809 Y109.545 E35.2964
G1 X137.393 Y110.415 E35.64872
G1 X137.06 Y110.61 E35.73053
G1 X135.6 Y111.415 E36.08398
G1 X135.251 Y111.596 E36.16733
G1 X133.769 Y112.323 E36.51728
G1 X133.412 Y112.488 E36.60066
G1 X131.895 Y113.144 E36.95104
G1 X131.539 Y113.288 E37.03246
G1 X129.976 Y113.879 E37.38671
G1 X129.609 Y114.008 E37.46918
G1 X128.036 Y114.519 E37.81981
G1 X127.652 Y114.634 E37.90479
G1 X126.062 Y115.066 E38.25409
G1 X125.697 Y115.156 E38.33379
G1 X124.106 Y115.51 E38.67933
G1 X123.688 Y115.595 E38.76976
G1 X122.047 Y115.879 E39.12282
G1 X121.662 Y115.936 E39.20533
G1 X120.009 Y116.142 E39.55848
G1 X119.622 Y116.181 E39.64094
G1 X117.981 Y116.307 E39.98985
G1 X117.589 Y116.328 E40.07308
G1 X115.925 Y116.376 E40.42599
G1 X115.54 Y116.378 E40.50761
G1 X113.878 Y116.348 E40.86001
G1 X113.487 Y116.331 E40.94298
G1 X111.845 Y116.223 E41.29184
G1 X111.457 Y116.189 E41.37441
G1 X109.802 Y116.001 E41.72753
G1 X109.415 Y115.947 E41.81037
G1 X107.786 Y115.683 E42.16022
G1 X107.401 Y115.611 E42.24325
G1 X105.764 Y115.265 E42.59797
G1 X105.391 Y115.178 E42.67916
G1 X103.787 Y114.76 E43.03057
G1 X103.404 Y114.65 E43.11505
G1 X101.836 Y114.159 E43.46338
G1 X101.478 Y114.037 E43.54356
G1 X99.914 Y113.467 E43.89646
G1 X99.544 Y113.322 E43.98071
G1 X98.007 Y112.676 E44.33417
G1 X97.649 Y112.516 E44.4173
G1 X96.152 Y111.801 E44.769
G1 X95.813 Y111.629 E44.84959
G1 X94.35 Y110.845 E45.20148
G1 X93.999 Y110.646 E45.28702
G1 X92.591 Y109.8 E45.63525
G1 X92.27 Y109.596 E45.71588
G1 X90.891 Y108.678 E46.06708
G1 X90.574 Y108.456 E46.14913
G1 X89.226 Y107.464 E46.50395
G1 X88.908 Y107.218 E46.58918
G1 X87.632 Y106.179 E46.93803
G1 X87.346 Y105.935 E47.01773
G1 X86.099 Y104.821 E47.37222
G1 X85.813 Y104.554 E47.45516
G1 X84.639 Y103.4 E47.80416
G1 X84.366 Y103.118 E47.88737
G1 X83.24 Y101.9 E48.23902
G1 X82.791 Y101.38 E48.38467
G1 X72.69 Y101.38 E50.52608
G1 X71.881 Y101.34 E50.6978
G1 X71.079 Y101.22 E50.86972
G1 X70.293 Y101.023 E51.0415
G1 X69.531 Y100.748 E51.21324
G1 X68.799 Y100.4 E51.38507
G1 X68.105 Y99.981 E51.55694
G1 X67.455 Y99.496 E51.72887
G1 X66.881 Y98.974 E51.89335
G1 X66.726 Y98.819 E51.93982
G1 X66.182 Y98.218 E52.11168
G1 X65.7 Y97.567 E52.2834
G1 X65.284 Y96.871 E52.4553
G1 X64.939 Y96.138 E52.62705
G1 X64.668 Y95.374 E52.7989
G1 X64.473 Y94.588 E52.97059
G1 X64.357 Y93.786 E53.14238
G1 X64.32 Y93.01 E53.30708
G1 X64.32 Y53.39 E61.70652
G1 X64.36 Y52.581 E61.87824
G1 X64.48 Y51.779 E62.05015
G1 X64.677 Y50.993 E62.22194
G1 X64.952 Y50.231 E62.39368
G1 X65.3 Y49.499 E62.56551
G1 X65.719 Y48.805 E62.73737
G0 F3927.3 X66.246 Y48.973
G1 F1800 X66.728 Y48.356 E62.90336
G1 X67.101 Y47.956 E63.01931
G1 X67.256 Y47.801 E63.06578
G1 X67.838 Y47.276 E63.23195
G1 X68.47 Y46.812 E63.39816
G1 X69.146 Y46.416 E63.56425
G1 X69.859 Y46.09 E63.73046
G1 X70.602 Y45.839 E63.89672
G1 X71.366 Y45.665 E64.06284
G1 X72.144 Y45.569 E64.22902
G1 X72.69 Y45.55 E64.34485
G1 X83.039 Y45.55 E66.53883
G1 X83.399 Y45.122 E66.6574
G1 X83.637 Y44.852 E66.7337
G1 X84.759 Y43.639 E67.084
G1 X85.014 Y43.377 E67.16151
G1 X86.192 Y42.219 E67.5117
G1 X86.457 Y41.97 E67.58879
G1 X87.702 Y40.857 E67.94283
G1 X87.974 Y40.624 E68.01875
G1 X89.25 Y39.586 E68.36747
G1 X89.547 Y39.357 E68.44698
G1 X90.896 Y38.365 E68.80196
G1 X91.191 Y38.158 E68.87837
G1 X92.569 Y37.241 E69.22927
G1 X92.869 Y37.052 E69.30444
G1 X94.272 Y36.209 E69.65144
G1 X94.601 Y36.022 E69.73167
G1 X96.07 Y35.235 E70.08497
G1 X96.389 Y35.074 E70.16073
G1 X97.887 Y34.359 E70.51262
G1 X98.222 Y34.208 E70.59052
G1 X99.758 Y33.563 E70.9437
G1 X100.102 Y33.429 E71.02197
G1 X101.666 Y32.859 E71.37487
G1 X102.003 Y32.744 E71.45036
G1 X103.573 Y32.253 E71.79909
G1 X103.928 Y32.152 E71.87734
G1 X105.531 Y31.734 E72.22854
G1 X105.883 Y31.651 E72.30521
G1 X107.518 Y31.306 E72.65946
G1 X107.876 Y31.239 E72.73668
G1 X109.506 Y30.975 E73.08674
G1 X109.872 Y30.925 E73.16505
G1 X111.527 Y30.738 E73.51815
G1 X111.885 Y30.706 E73.59434
G1 X113.526 Y30.598 E73.94299
G1 X113.892 Y30.582 E74.02065
G1 X115.556 Y30.552 E74.37348
G1 X115.921 Y30.554 E74.45086
G1 X117.586 Y30.603 E74.80399
G1 X117.948 Y30.623 E74.88086
G1 X119.59 Y30.749 E75.22998
G1 X119.954 Y30.785 E75.30753
G1 X121.604 Y30.991 E75.66004
G1 X121.963 Y31.045 E75.73701
G1 X123.598 Y31.328 E76.08878
G1 X123.96 Y31.399 E76.16699
G1 X125.587 Y31.762 E76.52039
G1 X125.933 Y31.848 E76.59598
G1 X127.523 Y32.281 E76.94533
G1 X127.88 Y32.387 E77.02428
G1 X129.452 Y32.898 E77.37471
G1 X129.798 Y33.02 E77.45249
G1 X131.361 Y33.612 E77.80682
G1 X131.688 Y33.745 E77.88165
G1 X133.206 Y34.401 E78.23224
G1 X133.538 Y34.553 E78.30965
G1 X135.012 Y35.275 E78.65761
G1 X135.35 Y35.453 E78.73859
G1 X136.809 Y36.258 E79.09186
G1 X137.114 Y36.436 E79.16672
G1 X138.534 Y37.307 E79.51988
G1 X138.849 Y37.511 E79.59944
G1 X140.207 Y38.438 E79.94802
G1 X140.499 Y38.647 E80.02415
G1 X141.834 Y39.653 E80.37853
G1 X142.12 Y39.88 E80.45594
G1 X143.396 Y40.94 E80.80761
G1 X143.673 Y41.182 E80.88559
G1 X144.886 Y42.292 E81.23417
G1 X145.146 Y42.541 E81.31049
G1 X146.325 Y43.726 E81.66487
G1 X146.58 Y43.994 E81.74329
G1 X147.683 Y45.215 E82.09212
G1 X147.917 Y45.487 E82.16819
G1 X148.979 Y46.779 E82.52275
G1 X149.207 Y47.071 E82.60129
G1 X150.187 Y48.388 E82.94931
G1 X150.394 Y48.679 E83.02502
G1 X151.326 Y50.061 E83.3784
G1 X151.526 Y50.374 E83.45715
G1 X152.382 Y51.786 E83.8072
G1 X152.562 Y52.1 E83.88393
G1 X153.361 Y53.57 E84.23863
G1 X153.525 Y53.889 E84.31467
G1 X154.242 Y55.369 E84.66332
G1 X154.397 Y55.709 E84.74253
G1 X155.052 Y57.247 E85.09693
G1 X155.185 Y57.583 E85.17354
G1 X155.758 Y59.126 E85.52248
G1 X155.876 Y59.466 E85.59878
G1 X156.379 Y61.043 E85.94969
G1 X156.483 Y61.398 E86.02812
G1 X156.911 Y63.003 E86.38027
G1 X156.995 Y63.351 E86.45616
G1 X157.347 Y64.971 E86.80762
G1 X157.416 Y65.331 E86.88533
G1 X157.69 Y66.964 E87.23636
G1 X157.742 Y67.328 E87.31431
G1 X157.94 Y68.992 E87.66957
G1 X157.974 Y69.353 E87.74644
G1 X158.091 Y70.992 E88.09479
G1 X158.109 Y71.358 E88.17248
G1 X158.148 Y73.015 E88.52386
G1 X158.148 Y73.375 E88.60018
G1 X158.109 Y75.047 E88.95474
G1 X158.091 Y75.416 E89.03306
G1 X157.974 Y77.054 E89.3812
G1 X157.94 Y77.418 E89.45871
G1 X157.743 Y79.067 E89.81078
G1 X157.691 Y79.425 E89.88747
G1 X157.415 Y81.072 E90.2415
G1 X157.346 Y81.431 E90.31901
G1 X156.997 Y83.04 E90.66805
G1 X156.912 Y83.393 E90.74502
G1 X156.484 Y84.996 E91.09676
G1 X156.381 Y85.347 E91.17431
G1 X155.874 Y86.938 E91.52831
G1 X155.757 Y87.278 E91.60454
G1 X155.185 Y88.82 E91.95321
G1 X155.049 Y89.161 E92.03104
G1 X154.398 Y90.688 E92.38296
G1 X154.246 Y91.023 E92.46095
G1 X153.523 Y92.516 E92.81262
G1 X153.359 Y92.835 E92.88866
G1 X152.561 Y94.304 E93.24308
G1 X152.376 Y94.626 E93.32181
G1 X151.523 Y96.03 E93.67008
G1 X151.327 Y96.337 E93.7473
G1 X150.393 Y97.722 E94.10144
G1 X150.186 Y98.013 E94.17715
G1 X149.203 Y99.334 E94.52623
G1 X148.975 Y99.626 E94.60477
G1 X147.918 Y100.912 E94.95768
G1 X147.68 Y101.187 E95.03478
G1 X146.572 Y102.412 E95.38495
G1 X146.328 Y102.67 E95.46024
G1 X145.149 Y103.858 E95.81507
G1 X144.875 Y104.121 E95.89558
G1 X143.661 Y105.229 E96.24403
G1 X143.391 Y105.464 E96.31991
G1 X142.115 Y106.524 E96.67159
G1 X141.828 Y106.751 E96.74916
G1 X140.494 Y107.756 E97.10325
G1 X140.199 Y107.967 E97.18014
G1 X138.838 Y108.895 E97.52936
G1 X138.532 Y109.094 E97.60674
G1 X137.116 Y109.964 E97.95907
G1 X136.804 Y110.146 E98.03564
G1 X135.344 Y110.951 E98.3891
G1 X135.018 Y111.121 E98.46704
G1 X133.536 Y111.848 E98.81699
G1 X133.201 Y112.002 E98.89516
G1 X131.684 Y112.658 E99.24554
G1 X131.352 Y112.792 E99.32144
G1 X129.789 Y113.383 E99.67569
G1 X129.445 Y113.504 E99.753
G1 X127.872 Y114.015 E100.10363
G1 X127.513 Y114.122 E100.18305
G1 X125.923 Y114.554 E100.53235
G1 X125.582 Y114.639 E100.60685
G1 X123.991 Y114.993 E100.95239
G1 X123.598 Y115.072 E101.03738
G1 X121.957 Y115.356 E101.39044
G1 X121.596 Y115.41 E101.46782
G1 X119.943 Y115.616 E101.82097
G1 X119.581 Y115.652 E101.89809
G1 X117.94 Y115.778 E102.24701
G1 X117.574 Y115.798 E102.32472
G1 X115.91 Y115.846 E102.67763
G1 X115.549 Y115.848 E102.75417
G1 X113.887 Y115.818 E103.10657
G1 X113.522 Y115.802 E103.18402
G1 X111.88 Y115.694 E103.53288
G1 X111.517 Y115.662 E103.61013
G1 X109.862 Y115.474 E103.96325
G1 X109.5 Y115.424 E104.04072
G1 X107.871 Y115.16 E104.39057
G1 X107.511 Y115.093 E104.4682
G1 X105.874 Y114.747 E104.82292
G1 X105.525 Y114.665 E104.89892
G1 X103.921 Y114.247 E105.25032
G1 X103.562 Y114.144 E105.3295
G1 X101.994 Y113.653 E105.67783
G1 X101.66 Y113.539 E105.75265
G1 X100.096 Y112.969 E106.10556
G1 X99.749 Y112.834 E106.18449
G1 X98.212 Y112.188 E106.53795
G1 X97.878 Y112.038 E106.61557
G1 X96.381 Y111.323 E106.96727
G1 X96.063 Y111.162 E107.04284
G1 X94.6 Y110.378 E107.39472
G1 X94.272 Y110.191 E107.47476
G1 X92.864 Y109.345 E107.823
G1 X92.563 Y109.155 E107.89846
G1 X91.184 Y108.237 E108.24966
G1 X90.888 Y108.03 E108.32623
G1 X89.54 Y107.038 E108.68105
G1 X89.243 Y106.807 E108.76082
G1 X87.967 Y105.768 E109.10967
G1 X87.699 Y105.54 E109.18426
G1 X86.452 Y104.426 E109.53875
G1 X86.185 Y104.176 E109.6163
G1 X85.011 Y103.022 E109.96529
G1 X84.755 Y102.758 E110.04325
G1 X83.629 Y101.54 E110.3949
G1 X83.387 Y101.266 E110.4724
G1 X83.038 Y100.85 E110.58752
G1 X72.69 Y100.85 E112.7813
G1 X71.907 Y100.81 E112.94751
G1 X71.133 Y100.691 E113.11353
G1 X70.374 Y100.493 E113.27982
G1 X69.64 Y100.219 E113.44592
G1 X68.937 Y99.871 E113.61221
G1 X68.273 Y99.454 E113.77844
G1 X67.656 Y98.972 E113.94442
G1 X67.256 Y98.599 E114.06037
G1 X67.101 Y98.444 E114.10684
G1 X66.576 Y97.862 E114.27301
G1 X66.112 Y97.23 E114.43923
G1 X65.716 Y96.554 E114.60532
G1 X65.39 Y95.841 E114.77152
G1 X65.139 Y95.098 E114.93778
G1 X64.965 Y94.334 E115.1039
G1 X64.869 Y93.556 E115.27009
G1 X64.85 Y93.01 E115.38591
G1 X64.85 Y53.39 E123.78535
G1 X64.89 Y52.607 E123.95156
G1 X65.009 Y51.833 E124.11758
G1 X65.207 Y51.074 E124.28387
G1 X65.481 Y50.34 E124.44997
G1 X65.829 Y49.637 E124.61626
G1 X66.246 Y48.973 E124.78249
G0 F3927.3 X66.773 Y49.149
G1 F1800 X67.476 Y48.331 E125.01115
G1 X67.631 Y48.176 E125.05762
G1 X68.193 Y47.67 E125.21794
G1 X68.806 Y47.226 E125.3784
G1 X69.461 Y46.85 E125.53852
G1 X70.153 Y46.545 E125.69884
G1 X70.874 Y46.314 E125.85934
G1 X71.615 Y46.161 E126.01975
G1 X72.69 Y46.08 E126.24829
G1 X83.285 Y46.08 E128.49443
G1 X83.804 Y45.463 E128.66536
G1 X84.026 Y45.212 E128.7364
G1 X85.148 Y43.999 E129.0867
G1 X85.385 Y43.755 E129.15881
G1 X86.563 Y42.597 E129.50901
G1 X86.81 Y42.365 E129.58085
G1 X88.055 Y41.252 E129.93488
G1 X88.309 Y41.036 E130.00557
G1 X89.585 Y39.998 E130.35428
G1 X89.861 Y39.784 E130.42832
G1 X91.21 Y38.792 E130.78331
G1 X91.485 Y38.599 E130.85453
G1 X92.863 Y37.682 E131.20544
G1 X93.142 Y37.506 E131.27537
G1 X94.545 Y36.663 E131.62237
G1 X94.851 Y36.489 E131.697
G1 X96.32 Y35.702 E132.0503
G1 X96.617 Y35.552 E132.12084
G1 X98.115 Y34.837 E132.47274
G1 X98.427 Y34.697 E132.54524
G1 X99.963 Y34.052 E132.89841
G1 X100.283 Y33.927 E132.97125
G1 X101.847 Y33.357 E133.32415
G1 X102.161 Y33.25 E133.39447
G1 X103.731 Y32.759 E133.74321
G1 X104.062 Y32.665 E133.81616
G1 X105.665 Y32.247 E134.16736
