;FLAVOR:UltiGCode
;TIME:1963
;MATERIAL:4413
;MATERIAL2:0
;NOZZLE_DIAMETER:0.6
;MINX:84.324
;MINY:101.52
;MINZ:0.4
;MAXX:138.676
;MAXY:137.88
;MAXZ:8.35
;Generated with Cura_SteamEngine master
M82 ;absolute extrusion mode
G0 F3000 Y50 ;avoid prime blob
G92 E0
G92 E0
G10
;LAYER_COUNT:54
;LAYER:0
M107
G0 F3927.3 X90.813 Y105.776 Z0.4
;TYPE:SKIRT
G11
G1 F1800 X91.179 Y105.477 E0.10019
G1 X91.638 Y105.124 E0.22295
G1 X92.005 Y104.858 E0.31904
G1 X92.468 Y104.541 E0.438
G1 X92.868 Y104.283 E0.53891
G1 X93.369 Y103.981 E0.66292
G1 X93.783 Y103.748 E0.76364
G1 X94.275 Y103.489 E0.88151
G1 X94.696 Y103.282 E0.98097
G1 X95.225 Y103.041 E1.10421
G1 X95.643 Y102.865 E1.20036
G1 X96.168 Y102.66 E1.31984
G1 X96.628 Y102.496 E1.42337
G1 X97.163 Y102.323 E1.54258
G1 X97.61 Y102.192 E1.64133
G1 X98.16 Y102.048 E1.76186
G1 X98.607 Y101.944 E1.85915
G1 X99.139 Y101.836 E1.97424
G1 X99.14 Y101.842 E1.97553
G1 X99.639 Y101.748 E2.08317
G1 X100.205 Y101.667 E2.20439
G1 X100.676 Y101.613 E2.30489
G1 X101.243 Y101.565 E2.42553
G1 X101.704 Y101.539 E2.52342
G1 X102.27 Y101.523 E2.64346
G1 X102.502 Y101.52 E2.69264
G1 X120.497 Y101.52 E6.50758
G1 X120.739 Y101.524 E6.55889
G1 X121.315 Y101.541 E6.68106
G1 X121.766 Y101.566 E6.77682
G1 X122.333 Y101.614 E6.89745
G1 X122.81 Y101.669 E6.99925
G1 X123.366 Y101.749 E7.11833
G1 X123.837 Y101.831 E7.21969
G1 X124.406 Y101.947 E7.3428
G1 X124.856 Y102.051 E7.44071
G1 X125.407 Y102.196 E7.5615
G1 X125.857 Y102.329 E7.66098
G1 X126.392 Y102.503 E7.78025
G1 X126.839 Y102.663 E7.8809
G1 X127.364 Y102.868 E8.00038
G1 X127.794 Y103.05 E8.09937
G1 X128.325 Y103.293 E8.22317
G1 X128.734 Y103.494 E8.31978
G1 X129.224 Y103.752 E8.43718
G1 X129.64 Y103.987 E8.53848
G1 X130.134 Y104.285 E8.66078
G1 X130.547 Y104.551 E8.76493
G1 X131.015 Y104.873 E8.88536
G1 X131.358 Y105.122 E8.97522
G1 X131.817 Y105.474 E9.09784
G1 X132.195 Y105.782 E9.20121
G1 X132.612 Y106.143 E9.31814
G1 X132.969 Y106.473 E9.42121
G1 X133.37 Y106.863 E9.5398
G1 X133.685 Y107.187 E9.6356
G1 X134.081 Y107.617 E9.75952
G1 X134.397 Y107.982 E9.86187
G1 X134.747 Y108.41 E9.97909
G1 X135.029 Y108.774 E10.0767
G1 X135.364 Y109.234 E10.19734
G1 X135.643 Y109.643 E10.3023
G1 X135.959 Y110.137 E10.42662
G1 X136.193 Y110.526 E10.52286
G1 X136.473 Y111.022 E10.64361
G1 X136.687 Y111.428 E10.74091
G1 X136.931 Y111.923 E10.85791
G1 X137.132 Y112.363 E10.96046
G1 X137.353 Y112.887 E11.08102
G1 X137.524 Y113.327 E11.1811
G1 X137.721 Y113.881 E11.30575
G1 X137.867 Y114.332 E11.40625
G1 X138.026 Y114.877 E11.52661
G1 X138.141 Y115.316 E11.62281
G1 X138.266 Y115.853 E11.7397
G1 X138.36 Y116.315 E11.83965
G1 X138.46 Y116.893 E11.96401
G1 X138.528 Y117.372 E12.06658
G1 X138.592 Y117.939 E12.18754
G1 X138.63 Y118.376 E12.28054
G1 X138.662 Y118.918 E12.39564
G1 X138.676 Y119.402 E12.49829
G1 X138.676 Y119.979 E12.62062
G1 X138.662 Y120.456 E12.72178
G1 X138.628 Y121.041 E12.84601
G1 X138.588 Y121.501 E12.9439
G1 X138.525 Y122.05 E13.06105
G1 X138.461 Y122.498 E13.15699
G1 X138.362 Y123.077 E13.28152
G1 X138.259 Y123.586 E13.39162
G1 X138.132 Y124.122 E13.50839
G1 X138.024 Y124.529 E13.59767
G1 X137.865 Y125.074 E13.71802
G1 X137.715 Y125.538 E13.8214
G1 X137.517 Y126.092 E13.94613
G1 X137.348 Y126.526 E14.04486
G1 X137.129 Y127.044 E14.16409
G1 X136.939 Y127.46 E14.26105
G1 X136.694 Y127.96 E14.37909
G1 X136.462 Y128.4 E14.48454
G1 X136.172 Y128.911 E14.6091
G1 X135.945 Y129.287 E14.70221
G1 X135.651 Y129.746 E14.81777
G1 X135.382 Y130.14 E14.91891
G1 X135.038 Y130.614 E15.04307
G1 X134.742 Y130.997 E15.14569
G1 X134.387 Y131.43 E15.2644
G1 X134.096 Y131.767 E15.35879
G1 X133.71 Y132.189 E15.48003
G1 X133.363 Y132.545 E15.58543
G1 X132.951 Y132.944 E15.70702
G1 X132.611 Y133.255 E15.8047
G1 X132.173 Y133.634 E15.9275
G1 X131.82 Y133.923 E16.02421
G1 X131.385 Y134.259 E16.14074
G1 X130.989 Y134.547 E16.24455
G1 X130.515 Y134.87 E16.36615
G1 X130.141 Y135.11 E16.46036
G1 X129.65 Y135.407 E16.58201
G1 X129.229 Y135.645 E16.68454
G1 X128.732 Y135.907 E16.80364
G1 X128.314 Y136.112 E16.90234
G1 X127.793 Y136.35 E17.02377
G1 X127.347 Y136.538 E17.12638
G1 X126.81 Y136.746 E17.24847
G1 X126.356 Y136.909 E17.35073
G1 X125.822 Y137.081 E17.46967
G1 X125.391 Y137.207 E17.56486
G1 X124.843 Y137.351 E17.68498
G1 X124.384 Y137.458 E17.7849
G1 X123.86 Y137.564 E17.89824
G1 X123.371 Y137.65 E18.0035
G1 X122.801 Y137.732 E18.12558
G1 X122.324 Y137.787 E18.22738
G1 X121.757 Y137.835 E18.34801
G1 X121.296 Y137.861 E18.4459
G1 X120.73 Y137.877 E18.56594
G1 X120.498 Y137.88 E18.61513
G1 X102.503 Y137.88 E22.43007
G1 X102.261 Y137.876 E22.48138
G1 X101.685 Y137.859 E22.60354
G1 X101.234 Y137.834 E22.6993
G1 X100.667 Y137.786 E22.81994
G1 X100.184 Y137.73 E22.92302
G1 X99.624 Y137.649 E23.04297
G1 X99.164 Y137.569 E23.14196
G1 X98.603 Y137.455 E23.26332
G1 X98.141 Y137.348 E23.36386
G1 X97.592 Y137.203 E23.48423
G1 X97.168 Y137.078 E23.57795
G1 X96.641 Y136.908 E23.69534
G1 X96.177 Y136.743 E23.79974
G1 X95.626 Y136.528 E23.92513
G1 X95.192 Y136.344 E24.02507
G1 X94.67 Y136.105 E24.14678
G1 X94.25 Y135.898 E24.24605
G1 X93.762 Y135.64 E24.36307
G1 X93.346 Y135.405 E24.46436
G1 X92.849 Y135.104 E24.58754
G1 X92.463 Y134.854 E24.68504
G1 X91.99 Y134.53 E24.80659
G1 X91.625 Y134.266 E24.90208
G1 X91.188 Y133.93 E25.01895
G1 X90.819 Y133.628 E25.12003
G1 X90.38 Y133.248 E25.24313
G1 X90.021 Y132.918 E25.3465
G1 X89.618 Y132.525 E25.46584
G1 X89.295 Y132.193 E25.56404
G1 X88.903 Y131.765 E25.68708
G1 X88.601 Y131.416 E25.78492
G1 X88.247 Y130.983 E25.90349
G1 X87.961 Y130.611 E26.00297
G1 X87.621 Y130.143 E26.1256
G1 X87.35 Y129.748 E26.22716
G1 X87.052 Y129.283 E26.34424
G1 X86.812 Y128.883 E26.44314
G1 X86.524 Y128.372 E26.56749
G1 X86.31 Y127.966 E26.66479
G1 X86.064 Y127.466 E26.78292
G1 X85.867 Y127.035 E26.88339
G1 X85.647 Y126.514 E27.00328
G1 X85.475 Y126.071 E27.10403
G1 X85.279 Y125.52 E27.22801
G1 X85.133 Y125.068 E27.32871
G1 X84.974 Y124.523 E27.44906
G1 X84.859 Y124.084 E27.54527
G1 X84.734 Y123.547 E27.66216
G1 X84.64 Y123.085 E27.76211
G1 X84.54 Y122.507 E27.88647
G1 X84.472 Y122.027 E27.98924
G1 X84.41 Y121.477 E28.10658
G1 X84.372 Y121.04 E28.19958
G1 X84.338 Y120.463 E28.32211
G1 X84.324 Y119.98 E28.42455
G1 X84.324 Y119.403 E28.54688
G1 X84.338 Y118.926 E28.64804
G1 X84.37 Y118.376 E28.76484
G1 X84.41 Y117.916 E28.86273
G1 X84.475 Y117.35 E28.98351
G1 X84.539 Y116.902 E29.07945
G1 X84.638 Y116.323 E29.20398
G1 X84.741 Y115.814 E29.31407
G1 X84.868 Y115.278 E29.43085
G1 X84.976 Y114.871 E29.52012
G1 X85.135 Y114.326 E29.64048
G1 X85.278 Y113.883 E29.73917
G1 X85.474 Y113.33 E29.86355
G1 X85.653 Y112.87 E29.96819
G1 X85.872 Y112.353 E30.08722
G1 X86.065 Y111.93 E30.18579
G1 X86.312 Y111.428 E30.3044
G1 X86.538 Y111.001 E30.40682
G1 X86.82 Y110.504 E30.52797
G1 X87.042 Y110.135 E30.61926
G1 X87.357 Y109.642 E30.74329
G1 X87.648 Y109.217 E30.85249
G1 X87.985 Y108.756 E30.97355
G1 X88.256 Y108.405 E31.06756
G1 X88.605 Y107.978 E31.18447
G1 X88.923 Y107.613 E31.2871
G1 X89.318 Y107.184 E31.41073
G1 X89.642 Y106.851 E31.50923
G1 X90.04 Y106.465 E31.62677
G1 X90.391 Y106.141 E31.72803
G1 X90.813 Y105.776 E31.84632
G0 F3927.3 X91.16 Y106.177
G1 F1800 X91.502 Y105.897 E31.94002
G1 X91.961 Y105.544 E32.06278
G1 X92.304 Y105.295 E32.15264
G1 X92.767 Y104.978 E32.27159
G1 X93.142 Y104.737 E32.3661
G1 X93.643 Y104.435 E32.49011
G1 X94.03 Y104.217 E32.58428
G1 X94.522 Y103.958 E32.70215
G1 X94.916 Y103.765 E32.79516
G1 X95.445 Y103.524 E32.9184
G1 X95.836 Y103.358 E33.00845
G1 X96.361 Y103.153 E33.12794
G1 X96.791 Y103 E33.2247
G1 X97.326 Y102.827 E33.3439
G1 X97.745 Y102.705 E33.43642
G1 X98.295 Y102.561 E33.55695
G1 X98.712 Y102.464 E33.64771
G1 X99.244 Y102.356 E33.7628
G1 X99.714 Y102.273 E33.86398
G1 X100.28 Y102.192 E33.98519
G1 X100.721 Y102.141 E34.07931
G1 X101.288 Y102.093 E34.19994
G1 X101.719 Y102.069 E34.29145
G1 X102.285 Y102.053 E34.41149
G1 X102.502 Y102.05 E34.4575
G1 X120.497 Y102.05 E38.27244
G1 X120.724 Y102.053 E38.32057
G1 X121.3 Y102.07 E38.44274
G1 X121.721 Y102.094 E38.53213
G1 X122.288 Y102.142 E38.65277
G1 X122.734 Y102.193 E38.74793
G1 X123.29 Y102.273 E38.86702
G1 X123.731 Y102.35 E38.96193
G1 X124.3 Y102.466 E39.08504
G1 X124.721 Y102.564 E39.17667
G1 X125.272 Y102.709 E39.29746
G1 X125.693 Y102.833 E39.39051
G1 X126.228 Y103.007 E39.50977
G1 X126.646 Y103.156 E39.60385
G1 X127.171 Y103.361 E39.72334
G1 X127.574 Y103.532 E39.81615
G1 X128.105 Y103.775 E39.93994
G1 X128.487 Y103.963 E40.0302
G1 X128.977 Y104.221 E40.1476
G1 X129.367 Y104.441 E40.24253
G1 X129.861 Y104.739 E40.36484
G1 X130.247 Y104.988 E40.46222
G1 X130.715 Y105.31 E40.58265
G1 X131.036 Y105.543 E40.66674
G1 X131.495 Y105.895 E40.78937
G1 X131.848 Y106.183 E40.88595
G1 X132.265 Y106.544 E41.00288
G1 X132.599 Y106.853 E41.09934
G1 X133 Y107.243 E41.21793
G1 X133.295 Y107.546 E41.30758
G1 X133.691 Y107.976 E41.43151
G1 X133.987 Y108.317 E41.52724
G1 X134.337 Y108.745 E41.64445
G1 X134.6 Y109.086 E41.73575
G1 X134.935 Y109.546 E41.85639
G1 X135.197 Y109.929 E41.95476
G1 X135.513 Y110.423 E42.07909
G1 X135.731 Y110.786 E42.16885
G1 X136.011 Y111.282 E42.2896
G1 X136.212 Y111.662 E42.38074
G1 X136.456 Y112.157 E42.49774
G1 X136.644 Y112.569 E42.59374
G1 X136.865 Y113.093 E42.71431
G1 X137.025 Y113.504 E42.80781
G1 X137.222 Y114.058 E42.93246
G1 X137.358 Y114.481 E43.02666
G1 X137.517 Y115.026 E43.14702
G1 X137.625 Y115.436 E43.2369
G1 X137.75 Y115.973 E43.35379
G1 X137.838 Y116.405 E43.44725
G1 X137.938 Y116.983 E43.57161
G1 X138.002 Y117.431 E43.66755
G1 X138.066 Y117.998 E43.78852
G1 X138.101 Y118.407 E43.87554
G1 X138.133 Y118.949 E43.99065
G1 X138.146 Y119.402 E44.08672
G1 X138.146 Y119.979 E44.20905
G1 X138.133 Y120.425 E44.30364
G1 X138.099 Y121.01 E44.42787
G1 X138.062 Y121.44 E44.51936
G1 X137.999 Y121.989 E44.63652
G1 X137.939 Y122.408 E44.72625
G1 X137.84 Y122.987 E44.85078
G1 X137.743 Y123.464 E44.95397
G1 X137.616 Y124 E45.07075
G1 X137.515 Y124.38 E45.15411
G1 X137.356 Y124.925 E45.27446
G1 X137.216 Y125.359 E45.37114
G1 X137.018 Y125.913 E45.49586
G1 X136.859 Y126.32 E45.5885
G1 X136.64 Y126.838 E45.70773
G1 X136.463 Y127.227 E45.79833
G1 X136.218 Y127.727 E45.91637
G1 X136.001 Y128.138 E46.0149
G1 X135.711 Y128.649 E46.13946
G1 X135.498 Y129.001 E46.22669
G1 X135.204 Y129.46 E46.34224
G1 X134.953 Y129.829 E46.43685
G1 X134.609 Y130.303 E46.56102
G1 X134.332 Y130.661 E46.65698
G1 X133.977 Y131.094 E46.77568
G1 X133.705 Y131.409 E46.86391
G1 X133.319 Y131.831 E46.98516
G1 X132.994 Y132.165 E47.08396
G1 X132.582 Y132.564 E47.20555
G1 X132.265 Y132.854 E47.29663
G1 X131.827 Y133.233 E47.41942
G1 X131.496 Y133.504 E47.51011
G1 X131.061 Y133.84 E47.62664
G1 X130.691 Y134.109 E47.72362
G1 X130.217 Y134.432 E47.84522
G1 X129.867 Y134.657 E47.93343
G1 X129.376 Y134.954 E48.05508
G1 X128.982 Y135.176 E48.15096
G1 X128.485 Y135.438 E48.27007
G1 X128.094 Y135.63 E48.36241
G1 X127.573 Y135.868 E48.48384
G1 X126.73 Y136.209 E48.67663
G1 X126.193 Y136.405 E48.79782
G1 X125.659 Y136.577 E48.91675
G1 X125.256 Y136.695 E49.00578
G1 X124.708 Y136.839 E49.1259
G1 X124.279 Y136.938 E49.21923
G1 X123.755 Y137.044 E49.33257
G1 X123.295 Y137.126 E49.43163
G1 X122.725 Y137.208 E49.55371
G1 X122.279 Y137.259 E49.64888
G1 X121.712 Y137.307 E49.76952
G1 X121.281 Y137.331 E49.86103
G1 X120.715 Y137.347 E49.98107
G1 X120.498 Y137.35 E50.02708
G1 X102.503 Y137.35 E53.84202
G1 X102.276 Y137.347 E53.89015
G1 X101.7 Y137.33 E54.01231
G1 X101.279 Y137.306 E54.10171
G1 X100.712 Y137.258 E54.22234
G1 X100.26 Y137.206 E54.3188
G1 X99.7 Y137.125 E54.43875
G1 X99.27 Y137.05 E54.53129
G1 X98.709 Y136.936 E54.65265
G1 X98.277 Y136.835 E54.74671
G1 X97.728 Y136.69 E54.86709
G1 X97.331 Y136.574 E54.95477
G1 X96.804 Y136.404 E55.07216
G1 X96.369 Y136.249 E55.17006
G1 X95.818 Y136.034 E55.29545
G1 X95.413 Y135.862 E55.38873
G1 X94.891 Y135.623 E55.51045
G1 X94.498 Y135.43 E55.60327
G1 X94.01 Y135.172 E55.72029
G1 X93.621 Y134.951 E55.81514
G1 X93.124 Y134.65 E55.93832
G1 X92.762 Y134.417 E56.02959
G1 X92.289 Y134.093 E56.15113
G1 X91.948 Y133.845 E56.24052
G1 X91.511 Y133.509 E56.35738
G1 X91.165 Y133.228 E56.45188
G1 X90.726 Y132.848 E56.57497
G1 X90.391 Y132.539 E56.67159
G1 X89.988 Y132.146 E56.79092
G1 X89.686 Y131.835 E56.88283
G1 X89.294 Y131.407 E57.00587
G1 X89.011 Y131.08 E57.09755
G1 X88.657 Y130.647 E57.21612
G1 X88.39 Y130.3 E57.30894
G1 X88.05 Y129.832 E57.43157
G1 X87.797 Y129.462 E57.5266
G1 X87.499 Y128.997 E57.64368
G1 X87.274 Y128.623 E57.73622
G1 X86.986 Y128.112 E57.86057
G1 X86.785 Y127.732 E57.9517
G1 X86.539 Y127.232 E58.06984
G1 X86.355 Y126.829 E58.16376
G1 X86.135 Y126.308 E58.28365
G1 X85.974 Y125.894 E58.37783
G1 X85.778 Y125.343 E58.50181
G1 X85.642 Y124.919 E58.59621
G1 X85.483 Y124.374 E58.71656
G1 X85.375 Y123.964 E58.80645
G1 X85.25 Y123.427 E58.92334
G1 X85.162 Y122.995 E59.0168
G1 X85.062 Y122.417 E59.14116
G1 X84.998 Y121.968 E59.23731
G1 X84.936 Y121.418 E59.35465
G1 X84.901 Y121.009 E59.44167
G1 X84.867 Y120.432 E59.56421
G1 X84.854 Y119.98 E59.66007
G1 X84.854 Y119.403 E59.78239
G1 X84.867 Y118.957 E59.87699
G1 X84.899 Y118.407 E59.99378
G1 X84.936 Y117.976 E60.08549
G1 X85.001 Y117.41 E60.20627
G1 X85.061 Y116.992 E60.2958
G1 X85.16 Y116.413 E60.42033
G1 X85.257 Y115.936 E60.52352
G1 X85.384 Y115.4 E60.6403
G1 X85.485 Y115.02 E60.72365
G1 X85.644 Y114.475 E60.84401
G1 X85.778 Y114.06 E60.93646
G1 X85.974 Y113.507 E61.06085
G1 X86.141 Y113.076 E61.15884
G1 X86.36 Y112.559 E61.27787
G1 X86.54 Y112.164 E61.36989
G1 X86.787 Y111.662 E61.4885
G1 X86.999 Y111.262 E61.58448
G1 X87.281 Y110.765 E61.70562
G1 X87.489 Y110.42 E61.79102
G1 X87.804 Y109.927 E61.91505
G1 X88.076 Y109.53 E62.01708
G1 X88.413 Y109.069 E62.13814
G1 X88.667 Y108.741 E62.22609
G1 X89.016 Y108.314 E62.343
G1 X89.312 Y107.972 E62.43889
G1 X89.707 Y107.543 E62.56252
G1 X90.011 Y107.231 E62.65487
G1 X90.409 Y106.845 E62.77241
G1 X90.738 Y106.542 E62.86723
G1 X91.16 Y106.177 E62.98551
G0 F3927.3 X91.506 Y106.577
G1 F1800 X91.825 Y106.317 E63.07276
G1 X92.284 Y105.964 E63.19552
G1 X92.604 Y105.732 E63.27931
G1 X93.067 Y105.415 E63.39827
G1 X93.415 Y105.191 E63.48601
G1 X93.916 Y104.889 E63.61002
G1 X94.277 Y104.686 E63.69782
G1 X94.769 Y104.427 E63.8157
G1 X95.136 Y104.247 E63.90236
G1 X95.665 Y104.006 E64.02559
G1 X96.029 Y103.852 E64.10938
G1 X96.554 Y103.647 E64.22887
G1 X96.955 Y103.504 E64.31912
G1 X97.49 Y103.331 E64.43833
G1 X97.879 Y103.217 E64.52426
G1 X98.429 Y103.073 E64.64479
G1 X98.818 Y102.983 E64.72944
G1 X99.35 Y102.875 E64.84452
G1 X99.789 Y102.797 E64.93905
G1 X100.355 Y102.716 E65.06026
G1 X100.765 Y102.67 E65.14773
G1 X101.332 Y102.622 E65.26836
G1 X101.734 Y102.599 E65.35373
G1 X102.3 Y102.583 E65.47377
G1 X102.502 Y102.58 E65.5166
G1 X120.497 Y102.58 E69.33154
G1 X120.708 Y102.583 E69.37627
G1 X121.284 Y102.6 E69.49844
G1 X121.677 Y102.623 E69.5819
G1 X122.244 Y102.671 E69.70253
G1 X122.659 Y102.718 E69.79107
G1 X123.215 Y102.798 E69.91016
G1 X123.625 Y102.869 E69.99837
G1 X124.194 Y102.985 E70.12148
G1 X124.586 Y103.077 E70.20684
G1 X125.137 Y103.222 E70.32763
G1 X125.529 Y103.337 E70.41424
G1 X126.064 Y103.511 E70.53351
G1 X126.453 Y103.65 E70.62108
G1 X126.978 Y103.855 E70.74057
G1 X127.353 Y104.014 E70.82692
G1 X127.884 Y104.257 E70.95072
G1 X128.24 Y104.432 E71.03481
G1 X128.73 Y104.69 E71.15221
G1 X129.093 Y104.894 E71.24049
G1 X129.587 Y105.192 E71.3628
G1 X129.947 Y105.424 E71.45359
G1 X130.415 Y105.746 E71.57402
G1 X130.713 Y105.963 E71.65217
G1 X131.172 Y106.315 E71.7748
G1 X131.501 Y106.583 E71.86476
G1 X131.918 Y106.944 E71.98169
G1 X132.23 Y107.233 E72.07185
G1 X132.631 Y107.623 E72.19044
G1 X132.905 Y107.905 E72.2738
G1 X133.301 Y108.335 E72.39772
G1 X133.577 Y108.653 E72.48699
G1 X133.927 Y109.081 E72.6042
G1 X134.172 Y109.398 E72.68914
G1 X134.507 Y109.858 E72.80978
G1 X134.75 Y110.214 E72.90116
G1 X135.066 Y110.708 E73.02548
G1 X135.27 Y111.047 E73.10936
G1 X135.55 Y111.543 E73.23011
G1 X135.737 Y111.897 E73.31498
G1 X135.981 Y112.392 E73.43198
G1 X136.156 Y112.775 E73.52125
G1 X136.377 Y113.299 E73.64181
G1 X136.525 Y113.682 E73.72886
