;FLAVOR:UltiGCode
;TIME:445
;MATERIAL:1052
;MATERIAL2:0
;NOZZLE_DIAMETER:0.6
;MINX:94.57
;MINY:94.125
;MINZ:0.4
;MAXX:128.926
;MAXY:128.475
;MAXZ:3.55
;Generated with Cura_SteamEngine master
M82 ;absolute extrusion mode
G0 F3000 Y50 ;avoid prime blob
G92 E0
G92 E0
G10
;LAYER_COUNT:22
;LAYER:0
M107
G0 F3927.3 X99.522 Y99.235 Z0.4
;TYPE:SKIRT
G11
G1 F1800 X100.029 Y98.744 E0.14963
G1 X100.49 Y98.327 E0.28141
G1 X101.03 Y97.877 E0.43043
G1 X101.527 Y97.494 E0.56345
G1 X102.033 Y97.134 E0.6951
G1 X102.479 Y96.838 E0.80858
G1 X102.96 Y96.541 E0.92843
G1 X103.448 Y96.262 E1.0476
G1 X104.067 Y95.936 E1.19591
G1 X104.603 Y95.678 E1.32202
G1 X105.106 Y95.458 E1.43841
G1 X105.633 Y95.249 E1.5586
G1 X106.296 Y95.012 E1.70787
G1 X106.899 Y94.823 E1.84183
G1 X107.577 Y94.638 E1.99083
G1 X108.159 Y94.501 E2.11758
G1 X108.7 Y94.395 E2.23445
G1 X109.283 Y94.303 E2.35958
G1 X110.06 Y94.208 E2.52553
G1 X110.768 Y94.152 E2.6761
G1 X111.534 Y94.125 E2.83859
G1 X112.166 Y94.127 E2.97257
G1 X112.788 Y94.153 E3.10455
G1 X113.388 Y94.2 E3.23214
G1 X114.011 Y94.272 E3.3651
G1 X114.541 Y94.351 E3.4787
G1 X115.161 Y94.464 E3.6123
G1 X115.73 Y94.589 E3.73581
G1 X116.256 Y94.724 E3.85093
G1 X116.75 Y94.867 E3.95996
G1 X117.354 Y95.063 E4.09458
G1 X117.874 Y95.252 E4.21188
G1 X118.383 Y95.456 E4.32813
G1 X118.834 Y95.652 E4.43238
G1 X119.334 Y95.888 E4.5496
G1 X119.851 Y96.155 E4.67295
G1 X120.465 Y96.5 E4.82226
G1 X121.003 Y96.83 E4.95607
G1 X121.578 Y97.214 E5.10265
G1 X122.033 Y97.541 E5.22144
G1 X122.457 Y97.868 E5.33495
G1 X122.874 Y98.212 E5.44955
G1 X123.348 Y98.63 E5.58353
G1 X123.745 Y99.005 E5.69931
G1 X124.13 Y99.393 E5.81519
G1 X124.551 Y99.85 E5.94692
G1 X125.065 Y100.453 E6.11489
G1 X125.496 Y101.005 E6.26336
G1 X125.947 Y101.636 E6.42779
G1 X126.34 Y102.241 E6.58074
G1 X126.738 Y102.916 E6.74686
G1 X127.03 Y103.455 E6.87682
G1 X127.278 Y103.958 E6.99571
G1 X127.498 Y104.442 E7.10842
G1 X127.708 Y104.948 E7.22456
G1 X127.897 Y105.45 E7.33828
G1 X128.121 Y106.108 E7.48564
G1 X128.31 Y106.746 E7.62671
G1 X128.484 Y107.436 E7.77756
G1 X128.614 Y108.054 E7.91145
G1 X128.732 Y108.741 E8.05922
G1 X128.816 Y109.369 E8.19355
G1 X128.881 Y110.066 E8.34195
G1 X128.914 Y110.67 E8.47019
G1 X128.926 Y111.291 E8.60187
G1 X128.917 Y111.87 E8.72463
G1 X128.885 Y112.495 E8.8573
G1 X128.833 Y113.089 E8.98371
G1 X128.755 Y113.716 E9.11766
G1 X128.654 Y114.335 E9.25063
G1 X128.498 Y115.104 E9.41697
G1 X128.323 Y115.805 E9.57015
G1 X128.104 Y116.544 E9.73355
G1 X127.84 Y117.315 E9.90632
G1 X127.672 Y117.74 E10.0032
G1 X127.397 Y118.383 E10.15146
G1 X127.153 Y118.904 E10.27343
G1 X126.9 Y119.397 E10.3909
G1 X126.642 Y119.862 E10.50364
G1 X126.361 Y120.332 E10.61973
G1 X126.106 Y120.731 E10.72012
G1 X125.795 Y121.189 E10.83748
G1 X125.438 Y121.676 E10.9655
G1 X124.999 Y122.23 E11.11535
G1 X124.615 Y122.68 E11.24076
G1 X124.196 Y123.137 E11.3722
G1 X123.771 Y123.568 E11.50053
G1 X123.262 Y124.047 E11.6487
G1 X122.84 Y124.417 E11.76768
G1 X122.407 Y124.772 E11.88639
G1 X121.99 Y125.092 E11.99782
G1 X121.554 Y125.405 E12.1116
G1 X121.148 Y125.679 E12.21544
G1 X120.679 Y125.975 E12.33302
G1 X120.143 Y126.286 E12.46439
G1 X119.449 Y126.654 E12.63093
G1 X118.869 Y126.932 E12.76728
G1 X118.295 Y127.181 E12.89992
G1 X117.789 Y127.381 E13.01527
G1 X117.271 Y127.566 E13.13188
G1 X116.734 Y127.738 E13.25142
G1 X116.066 Y127.926 E13.39854
G1 X115.407 Y128.082 E13.54211
G1 X114.63 Y128.233 E13.70992
G1 X113.977 Y128.333 E13.84997
G1 X113.352 Y128.403 E13.98329
G1 X112.715 Y128.449 E14.11869
G1 X111.944 Y128.475 E14.28223
G1 X111.352 Y128.474 E14.40774
G1 X110.804 Y128.453 E14.524
G1 X110.256 Y128.414 E14.64047
G1 X109.631 Y128.348 E14.77371
G1 X108.99 Y128.254 E14.91105
G1 X108.222 Y128.111 E15.07667
G1 X107.618 Y127.975 E15.20792
G1 X107.087 Y127.834 E15.32439
G1 X106.629 Y127.698 E15.42568
G1 X106.118 Y127.53 E15.53972
G1 X105.625 Y127.35 E15.65098
G1 X105.104 Y127.141 E15.76999
G1 X104.629 Y126.933 E15.87992
G1 X104.075 Y126.669 E16.01002
G1 X103.578 Y126.411 E16.12874
G1 X103.095 Y126.139 E16.24625
G1 X102.696 Y125.899 E16.34496
G1 X102.24 Y125.607 E16.45976
G1 X101.812 Y125.314 E16.56972
G1 X101.362 Y124.984 E16.68802
G1 X100.968 Y124.676 E16.79404
G1 X100.553 Y124.331 E16.90845
G1 X100.107 Y123.932 E17.03532
G1 X99.595 Y123.439 E17.186
G1 X99.173 Y123.001 E17.31495
G1 X98.719 Y122.494 E17.45922
G1 X98.319 Y122.012 E17.59201
G1 X97.925 Y121.498 E17.72931
G1 X97.596 Y121.036 E17.84955
G1 X97.249 Y120.512 E17.98279
G1 X96.924 Y119.978 E18.11532
G1 X96.582 Y119.365 E18.26413
G1 X96.336 Y118.888 E18.37791
G1 X96.107 Y118.406 E18.49104
G1 X95.865 Y117.843 E18.62095
G1 X95.606 Y117.173 E18.77324
G1 X95.421 Y116.642 E18.89245
G1 X95.259 Y116.119 E19.00852
G1 X95.126 Y115.637 E19.11452
G1 X94.998 Y115.113 E19.22888
G1 X94.878 Y114.535 E19.35403
G1 X94.759 Y113.832 E19.50518
G1 X94.679 Y113.22 E19.63603
G1 X94.615 Y112.53 E19.78294
G1 X94.582 Y111.93 E19.91033
G1 X94.57 Y111.31 E20.04179
G1 X94.579 Y110.731 E20.16456
G1 X94.611 Y110.106 E20.29723
G1 X94.663 Y109.51 E20.42406
G1 X94.741 Y108.884 E20.5578
G1 X94.841 Y108.273 E20.68906
G1 X94.995 Y107.511 E20.85387
G1 X95.141 Y106.905 E20.98601
G1 X95.291 Y106.374 E21.10299
G1 X95.466 Y105.829 E21.22434
G1 X95.706 Y105.161 E21.37482
G1 X95.963 Y104.53 E21.51926
G1 X96.285 Y103.824 E21.68377
G1 X96.553 Y103.288 E21.81081
G1 X96.818 Y102.804 E21.92779
G1 X97.134 Y102.276 E22.05824
G1 X97.556 Y101.626 E22.22254
G1 X97.892 Y101.146 E22.34675
G1 X98.217 Y100.716 E22.46102
G1 X98.588 Y100.272 E22.58368
G1 X98.583 Y100.267 E22.58518
G1 X99.041 Y99.741 E22.73304
G1 X99.522 Y99.235 E22.88105
G0 F3927.3 X99.891 Y99.615
G1 F1800 X100.398 Y99.124 E23.03067
G1 X100.829 Y98.734 E23.1539
G1 X101.369 Y98.284 E23.30292
G1 X101.834 Y97.926 E23.42733
G1 X102.34 Y97.566 E23.55898
G1 X102.757 Y97.289 E23.66511
G1 X103.238 Y96.992 E23.78496
G1 X103.695 Y96.731 E23.89653
G1 X104.314 Y96.405 E24.04485
G1 X104.815 Y96.164 E24.16271
G1 X105.318 Y95.944 E24.2791
G1 X105.811 Y95.748 E24.39157
G1 X106.474 Y95.511 E24.54084
G1 X107.038 Y95.334 E24.66615
G1 X107.716 Y95.149 E24.81514
G1 X108.261 Y95.021 E24.93383
G1 X108.802 Y94.915 E25.0507
G1 X109.347 Y94.829 E25.16767
G1 X110.124 Y94.734 E25.33362
G1 X110.786 Y94.682 E25.4744
G1 X111.552 Y94.655 E25.63689
G1 X112.144 Y94.657 E25.7624
G1 X112.766 Y94.683 E25.89437
G1 X113.327 Y94.727 E26.01367
G1 X113.95 Y94.799 E26.14663
G1 X114.446 Y94.873 E26.25294
G1 X115.066 Y94.986 E26.38655
G1 X115.598 Y95.102 E26.50198
G1 X116.124 Y95.237 E26.61711
G1 X116.586 Y95.371 E26.71909
G1 X117.19 Y95.567 E26.85371
G1 X117.677 Y95.744 E26.96356
G1 X118.186 Y95.948 E27.07981
G1 X118.607 Y96.131 E27.17713
G1 X119.107 Y96.367 E27.29435
G1 X119.592 Y96.617 E27.41002
G1 X120.206 Y96.962 E27.55933
G1 X120.709 Y97.271 E27.68448
G1 X121.284 Y97.655 E27.83107
G1 X121.709 Y97.961 E27.94209
G1 X122.133 Y98.288 E28.05561
G1 X122.523 Y98.609 E28.16269
G1 X122.997 Y99.027 E28.29667
G1 X123.369 Y99.378 E28.4051
G1 X123.754 Y99.766 E28.52098
G1 X124.148 Y100.194 E28.64431
G1 X124.662 Y100.797 E28.81228
G1 X125.065 Y101.313 E28.95108
G1 X125.516 Y101.944 E29.11551
G1 X125.884 Y102.51 E29.25864
G1 X126.282 Y103.185 E29.42476
G1 X126.555 Y103.69 E29.54646
G1 X126.803 Y104.193 E29.66535
G1 X127.008 Y104.645 E29.77057
G1 X127.218 Y105.151 E29.88672
G1 X127.395 Y105.62 E29.99299
G1 X127.619 Y106.278 E30.14035
G1 X127.796 Y106.876 E30.27256
G1 X127.97 Y107.566 E30.42342
G1 X128.092 Y108.144 E30.54866
G1 X128.21 Y108.831 E30.69643
G1 X128.288 Y109.418 E30.82197
G1 X128.353 Y110.115 E30.97037
G1 X128.385 Y110.681 E31.09056
G1 X128.397 Y111.302 E31.22224
G1 X128.388 Y111.843 E31.33694
G1 X128.356 Y112.468 E31.46962
G1 X128.307 Y113.024 E31.58795
G1 X128.229 Y113.651 E31.72189
G1 X128.135 Y114.23 E31.84625
G1 X127.979 Y114.999 E32.0126
G1 X127.815 Y115.655 E32.15595
G1 X127.596 Y116.394 E32.31935
G1 X127.342 Y117.134 E32.48522
G1 X127.185 Y117.532 E32.57592
G1 X126.91 Y118.175 E32.72418
G1 X126.681 Y118.662 E32.83827
G1 X126.428 Y119.155 E32.95574
G1 X126.187 Y119.59 E33.06117
G1 X125.906 Y120.06 E33.17726
G1 X125.668 Y120.433 E33.27106
G1 X125.357 Y120.891 E33.38843
G1 X125.022 Y121.347 E33.50838
G1 X124.583 Y121.901 E33.65824
G1 X124.225 Y122.322 E33.7754
G1 X123.806 Y122.779 E33.90684
G1 X123.408 Y123.182 E34.02691
G1 X122.899 Y123.661 E34.17509
G1 X122.504 Y124.007 E34.28641
G1 X122.071 Y124.362 E34.40512
G1 X121.681 Y124.662 E34.50943
G1 X121.245 Y124.975 E34.62321
G1 X120.865 Y125.231 E34.72035
G1 X120.396 Y125.527 E34.83792
G1 X119.894 Y125.818 E34.96094
G1 X119.2 Y126.186 E35.12747
G1 X118.658 Y126.446 E35.25491
G1 X118.084 Y126.695 E35.38755
G1 X117.611 Y126.882 E35.49538
G1 X117.093 Y127.067 E35.61199
G1 X116.59 Y127.228 E35.72396
G1 X115.922 Y127.416 E35.87107
G1 X115.306 Y127.562 E36.00528
G1 X114.529 Y127.713 E36.17309
G1 X113.918 Y127.806 E36.30411
G1 X113.293 Y127.876 E36.43744
G1 X112.697 Y127.92 E36.56414
G1 X111.926 Y127.946 E36.72768
G1 X111.373 Y127.944 E36.84492
G1 X110.825 Y127.923 E36.96118
G1 X110.312 Y127.887 E37.0702
G1 X109.687 Y127.821 E37.20344
G1 X109.087 Y127.733 E37.332
G1 X108.319 Y127.59 E37.49762
G1 X107.754 Y127.463 E37.62038
G1 X107.223 Y127.322 E37.73686
G1 X106.795 Y127.195 E37.8315
G1 X106.284 Y127.027 E37.94554
G1 X105.823 Y126.859 E38.04956
G1 X105.302 Y126.65 E38.16857
G1 X104.857 Y126.455 E38.27157
G1 X104.303 Y126.191 E38.40167
G1 X103.838 Y125.949 E38.5128
G1 X103.355 Y125.677 E38.63032
G1 X102.982 Y125.453 E38.72256
G1 X102.526 Y125.161 E38.83735
G1 X102.125 Y124.886 E38.94043
G1 X101.675 Y124.556 E39.05874
G1 X101.307 Y124.269 E39.15767
G1 X100.892 Y123.924 E39.27208
G1 X100.475 Y123.55 E39.39083
G1 X99.963 Y123.057 E39.54152
G1 X99.568 Y122.648 E39.66206
G1 X99.114 Y122.141 E39.80634
G1 X98.74 Y121.689 E39.93071
G1 X98.346 Y121.175 E40.06801
G1 X98.038 Y120.743 E40.18049
G1 X97.691 Y120.219 E40.31373
G1 X97.387 Y119.72 E40.4376
G1 X97.045 Y119.107 E40.58641
G1 X96.815 Y118.661 E40.6928
G1 X96.586 Y118.179 E40.80593
G1 X96.359 Y117.652 E40.92758
G1 X96.1 Y116.982 E41.07986
G1 X95.927 Y116.485 E41.19143
G1 X95.765 Y115.962 E41.3075
G1 X95.641 Y115.512 E41.40645
G1 X95.513 Y114.988 E41.52081
G1 X95.401 Y114.447 E41.63793
G1 X95.282 Y113.744 E41.78909
G1 X95.207 Y113.171 E41.9116
G1 X95.143 Y112.481 E42.05851
G1 X95.111 Y111.92 E42.17763
G1 X95.099 Y111.3 E42.3091
G1 X95.108 Y110.758 E42.42402
G1 X95.14 Y110.133 E42.55669
G1 X95.189 Y109.576 E42.67523
G1 X95.267 Y108.95 E42.80897
G1 X95.36 Y108.378 E42.93183
G1 X95.514 Y107.616 E43.09664
G1 X95.651 Y107.049 E43.2203
G1 X95.801 Y106.518 E43.33728
G1 X95.965 Y106.009 E43.45065
G1 X96.205 Y105.341 E43.60113
G1 X96.445 Y104.75 E43.73636
G1 X96.767 Y104.044 E43.90086
G1 X97.018 Y103.542 E44.01985
G1 X97.283 Y103.058 E44.13683
G1 X97.578 Y102.564 E44.25881
G1 X98 Y101.914 E44.4231
G1 X98.315 Y101.465 E44.53938
G1 X98.64 Y101.035 E44.65365
G1 X98.989 Y100.62 E44.7686
G1 X98.983 Y100.615 E44.77026
G1 X99.441 Y100.089 E44.91812
G1 X99.891 Y99.615 E45.05668
G0 F3927.3 X100.259 Y99.996
G1 F1800 X100.766 Y99.505 E45.2063
G1 X100.779 Y99.518 E45.2102
G1 X101.168 Y99.141 E45.32504
G1 X101.708 Y98.691 E45.47406
G1 X102.141 Y98.358 E45.58987
G1 X102.647 Y97.998 E45.72152
G1 X103.036 Y97.74 E45.82048
G1 X103.517 Y97.443 E45.94032
G1 X103.942 Y97.2 E46.04411
G1 X104.561 Y96.874 E46.19242
G1 X105.028 Y96.65 E46.30223
G1 X105.531 Y96.43 E46.41862
G1 X105.99 Y96.248 E46.52329
G1 X106.653 Y96.011 E46.67256
G1 X107.178 Y95.845 E46.78929
G1 X107.856 Y95.66 E46.93828
G1 X108.363 Y95.542 E47.04864
G1 X108.904 Y95.436 E47.16551
G1 X109.412 Y95.355 E47.27457
G1 X110.189 Y95.26 E47.44052
G1 X110.805 Y95.211 E47.57152
G1 X111.571 Y95.184 E47.73402
G1 X112.122 Y95.186 E47.85083
G1 X112.744 Y95.212 E47.98281
G1 X113.266 Y95.253 E48.09381
G1 X113.889 Y95.325 E48.22677
G1 X114.351 Y95.394 E48.3258
G1 X114.971 Y95.507 E48.4594
G1 X115.467 Y95.616 E48.56707
G1 X115.993 Y95.751 E48.68219
G1 X116.422 Y95.875 E48.77686
G1 X117.026 Y96.071 E48.91148
G1 X117.48 Y96.236 E49.01389
G1 X117.989 Y96.44 E49.13014
G1 X118.381 Y96.611 E49.22081
G1 X118.881 Y96.847 E49.33802
G1 X119.332 Y97.079 E49.44555
G1 X119.946 Y97.424 E49.59485
G1 X120.415 Y97.712 E49.71153
G1 X120.99 Y98.096 E49.85812
G1 X121.386 Y98.38 E49.96143
G1 X121.81 Y98.707 E50.07494
G1 X122.172 Y99.007 E50.17461
G1 X122.646 Y99.425 E50.30859
G1 X122.993 Y99.751 E50.40953
G1 X123.378 Y100.139 E50.52541
G1 X123.744 Y100.537 E50.64004
G1 X124.258 Y101.14 E50.80801
G1 X124.634 Y101.621 E50.93745
G1 X125.085 Y102.252 E51.10187
G1 X125.427 Y102.779 E51.23506
G1 X125.825 Y103.454 E51.40118
G1 X126.079 Y103.924 E51.51444
G1 X126.327 Y104.427 E51.63334
G1 X126.518 Y104.848 E51.73134
G1 X126.728 Y105.354 E51.84749
G1 X126.893 Y105.791 E51.94652
G1 X127.117 Y106.449 E52.09387
G1 X127.282 Y107.005 E52.21683
G1 X127.456 Y107.695 E52.36769
G1 X127.57 Y108.234 E52.48448
G1 X127.688 Y108.921 E52.63226
G1 X127.76 Y109.468 E52.74922
G1 X127.825 Y110.165 E52.89763
G1 X127.855 Y110.691 E53.00932
G1 X127.867 Y111.312 E53.141
G1 X127.859 Y111.816 E53.24786
G1 X127.827 Y112.441 E53.38053
G1 X127.781 Y112.958 E53.49057
G1 X127.703 Y113.585 E53.62452
G1 X127.615 Y114.124 E53.7403
G1 X127.459 Y114.893 E53.90665
G1 X127.307 Y115.504 E54.04013
G1 X127.088 Y116.243 E54.20353
G1 X126.844 Y116.953 E54.36269
G1 X126.698 Y117.324 E54.44721
G1 X126.423 Y117.967 E54.59547
G1 X126.21 Y118.42 E54.7016
G1 X125.957 Y118.913 E54.81907
G1 X125.732 Y119.318 E54.91729
G1 X125.451 Y119.788 E55.03338
G1 X125.229 Y120.135 E55.12071
G1 X124.918 Y120.593 E55.23808
G1 X124.607 Y121.018 E55.34973
G1 X124.168 Y121.572 E55.49958
G1 X123.834 Y121.963 E55.6086
G1 X123.415 Y122.42 E55.74004
G1 X123.044 Y122.796 E55.85202
G1 X122.535 Y123.275 E56.0002
G1 X122.168 Y123.597 E56.1037
G1 X121.735 Y123.952 E56.22241
G1 X121.372 Y124.231 E56.31947
G1 X120.936 Y124.544 E56.43325
G1 X120.582 Y124.783 E56.5238
G1 X120.113 Y125.079 E56.64137
G1 X119.646 Y125.349 E56.75573
G1 X118.952 Y125.717 E56.92227
G1 X118.447 Y125.96 E57.04108
G1 X117.873 Y126.209 E57.17372
G1 X117.432 Y126.383 E57.27423
G1 X116.914 Y126.568 E57.39084
G1 X116.446 Y126.717 E57.49496
G1 X115.778 Y126.905 E57.64208
G1 X115.205 Y127.042 E57.76698
G1 X114.428 Y127.193 E57.93478
G1 X113.859 Y127.28 E58.05681
G1 X113.234 Y127.35 E58.19014
G1 X112.679 Y127.39 E58.30811
G1 X111.908 Y127.416 E58.47165
G1 X111.393 Y127.415 E58.58083
G1 X110.845 Y127.394 E58.69709
G1 X110.368 Y127.359 E58.79849
G1 X109.743 Y127.293 E58.93173
G1 X109.184 Y127.212 E59.05147
G1 X108.416 Y127.069 E59.21709
G1 X107.89 Y126.95 E59.33142
G1 X107.359 Y126.809 E59.44789
G1 X106.96 Y126.691 E59.5361
G1 X106.449 Y126.523 E59.65014
G1 X106.02 Y126.367 E59.74691
G1 X105.499 Y126.158 E59.86592
G1 X105.085 Y125.976 E59.96179
G1 X104.531 Y125.712 E60.09189
G1 X104.098 Y125.487 E60.19534
G1 X103.615 Y125.215 E60.31286
G1 X103.268 Y125.006 E60.39874
G1 X102.812 Y124.714 E60.51353
G1 X102.439 Y124.459 E60.60932
G1 X101.989 Y124.129 E60.72762
G1 X101.646 Y123.861 E60.8199
G1 X101.231 Y123.516 E60.93431
G1 X100.842 Y123.168 E61.04497
G1 X100.33 Y122.675 E61.19565
G1 X99.963 Y122.294 E61.3078
G1 X99.509 Y121.787 E61.45208
G1 X99.16 Y121.367 E61.56785
G1 X98.766 Y120.853 E61.70514
G1 X98.479 Y120.45 E61.81003
G1 X98.132 Y119.926 E61.94327
G1 X97.85 Y119.462 E62.05838
G1 X97.508 Y118.849 E62.20719
G1 X97.293 Y118.433 E62.30647
G1 X97.064 Y117.951 E62.4196
G1 X96.853 Y117.461 E62.5327
G1 X96.594 Y116.791 E62.68498
G1 X96.433 Y116.328 E62.7889
G1 X96.271 Y115.805 E62.90498
G1 X96.155 Y115.386 E62.99715
G1 X96.027 Y114.862 E63.1115
G1 X95.923 Y114.358 E63.2206
G1 X95.804 Y113.655 E63.37176
G1 X95.735 Y113.122 E63.48569
G1 X95.671 Y112.432 E63.6326
G1 X95.641 Y111.909 E63.74366
G1 X95.629 Y111.289 E63.87513
G1 X95.637 Y110.785 E63.98199
G1 X95.669 Y110.16 E64.11466
G1 X95.715 Y109.641 E64.22512
G1 X95.793 Y109.015 E64.35886
G1 X95.88 Y108.483 E64.47314
G1 X96.034 Y107.721 E64.63795
G1 X96.161 Y107.193 E64.75308
G1 X96.311 Y106.662 E64.87006
G1 X96.463 Y106.188 E64.97558
G1 X96.703 Y105.52 E65.12606
G1 X96.927 Y104.97 E65.25196
G1 X97.249 Y104.264 E65.41647
