;FLAVOR:UltiGCode
;TIME:2189
;MATERIAL:4884
;MATERIAL2:0
;NOZZLE_DIAMETER:0.6
;MINX:82.609
;MINY:106.892
;MINZ:0.4
;MAXX:127.912
;MAXY:152.204
;MAXZ:17.5
;Generated with Cura_SteamEngine master
M82 ;absolute extrusion mode
G0 F3000 Y50 ;avoid prime blob
G92 E0
G92 E0
G10
;LAYER_COUNT:115
;LAYER:0
M107
G0 F3927.3 X91.209 Y111.78 Z0.4
;TYPE:SKIRT
G11
G1 F1800 X91.493 Y111.557 E0.07655
G1 X92.154 Y111.088 E0.24837
G1 X92.858 Y110.687 E0.42013
G1 X93.599 Y110.358 E0.59201
G1 X93.698 Y110.325 E0.61414
G1 X93.964 Y110.087 E0.68981
G1 X94.618 Y109.608 E0.86167
G1 X95.315 Y109.196 E1.03331
G1 X96.031 Y108.854 E1.20153
G1 X96.783 Y108.552 E1.37333
G1 X97.561 Y108.326 E1.54509
G1 X98.358 Y108.177 E1.71698
G1 X98.447 Y108.169 E1.73592
G1 X98.751 Y108.003 E1.80935
G1 X99.497 Y107.687 E1.98111
G1 X100.271 Y107.446 E2.15297
G1 X101.106 Y107.275 E2.33366
G1 X101.472 Y107.22 E2.41212
G1 X102.279 Y107.139 E2.58407
G1 X103.089 Y107.139 E2.75579
G1 X103.511 Y107.18 E2.84567
G1 X103.72 Y107.118 E2.89189
G1 X104.516 Y106.966 E3.06369
G1 X105.323 Y106.892 E3.23549
G1 X106.024 Y106.893 E3.3841
G1 X106.389 Y106.909 E3.46156
G1 X107.196 Y106.984 E3.63338
G1 X107.991 Y107.139 E3.80509
G1 X108.768 Y107.371 E3.977
G1 X109.135 Y107.366 E4.05481
G1 X109.943 Y107.42 E4.22649
G1 X111.119 Y107.645 E4.48033
G1 X111.466 Y107.738 E4.55649
G1 X112.237 Y107.986 E4.72819
G1 X112.98 Y108.309 E4.89994
G1 X113.688 Y108.704 E5.07182
G1 X113.79 Y108.775 E5.09816
G1 X114.072 Y108.829 E5.15904
G1 X114.849 Y109.06 E5.33088
G1 X115.599 Y109.367 E5.50269
G1 X116.237 Y109.7 E5.65526
G1 X116.553 Y109.883 E5.73268
G1 X117.233 Y110.323 E5.90438
G1 X117.867 Y110.828 E6.07622
G1 X118.336 Y111.285 E6.21504
G1 X118.467 Y111.341 E6.24525
G1 X119.178 Y111.731 E6.41717
G1 X119.846 Y112.189 E6.58887
G1 X120.404 Y112.654 E6.74286
G1 X120.673 Y112.899 E6.81999
G1 X121.244 Y113.473 E6.99164
G1 X121.756 Y114.101 E7.16341
G1 X122.204 Y114.777 E7.33534
G1 X122.361 Y114.911 E7.3791
G1 X122.958 Y115.459 E7.5509
G1 X123.498 Y116.063 E7.72266
G1 X123.898 Y116.6 E7.86462
G1 X124.104 Y116.902 E7.94212
G1 X124.527 Y117.593 E8.11388
G1 X124.88 Y118.323 E8.28578
G1 X125.159 Y119.083 E8.45741
G1 X125.165 Y119.107 E8.46266
G1 X125.61 Y119.728 E8.62462
G1 X126.014 Y120.43 E8.79633
G1 X126.27 Y120.98 E8.92494
G1 X126.413 Y121.319 E9.00295
G1 X126.691 Y122.08 E9.17471
G1 X126.892 Y122.865 E9.34649
G1 X127.015 Y123.667 E9.51851
G1 X127.03 Y123.943 E9.5771
G1 X127.084 Y124.049 E9.60232
G1 X127.379 Y124.803 E9.77397
G1 X127.599 Y125.583 E9.94578
G1 X127.734 Y126.326 E10.10588
G1 X127.783 Y126.691 E10.18395
G1 X127.851 Y127.499 E10.35585
G1 X127.839 Y128.309 E10.52759
G1 X127.748 Y129.114 E10.69934
G1 X127.787 Y129.338 E10.74754
G1 X127.889 Y130.142 E10.91936
G1 X127.912 Y130.952 E11.09114
G1 X127.878 Y131.542 E11.21643
G1 X127.844 Y131.906 E11.29394
G1 X127.729 Y132.708 E11.4657
G1 X127.536 Y133.495 E11.63749
G1 X127.266 Y134.259 E11.80927
G1 X127.238 Y134.319 E11.82331
G1 X127.189 Y135.034 E11.97524
G1 X127.055 Y135.834 E12.14721
G1 X126.8 Y136.741 E12.34695
G1 X126.683 Y137.082 E12.42337
G1 X126.383 Y137.835 E12.59521
G1 X126.01 Y138.554 E12.76693
G1 X125.567 Y139.233 E12.93881
G1 X125.477 Y139.52 E13.00257
G1 X125.202 Y140.282 E13.17432
G1 X124.854 Y141.014 E13.34614
G1 X124.444 Y141.695 E13.51466
G1 X124.237 Y142.004 E13.59351
G1 X123.753 Y142.654 E13.76532
G1 X123.208 Y143.254 E13.93716
G1 X122.736 Y143.68 E14.07195
G1 X122.344 Y144.342 E14.23505
G1 X121.865 Y144.995 E14.40674
G1 X121.194 Y145.727 E14.61726
G1 X120.99 Y145.924 E14.67738
G1 X120.38 Y146.458 E14.84925
G1 X119.72 Y146.929 E15.02115
G1 X119.033 Y147.323 E15.18904
G1 X118.919 Y147.458 E15.2265
G1 X118.338 Y148.022 E15.39816
G1 X117.703 Y148.526 E15.57003
G1 X117.158 Y148.885 E15.70839
G1 X116.848 Y149.072 E15.78514
G1 X116.135 Y149.456 E15.95682
G1 X115.386 Y149.768 E16.12884
G1 X114.611 Y150.004 E16.30059
G1 X114.282 Y150.216 E16.38356
G1 X113.577 Y150.616 E16.5554
G1 X112.837 Y150.946 E16.72717
G1 X112.031 Y151.211 E16.90704
G1 X111.675 Y151.308 E16.98527
G1 X110.883 Y151.482 E17.15718
G1 X110.078 Y151.578 E17.32905
G1 X109.637 Y151.586 E17.42255
G1 X109.403 Y151.685 E17.47642
G1 X108.628 Y151.925 E17.64842
G1 X107.835 Y152.088 E17.82005
G1 X107.15 Y152.164 E17.96616
G1 X106.787 Y152.189 E18.0433
G1 X105.977 Y152.204 E18.21505
G1 X105.169 Y152.14 E18.38688
G1 X104.409 Y152.004 E18.55056
G1 X104.277 Y152.027 E18.57896
G1 X103.469 Y152.091 E18.7508
G1 X102.659 Y152.074 E18.92255
G1 X102.003 Y152.001 E19.06248
G1 X101.64 Y151.946 E19.14032
G1 X100.846 Y151.786 E19.31203
G1 X100.071 Y151.547 E19.48396
G1 X99.324 Y151.234 E19.65567
G1 X99.096 Y151.186 E19.70506
G1 X98.296 Y151.059 E19.87679
G1 X97.512 Y150.853 E20.04864
G1 X96.921 Y150.641 E20.18175
G1 X96.583 Y150.505 E20.25899
G1 X95.847 Y150.166 E20.43077
G1 X95.148 Y149.756 E20.60257
G1 X94.493 Y149.279 E20.77435
G1 X94.415 Y149.21 E20.79643
G1 X93.785 Y148.974 E20.93905
G1 X93.058 Y148.616 E21.11085
G1 X92.58 Y148.329 E21.22905
G1 X92.268 Y148.127 E21.30785
G1 X91.611 Y147.653 E21.4796
G1 X91.003 Y147.117 E21.65143
G1 X90.451 Y146.524 E21.82318
G1 X90.193 Y146.185 E21.9135
G1 X89.893 Y146.002 E21.98799
G1 X89.246 Y145.514 E22.1598
G1 X88.65 Y144.965 E22.33159
G1 X88.128 Y144.393 E22.49576
G1 X87.62 Y143.761 E22.66766
G1 X87.177 Y143.082 E22.83953
G1 X86.803 Y142.363 E23.01135
G1 X86.757 Y142.249 E23.03741
G1 X86.465 Y141.955 E23.12526
G1 X85.953 Y141.327 E23.29703
G1 X85.505 Y140.651 E23.46896
G1 X85.164 Y140.015 E23.62195
G1 X85.004 Y139.682 E23.70027
G1 X84.69 Y138.935 E23.87206
G1 X84.45 Y138.161 E24.04385
G1 X84.352 Y137.676 E24.14875
G1 X84.253 Y137.527 E24.18668
G1 X83.876 Y136.81 E24.35841
G1 X83.571 Y136.059 E24.53025
G1 X83.362 Y135.365 E24.68391
G1 X83.272 Y135.01 E24.76155
G1 X83.112 Y134.215 E24.93347
G1 X83.031 Y133.409 E25.1052
G1 X83.029 Y132.599 E25.27692
G1 X82.962 Y132.387 E25.32406
G1 X82.767 Y131.601 E25.49574
G1 X82.651 Y130.798 E25.66774
G1 X82.616 Y130.181 E25.79876
G1 X82.609 Y129.818 E25.87573
G1 X82.633 Y129.008 E26.04752
G1 X82.737 Y128.205 E26.21918
G1 X82.92 Y127.415 E26.39109
G1 X82.903 Y127.02 E26.47491
G1 X82.908 Y126.21 E26.64664
G1 X82.993 Y125.404 E26.81846
G1 X83.162 Y124.592 E26.99429
G1 X83.255 Y124.236 E27.07229
G1 X83.498 Y123.463 E27.24408
G1 X83.816 Y122.717 E27.416
G1 X84.031 Y122.299 E27.51565
G1 X84.187 Y121.504 E27.6874
G1 X84.421 Y120.728 E27.85923
G1 X84.75 Y119.936 E28.04105
G1 X84.905 Y119.612 E28.11719
G1 X85.291 Y118.899 E28.28907
G1 X85.744 Y118.227 E28.46089
G1 X86.262 Y117.604 E28.63265
G1 X86.364 Y117.384 E28.68406
G1 X86.72 Y116.656 E28.85586
G1 X87.145 Y115.966 E29.02766
G1 X87.529 Y115.453 E29.16351
G1 X87.759 Y115.169 E29.24099
G1 X88.299 Y114.565 E29.41275
G1 X88.897 Y114.017 E29.58471
G1 X89.545 Y113.531 E29.75643
G1 X89.663 Y113.375 E29.79789
G1 X90.175 Y112.746 E29.96983
G1 X90.746 Y112.171 E30.14163
G1 X91.209 Y111.78 E30.2701
G0 F3927.3 X91.82 Y111.974
G1 F1800 X92.46 Y111.522 E30.43621
G1 X93.143 Y111.137 E30.60243
G1 X93.862 Y110.824 E30.76867
G1 X93.971 Y110.789 E30.79294
G1 X94.419 Y110.403 E30.91831
G1 X95.061 Y109.953 E31.08452
G1 X95.927 Y109.486 E31.2931
G1 X96.253 Y109.336 E31.36918
G1 X96.981 Y109.045 E31.53539
G1 X97.734 Y108.829 E31.70146
G1 X98.506 Y108.692 E31.86768
G1 X98.608 Y108.684 E31.88937
G1 X99.051 Y108.447 E31.99588
G1 X99.776 Y108.15 E32.16198
G1 X100.528 Y107.927 E32.32827
G1 X101.185 Y107.799 E32.47017
G1 X101.551 Y107.744 E32.54863
G1 X102.331 Y107.668 E32.71478
G1 X103.115 Y107.671 E32.88099
G1 X103.563 Y107.718 E32.97648
G1 X103.921 Y107.615 E33.05546
G1 X104.692 Y107.477 E33.22151
G1 X105.474 Y107.417 E33.38778
G1 X106.001 Y107.422 E33.49951
G1 X106.366 Y107.438 E33.57696
G1 X107.146 Y107.513 E33.74308
G1 X107.915 Y107.666 E33.90931
G1 X108.664 Y107.897 E34.07548
G1 X108.691 Y107.908 E34.08166
G1 X109.28 Y107.9 E34.20654
G1 X110.061 Y107.97 E34.37277
G1 X110.981 Y108.157 E34.5718
G1 X111.328 Y108.25 E34.64796
G1 X112.074 Y108.491 E34.81416
G1 X112.792 Y108.807 E34.98047
G1 X113.473 Y109.195 E35.14663
G1 X113.586 Y109.275 E35.17598
G1 X114.021 Y109.363 E35.27007
G1 X114.769 Y109.595 E35.4361
G1 X115.49 Y109.903 E35.60231
G1 X115.971 Y110.159 E35.71783
G1 X116.287 Y110.342 E35.79524
G1 X116.945 Y110.769 E35.96153
G1 X117.555 Y111.26 E36.12754
G1 X118.032 Y111.732 E36.26981
G1 X118.305 Y111.851 E36.33294
G1 X118.987 Y112.237 E36.49908
G1 X119.627 Y112.69 E36.66531
G1 X120.047 Y113.045 E36.78189
G1 X120.316 Y113.29 E36.85903
G1 X120.868 Y113.847 E37.02528
G1 X121.36 Y114.457 E37.19142
G1 X121.787 Y115.114 E37.35753
G1 X122.082 Y115.368 E37.44006
G1 X122.653 Y115.905 E37.60624
G1 X123.166 Y116.497 E37.77231
G1 X123.666 Y117.2 E37.95519
G1 X124.074 Y117.87 E38.1215
G1 X124.412 Y118.577 E38.28763
G1 X124.676 Y119.315 E38.45379
G1 X124.77 Y119.459 E38.49025
G1 X125.219 Y120.102 E38.65651
G1 X125.6 Y120.787 E38.82268
G1 X125.925 Y121.525 E38.99364
G1 X126.192 Y122.262 E39.15982
G1 X126.383 Y123.022 E39.32595
G1 X126.496 Y123.798 E39.4922
G1 X126.508 Y124.09 E39.55415
G1 X126.632 Y124.337 E39.61275
G1 X126.909 Y125.07 E39.77887
G1 X127.11 Y125.827 E39.94491
G1 X127.209 Y126.396 E40.06735
G1 X127.258 Y126.761 E40.14543
G1 X127.322 Y127.543 E40.31176
G1 X127.307 Y128.326 E40.47779
G1 X127.212 Y129.104 E40.64395
G1 X127.278 Y129.507 E40.73053
G1 X127.368 Y130.286 E40.89677
G1 X127.378 Y131.07 E41.06299
G1 X127.317 Y131.857 E41.23034
G1 X127.204 Y132.632 E41.39638
G1 X127.013 Y133.393 E41.56271
G1 X126.746 Y134.129 E41.72869
G1 X126.71 Y134.345 E41.77512
G1 X126.643 Y135.126 E41.9413
G1 X126.496 Y135.896 E42.10749
G1 X126.299 Y136.569 E42.25615
G1 X126.182 Y136.91 E42.33258
G1 X125.89 Y137.638 E42.49887
G1 X125.526 Y138.331 E42.66481
G1 X125.092 Y138.985 E42.83121
G1 X124.947 Y139.439 E42.93225
G1 X124.673 Y140.173 E43.09835
G1 X124.325 Y140.876 E43.26465
G1 X124.004 Y141.4 E43.39492
G1 X123.797 Y141.709 E43.47377
G1 X123.328 Y142.337 E43.63994
G1 X122.797 Y142.914 E43.80617
G1 X122.319 Y143.338 E43.94163
G1 X122.288 Y143.397 E43.95576
G1 X121.888 Y144.071 E44.12192
G1 X121.421 Y144.701 E44.28817
G1 X120.825 Y145.346 E44.47435
G1 X120.621 Y145.543 E44.53447
G1 X120.031 Y146.058 E44.7005
G1 X119.39 Y146.51 E44.86678
G1 X118.696 Y146.9 E45.03555
G1 X118.479 Y147.152 E45.10605
G1 X117.91 Y147.691 E45.27221
G1 X117.289 Y148.17 E45.43847
G1 X116.574 Y148.618 E45.61735
G1 X115.884 Y148.989 E45.78343
G1 X115.158 Y149.286 E45.94973
G1 X114.407 Y149.509 E46.11581
G1 X114.348 Y149.52 E46.12853
G1 X113.932 Y149.81 E46.23604
G1 X113.246 Y150.189 E46.40219
G1 X112.525 Y150.497 E46.56841
G1 X111.891 Y150.7 E46.70954
G1 X111.535 Y150.797 E46.78776
G1 X110.77 Y150.964 E46.95376
G1 X109.991 Y151.052 E47.11996
G1 X109.527 Y151.057 E47.21833
G1 X109.148 Y151.213 E47.30522
G1 X108.397 Y151.437 E47.47136
G1 X107.627 Y151.582 E47.63747
G1 X107.114 Y151.635 E47.74681
G1 X106.751 Y151.66 E47.82394
G1 X105.967 Y151.674 E47.99018
G1 X105.186 Y151.608 E48.15634
G1 X104.416 Y151.463 E48.32245
G1 X104.134 Y151.511 E48.38309
G1 X103.351 Y151.563 E48.54946
G1 X102.568 Y151.535 E48.71556
G1 X101.72 Y151.422 E48.89692
G1 X100.952 Y151.265 E49.06311
G1 X100.204 Y151.031 E49.22926
G1 X99.483 Y150.722 E49.39556
G1 X99.394 Y150.672 E49.4172
G1 X99.077 Y150.651 E49.48455
G1 X98.305 Y150.518 E49.65063
G1 X97.55 Y150.308 E49.81676
G1 X96.781 Y150.014 E49.9913
G1 X96.07 Y149.684 E50.15747
G1 X95.396 Y149.284 E50.32363
G1 X94.766 Y148.818 E50.48976
G1 X94.632 Y148.729 E50.52386
G1 X93.902 Y148.446 E50.68984
G1 X93.204 Y148.089 E50.85605
G1 X92.556 Y147.682 E51.01828
G1 X91.921 Y147.223 E51.18438
G1 X91.336 Y146.702 E51.35046
G1 X90.806 Y146.123 E51.51687
G1 X90.556 Y145.786 E51.60582
G1 X90.127 Y145.52 E51.71283
G1 X89.507 Y145.041 E51.87893
G1 X88.762 Y144.309 E52.10035
G1 X88.524 Y144.041 E52.17634
G1 X88.034 Y143.429 E52.34255
G1 X87.609 Y142.771 E52.50861
G1 X87.253 Y142.072 E52.67491
G1 X87.205 Y141.949 E52.7029
G1 X86.808 Y141.543 E52.82328
G1 X86.319 Y140.929 E52.98969
G1 X85.896 Y140.27 E53.1557
G1 X85.642 Y139.785 E53.27177
G1 X85.482 Y139.452 E53.35009
G1 X85.179 Y138.729 E53.51628
G1 X84.951 Y137.979 E53.68247
G1 X84.851 Y137.469 E53.79265
G1 X84.671 Y137.19 E53.86303
G1 X84.314 Y136.493 E54.02905
G1 X84.03 Y135.762 E54.19531
G1 X83.876 Y135.235 E54.31171
G1 X83.786 Y134.88 E54.38935
G1 X83.632 Y134.111 E54.55561
G1 X83.558 Y133.331 E54.72172
G1 X83.563 Y132.547 E54.88793
G1 X83.447 Y132.161 E54.97337
G1 X83.268 Y131.398 E55.13952
G1 X83.167 Y130.62 E55.30584
G1 X83.138 Y129.808 E55.4781
G1 X83.163 Y129.025 E55.64418
G1 X83.268 Y128.248 E55.8104
G1 X83.451 Y127.486 E55.97653
G1 X83.472 Y127.427 E55.98981
G1 X83.429 Y126.92 E56.09768
G1 X83.443 Y126.137 E56.2637
G1 X83.537 Y125.358 E56.43005
G1 X83.675 Y124.726 E56.56719
G1 X83.768 Y124.37 E56.6452
G1 X84.004 Y123.622 E56.81148
G1 X84.315 Y122.903 E56.97755
G1 X84.549 Y122.485 E57.07911
G1 X84.576 Y122.248 E57.12968
G1 X84.741 Y121.482 E57.2958
G1 X84.983 Y120.736 E57.46206
G1 X85.228 Y120.165 E57.59379
G1 X85.383 Y119.841 E57.66993
G1 X85.757 Y119.152 E57.83613
G1 X86.199 Y118.504 E58.00242
G1 X86.705 Y117.905 E58.16865
G1 X86.881 Y117.522 E58.25801
G1 X87.234 Y116.822 E58.42421
G1 X87.656 Y116.161 E58.59047
G1 X88.171 Y115.502 E58.76778
G1 X88.695 Y114.919 E58.93396
G1 X89.275 Y114.392 E59.1001
G1 X89.906 Y113.927 E59.26627
G1 X90.136 Y113.627 E59.34641
G1 X90.638 Y113.025 E59.51258
G1 X91.199 Y112.477 E59.67884
G1 X91.82 Y111.974 E59.84826
G0 F3927.3 X91.863 Y112.614
G1 F1800 X92.147 Y112.391 E59.92481
G1 X92.766 Y111.956 E60.0852
G1 X93.427 Y111.588 E60.24559
G1 X94.123 Y111.293 E60.40585
G1 X94.289 Y111.207 E60.44548
G1 X94.871 Y110.724 E60.60582
G1 X95.501 Y110.306 E60.7661
G1 X96.148 Y109.967 E60.92096
G1 X96.474 Y109.817 E60.99703
G1 X97.177 Y109.538 E61.15738
G1 X97.905 Y109.334 E61.31766
G1 X98.651 Y109.208 E61.47805
G1 X98.76 Y109.201 E61.50121
G1 X99.349 Y108.893 E61.64212
G1 X100.053 Y108.615 E61.80258
G1 X100.782 Y108.413 E61.96295
G1 X101.63 Y108.268 E62.14534
G1 X102.383 Y108.196 E62.3057
G1 X103.139 Y108.203 E62.46598
G1 X103.604 Y108.257 E62.56522
G1 X104.119 Y108.114 E62.67853
G1 X104.865 Y107.99 E62.83885
G1 X105.977 Y107.952 E63.07474
G1 X106.342 Y107.968 E63.15219
G1 X107.095 Y108.041 E63.31257
G1 X107.836 Y108.193 E63.47294
G1 X108.557 Y108.422 E63.63331
G1 X108.663 Y108.433 E63.65591
G1 X109.419 Y108.438 E63.81618
G1 X110.171 Y108.523 E63.97662
G1 X110.844 Y108.669 E64.12262
G1 X111.191 Y108.762 E64.19878
G1 X111.91 Y108.996 E64.35907
G1 X112.601 Y109.305 E64.51954
G1 X113.255 Y109.685 E64.6799
G1 X113.372 Y109.771 E64.71068
G1 X113.967 Y109.896 E64.83958
G1 X114.686 Y110.13 E64.99987
G1 X115.706 Y110.617 E65.2395
G1 X116.022 Y110.8 E65.31691
G1 X116.655 Y111.213 E65.47714
G1 X117.242 Y111.691 E65.63763
G1 X117.72 Y112.173 E65.78154
G1 X118.139 Y112.361 E65.8789
G1 X118.793 Y112.742 E66.03936
G1 X119.403 Y113.189 E66.19968
G1 X119.959 Y113.682 E66.35722
G1 X120.49 Y114.22 E66.51747
G1 X120.962 Y114.811 E66.67782
G1 X121.369 Y115.449 E66.83825
G1 X121.401 Y115.514 E66.85361
G1 X121.799 Y115.824 E66.96056
G1 X122.344 Y116.349 E67.12099
G1 X123.022 Y117.197 E67.35116
G1 X123.228 Y117.499 E67.42866
G1 X123.62 Y118.146 E67.58904
G1 X123.943 Y118.83 E67.7494
G1 X124.191 Y119.544 E67.90964
G1 X124.209 Y119.621 E67.92641
G1 X124.4 Y119.847 E67.98914
G1 X124.825 Y120.473 E68.14954
G1 X125.293 Y121.392 E68.36818
G1 X125.436 Y121.731 E68.44618
G1 X125.693 Y122.443 E68.60666
G1 X125.873 Y123.177 E68.76688
G1 X125.975 Y123.926 E68.92713
G1 X125.984 Y124.225 E68.99055
G1 X126.178 Y124.622 E69.08422
G1 X126.436 Y125.333 E69.24457
G1 X126.618 Y126.067 E69.40489
G1 X126.732 Y126.832 E69.56886
G1 X126.793 Y127.586 E69.72923
G1 X126.774 Y128.342 E69.88955
G1 X126.675 Y129.092 E70.04993
G1 X126.659 Y129.157 E70.06412
G1 X126.768 Y129.674 E70.17614
G1 X126.845 Y130.426 E70.3364
G1 X126.823 Y131.443 E70.55205
G1 X126.789 Y131.807 E70.62955
G1 X126.679 Y132.556 E70.79005
G1 X126.491 Y133.288 E70.95027
G1 X126.226 Y133.997 E71.11073
G1 X126.175 Y134.099 E71.13491
G1 X126.175 Y134.459 E71.21123
G1 X126.094 Y135.211 E71.37157
G1 X125.935 Y135.95 E71.53183
