;FLAVOR:UltiGCode
;TIME:1424
;MATERIAL:2918
;MATERIAL2:0
;NOZZLE_DIAMETER:0.6
;MINX:90.82
;MINY:90.82
;MINZ:0.4
;MAXX:132.18
;MAXY:132.18
;MAXZ:13.45
;Generated with Cura_SteamEngine master
M82 ;absolute extrusion mode
G0 F3000 Y50 ;avoid prime blob
G92 E0
G92 E0
G10
;LAYER_COUNT:88
;LAYER:0
M107
G0 F3927.3 X93.226 Y93.381 Z0.4
;TYPE:SKIRT
G11
G1 F1800 X93.381 Y93.226 E0.04647
G1 X93.982 Y92.682 E0.21833
G1 X94.633 Y92.2 E0.39005
G1 X95.329 Y91.784 E0.56195
G1 X96.062 Y91.439 E0.7337
G1 X96.826 Y91.168 E0.90555
G1 X97.612 Y90.973 E1.07724
G1 X98.414 Y90.857 E1.24903
G1 X99.19 Y90.82 E1.41373
G1 X123.81 Y90.82 E6.63317
G1 X124.619 Y90.86 E6.80489
G1 X125.421 Y90.98 E6.9768
G1 X126.207 Y91.177 E7.14859
G1 X126.969 Y91.452 E7.32033
G1 X127.701 Y91.8 E7.49216
G1 X128.395 Y92.219 E7.66402
G1 X129.045 Y92.704 E7.83596
G1 X129.619 Y93.226 E8.00044
G1 X129.774 Y93.381 E8.04691
G1 X130.318 Y93.982 E8.21876
G1 X130.8 Y94.633 E8.39049
G1 X131.216 Y95.329 E8.56239
G1 X131.561 Y96.062 E8.73414
G1 X131.832 Y96.826 E8.90599
G1 X132.027 Y97.612 E9.07767
G1 X132.143 Y98.414 E9.24947
G1 X132.18 Y99.19 E9.41417
G1 X132.18 Y123.81 E14.63361
G1 X132.14 Y124.619 E14.80532
G1 X132.02 Y125.421 E14.97724
G1 X131.823 Y126.207 E15.14903
G1 X131.548 Y126.969 E15.32077
G1 X131.2 Y127.701 E15.4926
G1 X130.781 Y128.395 E15.66446
G1 X130.296 Y129.045 E15.83639
G1 X129.774 Y129.619 E16.00088
G1 X129.619 Y129.774 E16.04735
G1 X129.018 Y130.318 E16.2192
G1 X128.367 Y130.8 E16.39093
G1 X127.671 Y131.216 E16.56283
G1 X126.938 Y131.561 E16.73457
G1 X126.174 Y131.832 E16.90643
G1 X125.388 Y132.027 E17.07811
G1 X124.586 Y132.143 E17.24991
G1 X123.81 Y132.18 E17.4146
G1 X99.19 Y132.18 E22.63404
G1 X98.381 Y132.14 E22.80576
G1 X97.579 Y132.02 E22.97768
G1 X96.793 Y131.823 E23.14946
G1 X96.031 Y131.548 E23.32121
G1 X95.299 Y131.2 E23.49304
G1 X94.605 Y130.781 E23.6649
G1 X93.955 Y130.296 E23.83683
G1 X93.381 Y129.774 E24.00131
G1 X93.226 Y129.619 E24.04779
G1 X92.682 Y129.018 E24.21964
G1 X92.2 Y128.367 E24.39136
G1 X91.784 Y127.671 E24.56326
G1 X91.439 Y126.938 E24.73501
G1 X91.168 Y126.174 E24.90687
G1 X90.973 Y125.388 E25.07855
G1 X90.857 Y124.586 E25.25034
G1 X90.82 Y123.81 E25.41504
G1 X90.82 Y99.19 E30.63448
G1 X90.86 Y98.381 E30.8062
G1 X90.98 Y97.579 E30.97812
G1 X91.177 Y96.793 E31.1499
G1 X91.452 Y96.031 E31.32165
G1 X91.8 Y95.299 E31.49347
G1 X92.219 Y94.605 E31.66534
G1 X92.704 Y93.955 E31.83727
G1 X93.226 Y93.381 E32.00175
G0 F3927.3 X93.601 Y93.756
G1 F1800 X93.756 Y93.601 E32.04822
G1 X94.338 Y93.076 E32.21439
G1 X94.97 Y92.612 E32.38061
G1 X95.646 Y92.216 E32.5467
G1 X96.359 Y91.89 E32.7129
G1 X97.102 Y91.639 E32.87917
G1 X97.866 Y91.465 E33.04528
G1 X98.644 Y91.369 E33.21147
G1 X99.19 Y91.35 E33.32729
G1 X123.81 Y91.35 E38.54673
G1 X124.593 Y91.39 E38.71294
G1 X125.367 Y91.509 E38.87896
G1 X126.126 Y91.707 E39.04525
G1 X126.86 Y91.981 E39.21135
G1 X127.563 Y92.329 E39.37764
G1 X128.227 Y92.746 E39.54387
G1 X128.844 Y93.228 E39.70986
G1 X129.244 Y93.601 E39.8258
G1 X129.399 Y93.756 E39.87228
G1 X129.924 Y94.338 E40.03844
G1 X130.388 Y94.97 E40.20466
G1 X130.784 Y95.646 E40.37075
G1 X131.11 Y96.359 E40.53696
G1 X131.361 Y97.102 E40.70322
G1 X131.535 Y97.866 E40.86933
G1 X131.631 Y98.644 E41.03552
G1 X131.65 Y99.19 E41.15134
G1 X131.65 Y123.81 E46.37078
G1 X131.61 Y124.593 E46.53699
G1 X131.491 Y125.367 E46.70301
G1 X131.293 Y126.126 E46.8693
G1 X131.019 Y126.86 E47.0354
G1 X130.671 Y127.563 E47.2017
G1 X130.254 Y128.227 E47.36792
G1 X129.772 Y128.844 E47.53391
G1 X129.399 Y129.244 E47.64986
G1 X129.244 Y129.399 E47.69633
G1 X128.662 Y129.924 E47.86249
G1 X128.03 Y130.388 E48.02871
G1 X127.354 Y130.784 E48.1948
G1 X126.641 Y131.11 E48.36101
G1 X125.898 Y131.361 E48.52727
G1 X125.134 Y131.535 E48.69338
G1 X124.356 Y131.631 E48.85957
G1 X123.81 Y131.65 E48.97539
G1 X99.19 Y131.65 E54.19483
G1 X98.407 Y131.61 E54.36105
G1 X97.633 Y131.491 E54.52706
G1 X96.874 Y131.293 E54.69336
G1 X96.14 Y131.019 E54.85945
G1 X95.437 Y130.671 E55.02575
G1 X94.773 Y130.254 E55.19197
G1 X94.156 Y129.772 E55.35796
G1 X93.756 Y129.399 E55.47391
G1 X93.601 Y129.244 E55.52038
G1 X93.076 Y128.662 E55.68655
G1 X92.612 Y128.03 E55.85276
G1 X92.216 Y127.354 E56.01885
G1 X91.89 Y126.641 E56.18506
G1 X91.639 Y125.898 E56.35132
G1 X91.465 Y125.134 E56.51744
G1 X91.369 Y124.356 E56.68362
G1 X91.35 Y123.81 E56.79945
G1 X91.35 Y99.19 E62.01889
G1 X91.39 Y98.407 E62.1851
G1 X91.509 Y97.633 E62.35111
G1 X91.707 Y96.874 E62.51741
G1 X91.981 Y96.14 E62.6835
G1 X92.329 Y95.437 E62.8498
G1 X92.746 Y94.773 E63.01603
G1 X93.228 Y94.156 E63.18201
G1 X93.601 Y93.756 E63.29796
G0 F3927.3 X93.976 Y94.131
G1 F1800 X94.131 Y93.976 E63.34443
G1 X94.693 Y93.47 E63.50475
G1 X95.306 Y93.026 E63.66522
G1 X95.961 Y92.65 E63.82533
G1 X96.653 Y92.345 E63.98565
G1 X97.374 Y92.114 E64.14616
G1 X98.115 Y91.961 E64.30656
G1 X99.19 Y91.88 E64.53511
G1 X123.81 Y91.88 E69.75455
G1 X124.565 Y91.92 E69.91483
G1 X125.312 Y92.039 E70.07519
G1 X126.042 Y92.237 E70.23554
G1 X126.747 Y92.511 E70.3959
G1 X127.419 Y92.857 E70.55613
G1 X128.051 Y93.273 E70.71654
G1 X128.869 Y93.976 E70.9452
G1 X129.024 Y94.131 E70.99167
G1 X129.53 Y94.693 E71.15199
G1 X129.974 Y95.306 E71.31245
G1 X130.35 Y95.961 E71.47256
G1 X130.655 Y96.653 E71.63289
G1 X130.886 Y97.374 E71.79339
G1 X131.039 Y98.115 E71.9538
G1 X131.12 Y99.19 E72.18234
G1 X131.12 Y123.81 E77.40178
G1 X131.08 Y124.565 E77.56207
G1 X130.961 Y125.312 E77.72243
G1 X130.763 Y126.042 E77.88278
G1 X130.489 Y126.747 E78.04313
G1 X130.143 Y127.419 E78.20337
G1 X129.727 Y128.051 E78.36377
G1 X129.024 Y128.869 E78.59243
G1 X128.869 Y129.024 E78.6389
G1 X128.307 Y129.53 E78.79923
G1 X127.694 Y129.974 E78.95969
G1 X127.039 Y130.35 E79.1198
G1 X126.347 Y130.655 E79.28012
G1 X125.626 Y130.886 E79.44063
G1 X124.885 Y131.039 E79.60103
G1 X123.81 Y131.12 E79.82958
G1 X99.19 Y131.12 E85.04902
G1 X98.435 Y131.08 E85.2093
G1 X97.688 Y130.961 E85.36967
G1 X96.958 Y130.763 E85.53002
G1 X96.253 Y130.489 E85.69037
G1 X95.581 Y130.143 E85.85061
G1 X94.949 Y129.727 E86.01101
G1 X94.131 Y129.024 E86.23967
G1 X93.976 Y128.869 E86.28614
G1 X93.47 Y128.307 E86.44646
G1 X93.026 Y127.694 E86.60693
G1 X92.65 Y127.039 E86.76704
G1 X92.345 Y126.347 E86.92736
G1 X92.114 Y125.626 E87.08787
G1 X91.961 Y124.885 E87.24827
G1 X91.88 Y123.81 E87.47682
G1 X91.88 Y99.19 E92.69626
G1 X91.92 Y98.435 E92.85654
G1 X92.039 Y97.688 E93.0169
G1 X92.237 Y96.958 E93.17725
G1 X92.511 Y96.253 E93.33761
G1 X92.857 Y95.581 E93.49784
G1 X93.273 Y94.949 E93.65825
G1 X93.976 Y94.131 E93.88691
G0 F3927.3 X94.35 Y94.505
G1 F1800 X94.505 Y94.35 E93.93338
G1 X95.047 Y93.865 E94.08757
G1 X95.64 Y93.442 E94.24199
G1 X96.274 Y93.086 E94.39614
G1 X96.945 Y92.802 E94.55061
G1 X97.642 Y92.593 E94.70487
G1 X98.358 Y92.463 E94.85915
G1 X99.19 Y92.41 E95.03589
G1 X123.81 Y92.41 E100.25533
G1 X124.537 Y92.45 E100.40968
G1 X125.255 Y92.569 E100.56398
G1 X125.955 Y92.767 E100.7182
G1 X126.63 Y93.04 E100.87256
G1 X127.27 Y93.385 E101.0267
G1 X127.869 Y93.799 E101.18107
G1 X128.495 Y94.35 E101.35786
G1 X128.65 Y94.505 E101.40433
G1 X129.135 Y95.047 E101.55853
G1 X129.558 Y95.64 E101.71295
G1 X129.914 Y96.274 E101.8671
G1 X130.198 Y96.945 E102.02156
G1 X130.407 Y97.642 E102.17583
G1 X130.537 Y98.358 E102.3301
G1 X130.59 Y99.19 E102.50684
G1 X130.59 Y123.81 E107.72628
G1 X130.55 Y124.537 E107.88064
G1 X130.431 Y125.255 E108.03493
G1 X130.233 Y125.955 E108.18916
G1 X129.96 Y126.63 E108.34352
G1 X129.615 Y127.27 E108.49765
G1 X129.201 Y127.869 E108.65202
G1 X128.65 Y128.495 E108.82882
G1 X128.495 Y128.65 E108.87529
G1 X127.953 Y129.135 E109.02948
G1 X127.36 Y129.558 E109.1839
G1 X126.726 Y129.914 E109.33805
G1 X126.055 Y130.198 E109.49252
G1 X125.358 Y130.407 E109.64678
G1 X124.642 Y130.537 E109.80106
G1 X123.81 Y130.59 E109.9778
G1 X99.19 Y130.59 E115.19724
G1 X98.463 Y130.55 E115.3516
G1 X97.745 Y130.431 E115.50589
G1 X97.045 Y130.233 E115.66011
G1 X96.37 Y129.96 E115.81447
G1 X95.73 Y129.615 E115.96861
G1 X95.131 Y129.201 E116.12298
G1 X94.505 Y128.65 E116.29978
G1 X94.35 Y128.495 E116.34625
G1 X93.865 Y127.953 E116.50044
G1 X93.442 Y127.36 E116.65486
G1 X93.086 Y126.726 E116.80901
G1 X92.802 Y126.055 E116.96348
G1 X92.593 Y125.358 E117.11774
G1 X92.463 Y124.642 E117.27201
G1 X92.41 Y123.81 E117.44876
G1 X92.41 Y99.19 E122.6682
G1 X92.45 Y98.463 E122.82255
G1 X92.569 Y97.745 E122.97685
G1 X92.767 Y97.045 E123.13107
G1 X93.04 Y96.37 E123.28543
G1 X93.385 Y95.73 E123.43957
G1 X93.799 Y95.131 E123.59393
G1 X94.35 Y94.505 E123.77073
G0 F3927.3 X94.725 Y94.88
G1 F1800 X94.88 Y94.725 E123.8172
G1 X95.401 Y94.261 E123.96511
G1 X95.972 Y93.859 E124.11315
G1 X96.585 Y93.525 E124.26115
G1 X97.232 Y93.263 E124.40913
G1 X97.905 Y93.077 E124.55715
G1 X98.594 Y92.969 E124.705
G1 X99.19 Y92.94 E124.83151
G1 X123.81 Y92.94 E130.05095
G1 X124.507 Y92.98 E130.19895
G1 X125.195 Y93.099 E130.34698
G1 X125.864 Y93.297 E130.49488
G1 X126.507 Y93.569 E130.6429
G1 X127.114 Y93.913 E130.79081
G1 X127.678 Y94.325 E130.93888
G1 X128.12 Y94.725 E131.06526
G1 X128.275 Y94.88 E131.11173
G1 X128.739 Y95.401 E131.25963
G1 X129.141 Y95.972 E131.40768
G1 X129.475 Y96.585 E131.55567
G1 X129.737 Y97.232 E131.70366
G1 X129.923 Y97.905 E131.85168
G1 X130.031 Y98.594 E131.99953
G1 X130.06 Y99.19 E132.12603
G1 X130.06 Y123.81 E137.34547
G1 X130.02 Y124.507 E137.49348
G1 X129.901 Y125.195 E137.6415
G1 X129.703 Y125.864 E137.78941
G1 X129.431 Y126.507 E137.93742
G1 X129.087 Y127.114 E138.08533
G1 X128.675 Y127.678 E138.23341
G1 X128.275 Y128.12 E138.35979
G1 X128.12 Y128.275 E138.40626
G1 X127.599 Y128.739 E138.55416
G1 X127.028 Y129.141 E138.7022
G1 X126.415 Y129.475 E138.8502
G1 X125.768 Y129.737 E138.99818
G1 X125.095 Y129.923 E139.14621
G1 X124.406 Y130.031 E139.29406
G1 X123.81 Y130.06 E139.42056
G1 X99.19 Y130.06 E144.64
G1 X98.493 Y130.02 E144.78801
G1 X97.805 Y129.901 E144.93603
G1 X97.136 Y129.703 E145.08394
G1 X96.493 Y129.431 E145.23195
G1 X95.886 Y129.087 E145.37986
G1 X95.322 Y128.675 E145.52793
G1 X94.88 Y128.275 E145.65431
G1 X94.725 Y128.12 E145.70078
G1 X94.261 Y127.599 E145.84869
G1 X93.859 Y127.028 E145.99673
G1 X93.525 Y126.415 E146.14473
G1 X93.263 Y125.768 E146.29271
G1 X93.077 Y125.095 E146.44073
G1 X92.969 Y124.406 E146.58859
G1 X92.94 Y123.81 E146.71509
G1 X92.94 Y99.19 E151.93453
G1 X92.98 Y98.493 E152.08253
G1 X93.099 Y97.805 E152.23056
G1 X93.297 Y97.136 E152.37847
G1 X93.569 Y96.493 E152.52648
G1 X93.913 Y95.886 E152.67439
G1 X94.325 Y95.322 E152.82246
G1 X94.725 Y94.88 E152.94884
G0 F3927.3 X95.255 Y95.1
G1 F1800 X95.754 Y94.657 E153.0903
G1 X96.302 Y94.278 E153.23155
G1 X96.892 Y93.967 E153.37295
G1 X97.515 Y93.728 E153.51441
G1 X98.162 Y93.566 E153.65581
G1 X98.824 Y93.482 E153.79728
G1 X99.19 Y93.47 E153.87491
G1 X123.81 Y93.47 E159.09435
G1 X124.476 Y93.51 E159.2358
G1 X125.132 Y93.629 E159.37714
G1 X125.769 Y93.826 E159.51849
G1 X126.378 Y94.098 E159.65989
G1 X126.95 Y94.441 E159.80129
G1 X127.477 Y94.849 E159.94258
G1 X127.9 Y95.255 E160.06688
G1 X128.343 Y95.754 E160.20834
G1 X128.722 Y96.302 E160.3496
G1 X129.033 Y96.892 E160.49099
G1 X129.272 Y97.515 E160.63245
G1 X129.434 Y98.162 E160.77385
G1 X129.518 Y98.824 E160.91532
G1 X129.53 Y99.19 E160.99295
G1 X129.53 Y123.81 E166.21239
G1 X129.49 Y124.476 E166.35384
G1 X129.371 Y125.132 E166.49518
G1 X129.174 Y125.769 E166.63653
G1 X128.902 Y126.378 E166.77793
G1 X128.559 Y126.95 E166.91933
G1 X128.151 Y127.477 E167.06062
G1 X127.745 Y127.9 E167.18492
G1 X127.246 Y128.343 E167.32638
G1 X126.698 Y128.722 E167.46764
G1 X126.108 Y129.033 E167.60903
G1 X125.485 Y129.272 E167.75049
G1 X124.838 Y129.434 E167.89189
G1 X124.176 Y129.518 E168.03336
G1 X123.81 Y129.53 E168.11099
G1 X99.19 Y129.53 E173.33043
G1 X98.524 Y129.49 E173.47188
G1 X97.868 Y129.371 E173.61322
G1 X97.231 Y129.174 E173.75458
G1 X96.622 Y128.902 E173.89598
G1 X96.05 Y128.559 E174.03737
G1 X95.523 Y128.151 E174.17866
G1 X95.1 Y127.745 E174.30296
G1 X94.657 Y127.246 E174.44442
G1 X94.278 Y126.698 E174.58568
G1 X93.967 Y126.108 E174.72707
G1 X93.728 Y125.485 E174.86853
G1 X93.566 Y124.838 E175.00993
G1 X93.482 Y124.176 E175.1514
G1 X93.47 Y123.81 E175.22903
G1 X93.47 Y99.19 E180.44847
G1 X93.51 Y98.524 E180.58992
G1 X93.629 Y97.868 E180.73126
G1 X93.826 Y97.231 E180.87262
G1 X94.098 Y96.622 E181.01402
G1 X94.441 Y96.05 E181.15541
G1 X94.849 Y95.523 E181.2967
G1 X95.255 Y95.1 E181.421
G0 F3927.3 X95.475 Y95.63
G1 F1800 X95.63 Y95.475 E181.46747
G1 X96.106 Y95.055 E181.60205
G1 X96.631 Y94.699 E181.73653
G1 X97.196 Y94.412 E181.87088
G1 X97.793 Y94.198 E182.00533
G1 X98.412 Y94.06 E182.13978
G1 X99.19 Y94 E182.3052
G1 X123.81 Y94 E187.52464
G1 X124.443 Y94.04 E187.6591
G1 X125.066 Y94.159 E187.79357
G1 X125.669 Y94.356 E187.92805
G1 X126.243 Y94.627 E188.06262
G1 X126.778 Y94.968 E188.19712
G1 X127.37 Y95.475 E188.36236
G1 X127.525 Y95.63 E188.40883
G1 X127.945 Y96.106 E188.54341
G1 X128.301 Y96.631 E188.67789
G1 X128.588 Y97.196 E188.81223
G1 X128.802 Y97.793 E188.94668
G1 X128.94 Y98.412 E189.08113
G1 X129 Y99.19 E189.24656
G1 X129 Y123.81 E194.466
G1 X128.96 Y124.443 E194.60046
G1 X128.841 Y125.066 E194.73493
G1 X128.644 Y125.669 E194.86941
G1 X128.373 Y126.243 E195.00398
G1 X128.032 Y126.778 E195.13848
G1 X127.525 Y127.37 E195.30372
G1 X127.37 Y127.525 E195.35019
G1 X126.894 Y127.945 E195.48477
G1 X126.369 Y128.301 E195.61925
G1 X125.804 Y128.588 E195.75359
G1 X125.207 Y128.802 E195.88804
G1 X124.588 Y128.94 E196.02249
G1 X123.81 Y129 E196.18792
G1 X99.19 Y129 E201.40736
G1 X98.557 Y128.96 E201.54182
G1 X97.934 Y128.841 E201.67629
G1 X97.331 Y128.644 E201.81077
G1 X96.757 Y128.373 E201.94534
G1 X96.222 Y128.032 E202.07984
G1 X95.63 Y127.525 E202.24508
G1 X95.475 Y127.37 E202.29155
G1 X95.055 Y126.894 E202.42613
G1 X94.699 Y126.369 E202.5606
G1 X94.412 Y125.804 E202.69495
G1 X94.198 Y125.207 E202.8294
G1 X94.06 Y124.588 E202.96385
G1 X94 Y123.81 E203.12928
G1 X94 Y99.19 E208.34872
G1 X94.04 Y98.557 E208.48318
G1 X94.159 Y97.934 E208.61764
G1 X94.356 Y97.331 E208.75213
G1 X94.627 Y96.757 E208.8867
G1 X94.968 Y96.222 E209.0212
G1 X95.475 Y95.63 E209.18644
G0 F3927.3 X95.849 Y96.004
G1 F1800 X96.004 Y95.849 E209.23291
G1 X96.456 Y95.454 E209.36017
G1 X96.956 Y95.123 E209.48729
G1 X97.496 Y94.861 E209.61453
G1 X98.066 Y94.673 E209.74177
G1 X98.655 Y94.562 E209.86884
G1 X99.19 Y94.53 E209.98246
G1 X123.81 Y94.53 E215.2019
G1 X124.409 Y94.57 E215.32917
G1 X124.997 Y94.689 E215.45636
G1 X125.564 Y94.885 E215.58354
G1 X126.1 Y95.155 E215.71078
G1 X126.595 Y95.494 E215.83797
G1 X126.996 Y95.849 E215.9515
G1 X127.151 Y96.004 E215.99798
G1 X127.546 Y96.456 E216.12523
G1 X127.877 Y96.956 E216.25236
G1 X128.139 Y97.496 E216.3796
G1 X128.327 Y98.066 E216.50684
G1 X128.438 Y98.655 E216.63391
G1 X128.47 Y99.19 E216.74753
G1 X128.47 Y123.81 E221.96697
G1 X128.43 Y124.409 E222.09424
G1 X128.311 Y124.997 E222.22143
G1 X128.115 Y125.564 E222.34861
G1 X127.845 Y126.1 E222.47584
G1 X127.506 Y126.595 E222.60303
G1 X127.151 Y126.996 E222.71657
G1 X126.996 Y127.151 E222.76304
G1 X126.544 Y127.546 E222.8903
G1 X126.044 Y127.877 E223.01742
G1 X125.504 Y128.139 E223.14467
G1 X124.934 Y128.327 E223.27191
G1 X124.345 Y128.438 E223.39898
G1 X123.81 Y128.47 E223.5126
G1 X99.19 Y128.47 E228.73204
G1 X98.591 Y128.43 E228.85931
G1 X98.003 Y128.311 E228.98649
G1 X97.436 Y128.115 E229.11368
G1 X96.9 Y127.845 E229.24091
G1 X96.405 Y127.506 E229.3681
G1 X96.004 Y127.151 E229.48164
G1 X95.849 Y126.996 E229.52811
G1 X95.454 Y126.544 E229.65537
G1 X95.123 Y126.044 E229.78249
G1 X94.861 Y125.504 E229.90973
G1 X94.673 Y124.934 E230.03698
G1 X94.562 Y124.345 E230.16404
G1 X94.53 Y123.81 E230.27767
G1 X94.53 Y99.19 E235.49711
G1 X94.57 Y98.591 E235.62438
G1 X94.689 Y98.003 E235.75156
G1 X94.885 Y97.436 E235.87874
G1 X95.155 Y96.9 E236.00598
G1 X95.494 Y96.405 E236.13317
G1 X95.849 Y96.004 E236.24671
G0 F3927.3 X96.379 Y96.224
G1 F1800 X96.805 Y95.855 E236.36619
G1 X97.279 Y95.55 E236.48568
G1 X97.791 Y95.314 E236.6052
G1 X98.331 Y95.154 E236.7246
G1 X98.888 Y95.071 E236.84399
G1 X99.19 Y95.06 E236.90806
G1 X123.81 Y95.06 E242.1275
G1 X124.372 Y95.1 E242.24694
