;FLAVOR:UltiGCode
;TIME:706
;MATERIAL:1471
;MATERIAL2:0
;NOZZLE_DIAMETER:0.6
;MINX:112.751
;MINY:90.39
;MINZ:0.4
;MAXX:143.103
;MAXY:120.737
;MAXZ:14.95
;Generated with Cura_SteamEngine master
M82 ;absolute extrusion mode
G0 F3000 Y50 ;avoid prime blob
G92 E0
G92 E0
G10
;LAYER_COUNT:98
;LAYER:0
M107
G0 F3927.3 X116.068 Y96.096 Z0.4
;TYPE:SKIRT
G11
G1 F1800 X116.58 Y95.49 E0.16819
G1 X117.036 Y94.999 E0.31025
G1 X117.604 Y94.443 E0.47875
G1 X118.134 Y93.973 E0.62893
G1 X118.789 Y93.449 E0.80675
G1 X119.337 Y93.055 E0.94984
G1 X120.03 Y92.608 E1.12467
G1 X120.67 Y92.239 E1.28128
G1 X121.439 Y91.848 E1.46418
G1 X122.11 Y91.55 E1.61983
G1 X122.932 Y91.237 E1.8063
G1 X123.62 Y91.016 E1.95949
G1 X124.308 Y90.827 E2.11075
G1 X124.835 Y90.707 E2.22533
G1 X125.603 Y90.57 E2.39072
G1 X126.336 Y90.475 E2.54742
G1 X127.128 Y90.411 E2.71587
G1 X127.781 Y90.39 E2.85438
G1 X128.63 Y90.407 E3.0344
G1 X129.372 Y90.46 E3.1921
G1 X130.202 Y90.562 E3.36939
G1 X130.854 Y90.676 E3.50971
G1 X131.624 Y90.849 E3.67702
G1 X132.327 Y91.043 E3.83162
G1 X133.071 Y91.287 E3.99762
G1 X133.582 Y91.482 E4.11357
G1 X134.147 Y91.722 E4.24371
G1 X134.645 Y91.956 E4.36036
G1 X135.316 Y92.31 E4.52119
G1 X135.894 Y92.65 E4.66336
G1 X136.553 Y93.082 E4.83041
G1 X137.136 Y93.505 E4.98311
G1 X137.812 Y94.052 E5.16746
G1 X138.349 Y94.536 E5.32072
G1 X138.884 Y95.064 E5.48008
G1 X139.259 Y95.47 E5.59725
G1 X139.741 Y96.043 E5.75599
G1 X140.183 Y96.619 E5.90991
G1 X140.647 Y97.289 E6.08268
G1 X141 Y97.858 E6.22464
G1 X141.398 Y98.578 E6.39905
G1 X141.696 Y99.187 E6.54278
G1 X142.01 Y99.917 E6.71125
G1 X142.262 Y100.59 E6.8636
G1 X142.508 Y101.358 E7.03457
G1 X142.677 Y101.993 E7.17387
G1 X142.841 Y102.751 E7.33829
G1 X142.943 Y103.361 E7.4694
G1 X143.035 Y104.141 E7.63591
G1 X143.086 Y104.868 E7.79041
G1 X143.103 Y105.646 E7.95539
G1 X143.088 Y106.253 E8.08411
G1 X143.028 Y107.066 E8.25694
G1 X142.938 Y107.788 E8.41119
G1 X142.817 Y108.501 E8.5645
G1 X142.699 Y109.049 E8.68334
G1 X142.505 Y109.784 E8.8445
G1 X142.294 Y110.455 E8.99362
G1 X142.005 Y111.234 E9.16976
G1 X141.736 Y111.86 E9.31421
G1 X141.413 Y112.526 E9.47113
G1 X141.123 Y113.062 E9.60033
G1 X140.724 Y113.724 E9.76419
G1 X140.351 Y114.281 E9.90631
G1 X139.858 Y114.943 E10.08129
G1 X139.387 Y115.513 E10.23805
G1 X138.811 Y116.14 E10.41855
G1 X138.297 Y116.645 E10.57131
G1 X137.64 Y117.225 E10.7571
G1 X137.073 Y117.674 E10.91043
G1 X136.468 Y118.11 E11.06853
G1 X135.957 Y118.444 E11.19795
G1 X135.244 Y118.861 E11.37306
G1 X134.596 Y119.197 E11.5278
G1 X133.893 Y119.52 E11.69182
G1 X133.329 Y119.748 E11.82079
G1 X132.575 Y120.011 E11.99008
G1 X131.877 Y120.217 E12.14437
G1 X131.09 Y120.408 E12.31605
G1 X130.434 Y120.533 E12.45763
G1 X129.689 Y120.64 E12.61719
G1 X129.081 Y120.699 E12.74669
G1 X128.277 Y120.737 E12.91733
G1 X127.542 Y120.736 E13.07315
G1 X126.8 Y120.701 E13.23063
G1 X126.268 Y120.652 E13.34389
G1 X125.574 Y120.559 E13.49233
G1 X124.909 Y120.44 E13.63555
G1 X124.106 Y120.254 E13.81029
G1 X123.46 Y120.07 E13.95269
G1 X122.734 Y119.826 E14.11507
G1 X122.119 Y119.587 E14.25494
G1 X121.469 Y119.301 E14.40549
G1 X120.975 Y119.058 E14.52221
G1 X120.335 Y118.703 E14.67736
G1 X120.252 Y118.655 E14.69769
G1 X119.775 Y118.366 E14.81592
G1 X119.114 Y117.92 E14.98497
G1 X118.566 Y117.51 E15.13007
G1 X117.913 Y116.967 E15.31011
G1 X117.337 Y116.435 E15.47634
G1 X116.77 Y115.857 E15.64799
G1 X116.403 Y115.444 E15.76512
G1 X115.965 Y114.906 E15.91219
G1 X115.571 Y114.379 E16.05169
G1 X115.136 Y113.737 E16.21609
G1 X114.822 Y113.222 E16.34397
G1 X114.497 Y112.636 E16.48603
G1 X114.245 Y112.135 E16.60492
G1 X113.961 Y111.507 E16.75104
G1 X113.738 Y110.952 E16.87784
G1 X113.479 Y110.205 E17.04545
G1 X113.271 Y109.497 E17.20189
G1 X113.083 Y108.715 E17.3724
G1 X112.96 Y108.068 E17.51202
G1 X112.851 Y107.301 E17.67626
G1 X112.789 Y106.64 E17.817
G1 X112.753 Y105.903 E17.97343
G1 X112.751 Y105.352 E18.09025
G1 X112.786 Y104.56 E18.25831
G1 X112.86 Y103.766 E18.42737
G1 X112.975 Y102.967 E18.59851
G1 X113.089 Y102.378 E18.72569
G1 X113.252 Y101.693 E18.87497
G1 X113.416 Y101.116 E19.00213
G1 X113.638 Y100.445 E19.15197
G1 X113.834 Y99.929 E19.26899
G1 X114.131 Y99.244 E19.42727
G1 X114.452 Y98.586 E19.58248
G1 X114.858 Y97.851 E19.76049
G1 X115.216 Y97.275 E19.90427
G1 X115.662 Y96.628 E20.07086
G1 X116.068 Y96.096 E20.21274
G0 F3927.3 X116.49 Y96.418
G1 F1800 X116.968 Y95.85 E20.37012
G1 X117.424 Y95.359 E20.51218
G1 X117.956 Y94.839 E20.66989
G1 X118.486 Y94.369 E20.82007
G1 X119.099 Y93.879 E20.98644
G1 X119.647 Y93.485 E21.12953
G1 X120.294 Y93.067 E21.29283
G1 X120.934 Y92.698 E21.44944
G1 X121.654 Y92.332 E21.62067
G1 X122.325 Y92.034 E21.77632
G1 X123.094 Y91.741 E21.95078
G1 X123.782 Y91.52 E22.10398
G1 X124.426 Y91.344 E22.24551
G1 X124.953 Y91.224 E22.3601
G1 X125.671 Y91.096 E22.51471
G1 X126.404 Y91.001 E22.67141
G1 X127.145 Y90.941 E22.82901
G1 X127.798 Y90.92 E22.96752
G1 X128.593 Y90.936 E23.1361
G1 X129.335 Y90.989 E23.2938
G1 X130.111 Y91.084 E23.45954
G1 X130.763 Y91.198 E23.59986
G1 X131.483 Y91.36 E23.75632
G1 X132.186 Y91.554 E23.91092
G1 X132.882 Y91.782 E24.06619
G1 X133.393 Y91.977 E24.18214
G1 X133.921 Y92.202 E24.30382
G1 X134.419 Y92.436 E24.42047
G1 X135.047 Y92.767 E24.57097
G1 X135.625 Y93.107 E24.71313
G1 X136.242 Y93.511 E24.86948
G1 X136.825 Y93.934 E25.02218
G1 X137.457 Y94.445 E25.19448
G1 X137.994 Y94.929 E25.34774
G1 X138.494 Y95.424 E25.4969
G1 X138.869 Y95.83 E25.61407
G1 X139.321 Y96.366 E25.76271
G1 X139.763 Y96.942 E25.91663
G1 X140.196 Y97.569 E26.07818
G1 X140.549 Y98.138 E26.22013
G1 X140.922 Y98.811 E26.38326
G1 X141.22 Y99.42 E26.52699
G1 X141.514 Y100.103 E26.68463
G1 X141.766 Y100.776 E26.83698
G1 X141.995 Y101.495 E26.99695
G1 X142.164 Y102.13 E27.13626
G1 X142.318 Y102.839 E27.29007
G1 X142.42 Y103.449 E27.42119
G1 X142.506 Y104.178 E27.57681
G1 X142.557 Y104.905 E27.73131
G1 X142.574 Y105.633 E27.88569
G1 X142.559 Y106.24 E28.01441
G1 X142.502 Y107.001 E28.1762
G1 X142.412 Y107.723 E28.33045
G1 X142.299 Y108.39 E28.47386
G1 X142.181 Y108.938 E28.5927
G1 X141.999 Y109.625 E28.74337
G1 X141.788 Y110.296 E28.89249
G1 X141.518 Y111.025 E29.0573
G1 X141.249 Y111.651 E29.20174
G1 X140.947 Y112.274 E29.34852
G1 X140.657 Y112.81 E29.47772
G1 X140.283 Y113.429 E29.63104
G1 X139.91 Y113.986 E29.77315
G1 X139.449 Y114.605 E29.93678
G1 X138.978 Y115.175 E30.09353
G1 X138.44 Y115.762 E30.26234
G1 X137.926 Y116.267 E30.4151
G1 X137.311 Y116.81 E30.58903
G1 X136.744 Y117.259 E30.74236
G1 X136.178 Y117.667 E30.89027
G1 X135.667 Y118.001 E31.01969
G1 X135 Y118.39 E31.18339
G1 X134.352 Y118.726 E31.33813
G1 X133.694 Y119.029 E31.49171
G1 X133.13 Y119.257 E31.62068
G1 X132.425 Y119.503 E31.77898
G1 X131.727 Y119.709 E31.93326
G1 X130.99 Y119.887 E32.094
G1 X130.334 Y120.012 E32.23557
G1 X129.638 Y120.112 E32.38464
G1 X129.03 Y120.171 E32.51414
G1 X128.278 Y120.207 E32.67375
G1 X127.543 Y120.206 E32.82957
G1 X126.848 Y120.174 E32.97706
G1 X126.316 Y120.125 E33.09033
G1 X125.667 Y120.037 E33.22917
G1 X125.002 Y119.918 E33.37239
G1 X124.251 Y119.744 E33.53582
G1 X123.605 Y119.56 E33.67822
G1 X122.926 Y119.332 E33.83007
G1 X122.311 Y119.093 E33.96995
G1 X121.703 Y118.826 E34.11072
G1 X121.209 Y118.583 E34.22744
G1 X120.611 Y118.249 E34.37265
G1 X120.52 Y118.198 E34.39476
G1 X120.05 Y117.913 E34.51129
G1 X119.431 Y117.495 E34.66963
G1 X118.883 Y117.085 E34.81473
G1 X118.273 Y116.577 E34.98302
G1 X117.697 Y116.045 E35.14925
G1 X117.166 Y115.505 E35.3098
G1 X116.799 Y115.092 E35.42693
G1 X116.389 Y114.589 E35.56451
G1 X115.995 Y114.062 E35.704
G1 X115.588 Y113.461 E35.85788
G1 X115.274 Y112.946 E35.98575
G1 X114.971 Y112.398 E36.11851
G1 X114.719 Y111.897 E36.2374
G1 X114.453 Y111.309 E36.37422
G1 X114.23 Y110.754 E36.50102
G1 X113.988 Y110.055 E36.65784
G1 X113.78 Y109.347 E36.81428
G1 X113.603 Y108.616 E36.97373
G1 X113.48 Y107.969 E37.11335
G1 X113.379 Y107.252 E37.26685
G1 X113.317 Y106.591 E37.4076
G1 X113.283 Y105.901 E37.55406
G1 X113.281 Y105.35 E37.67087
G1 X113.314 Y104.609 E37.82812
G1 X113.388 Y103.815 E37.99717
G1 X113.495 Y103.068 E38.15715
G1 X113.609 Y102.479 E38.28434
G1 X113.762 Y101.838 E38.42405
G1 X113.926 Y101.261 E38.55122
G1 X114.134 Y100.633 E38.69147
G1 X114.33 Y100.117 E38.80848
G1 X114.607 Y99.477 E38.95633
G1 X114.928 Y98.819 E39.11154
G1 X115.308 Y98.131 E39.27816
G1 X115.666 Y97.555 E39.42194
G1 X116.084 Y96.95 E39.57783
G1 X116.49 Y96.418 E39.71971
G0 F3927.3 X116.911 Y96.739
G1 F1800 X117.356 Y96.211 E39.8661
G1 X117.812 Y95.72 E40.00816
G1 X118.308 Y95.236 E40.15508
G1 X118.838 Y94.766 E40.30525
G1 X119.408 Y94.31 E40.46
G1 X119.956 Y93.916 E40.60309
G1 X120.559 Y93.526 E40.75533
G1 X121.199 Y93.157 E40.91195
G1 X121.869 Y92.817 E41.07123
G1 X122.54 Y92.519 E41.22688
G1 X123.256 Y92.246 E41.38933
G1 X123.944 Y92.025 E41.54253
G1 X124.543 Y91.861 E41.67419
G1 X125.07 Y91.741 E41.78877
G1 X125.739 Y91.621 E41.93287
G1 X126.472 Y91.526 E42.08956
G1 X127.162 Y91.471 E42.23631
G1 X127.815 Y91.45 E42.37481
G1 X128.555 Y91.464 E42.53172
G1 X129.297 Y91.517 E42.68943
G1 X130.019 Y91.606 E42.84365
G1 X130.671 Y91.72 E42.98397
G1 X131.342 Y91.871 E43.12978
G1 X132.045 Y92.065 E43.28439
G1 X132.693 Y92.277 E43.42893
G1 X133.204 Y92.472 E43.54488
G1 X133.696 Y92.681 E43.6582
G1 X134.194 Y92.915 E43.77485
G1 X134.779 Y93.224 E43.91511
G1 X135.357 Y93.564 E44.05728
G1 X135.931 Y93.94 E44.20275
G1 X136.514 Y94.363 E44.35545
G1 X137.102 Y94.839 E44.51583
G1 X137.639 Y95.323 E44.66909
G1 X138.105 Y95.783 E44.80791
G1 X138.48 Y96.189 E44.92508
G1 X138.9 Y96.688 E45.06335
G1 X139.342 Y97.264 E45.21727
G1 X139.746 Y97.848 E45.36782
G1 X140.099 Y98.417 E45.50977
G1 X140.446 Y99.044 E45.66169
G1 X140.744 Y99.653 E45.80543
G1 X141.018 Y100.289 E45.95224
G1 X141.27 Y100.962 E46.10459
G1 X141.483 Y101.631 E46.25344
G1 X141.652 Y102.266 E46.39274
G1 X141.795 Y102.926 E46.53591
G1 X141.897 Y103.536 E46.66702
G1 X141.977 Y104.215 E46.81197
G1 X142.028 Y104.942 E46.96647
G1 X142.044 Y105.62 E47.11025
G1 X142.029 Y106.227 E47.23897
G1 X141.976 Y106.935 E47.38949
G1 X141.886 Y107.657 E47.54373
G1 X141.781 Y108.278 E47.67726
G1 X141.663 Y108.826 E47.79609
G1 X141.493 Y109.466 E47.93648
G1 X141.282 Y110.137 E48.0856
G1 X141.031 Y110.816 E48.23907
G1 X140.762 Y111.442 E48.38351
G1 X140.481 Y112.022 E48.52014
G1 X140.191 Y112.558 E48.64934
G1 X139.843 Y113.134 E48.79201
G1 X139.47 Y113.691 E48.93413
G1 X139.041 Y114.268 E49.08655
G1 X138.57 Y114.838 E49.24331
G1 X138.068 Y115.384 E49.40055
G1 X137.554 Y115.889 E49.55331
G1 X136.982 Y116.394 E49.71507
G1 X136.415 Y116.843 E49.8684
G1 X135.888 Y117.223 E50.00614
G1 X135.377 Y117.557 E50.13556
G1 X134.756 Y117.92 E50.28806
G1 X134.108 Y118.256 E50.4428
G1 X133.496 Y118.537 E50.58557
G1 X132.932 Y118.765 E50.71454
G1 X132.275 Y118.994 E50.86204
G1 X131.577 Y119.2 E51.01633
G1 X130.891 Y119.367 E51.16601
G1 X130.235 Y119.492 E51.30758
G1 X129.587 Y119.585 E51.44636
G1 X128.979 Y119.644 E51.57587
G1 X128.278 Y119.677 E51.72464
G1 X127.543 Y119.676 E51.88046
G1 X126.897 Y119.646 E52.01756
G1 X126.365 Y119.597 E52.13082
G1 X125.761 Y119.515 E52.26005
G1 X125.096 Y119.396 E52.40326
G1 X124.396 Y119.234 E52.55559
G1 X123.75 Y119.05 E52.69799
G1 X123.118 Y118.838 E52.83931
G1 X122.503 Y118.599 E52.97919
G1 X121.937 Y118.35 E53.11028
G1 X121.443 Y118.107 E53.22699
G1 X120.886 Y117.796 E53.36223
G1 X120.325 Y117.46 E53.50087
G1 X119.749 Y117.071 E53.64822
G1 X119.201 Y116.661 E53.79331
G1 X118.632 Y116.188 E53.95017
G1 X118.056 Y115.656 E54.1164
G1 X117.563 Y115.153 E54.26572
G1 X117.196 Y114.74 E54.38285
G1 X116.813 Y114.271 E54.51122
G1 X116.419 Y113.744 E54.65071
G1 X116.041 Y113.185 E54.79377
G1 X115.727 Y112.67 E54.92164
G1 X115.444 Y112.16 E55.04529
G1 X115.192 Y111.659 E55.16419
G1 X114.945 Y111.112 E55.29142
G1 X114.722 Y110.557 E55.41823
G1 X114.496 Y109.906 E55.56432
G1 X114.288 Y109.198 E55.72076
G1 X114.124 Y108.517 E55.86926
G1 X114.001 Y107.87 E56.00888
G1 X113.906 Y107.202 E56.15192
G1 X113.844 Y106.541 E56.29267
G1 X113.813 Y105.899 E56.42893
G1 X113.811 Y105.348 E56.54574
G1 X113.842 Y104.658 E56.69217
G1 X113.916 Y103.864 E56.86123
G1 X114.015 Y103.168 E57.01026
G1 X114.129 Y102.579 E57.13745
G1 X114.272 Y101.983 E57.26739
G1 X114.436 Y101.406 E57.39456
G1 X114.629 Y100.821 E57.52515
G1 X114.825 Y100.305 E57.64217
G1 X115.083 Y99.709 E57.77985
G1 X115.404 Y99.051 E57.93506
G1 X115.758 Y98.411 E58.09011
G1 X116.116 Y97.835 E58.23389
G1 X116.505 Y97.271 E58.37914
G1 X116.911 Y96.739 E58.52102
G0 F3927.3 X117.332 Y97.061
G1 F1800 X117.745 Y96.572 E58.65671
G1 X118.201 Y96.081 E58.79877
G1 X118.659 Y95.632 E58.93474
G1 X119.189 Y95.162 E59.08492
G1 X119.718 Y94.74 E59.22838
G1 X120.266 Y94.346 E59.37146
G1 X120.824 Y93.986 E59.51224
G1 X121.464 Y93.617 E59.66886
G1 X122.084 Y93.301 E59.81639
G1 X122.755 Y93.003 E59.97204
G1 X123.418 Y92.75 E60.12248
G1 X124.106 Y92.529 E60.27568
G1 X124.661 Y92.377 E60.39767
G1 X125.188 Y92.257 E60.51225
G1 X125.807 Y92.147 E60.64554
G1 X126.54 Y92.052 E60.80223
G1 X127.179 Y92 E60.93815
G1 X127.832 Y91.979 E61.07665
G1 X128.517 Y91.993 E61.22191
G1 X129.259 Y92.046 E61.37961
G1 X129.928 Y92.128 E61.5225
G1 X130.58 Y92.242 E61.66282
G1 X131.201 Y92.382 E61.79778
G1 X131.904 Y92.576 E61.95238
G1 X132.504 Y92.772 E62.0862
G1 X133.015 Y92.967 E62.20215
G1 X133.47 Y93.161 E62.30701
G1 X133.968 Y93.395 E62.42366
G1 X134.51 Y93.681 E62.55358
G1 X135.088 Y94.021 E62.69575
G1 X135.62 Y94.369 E62.83052
G1 X136.203 Y94.792 E62.98322
G1 X136.747 Y95.233 E63.13168
G1 X137.284 Y95.717 E63.28494
G1 X137.716 Y96.143 E63.41356
G1 X138.091 Y96.549 E63.53073
G1 X138.48 Y97.011 E63.65877
G1 X138.922 Y97.587 E63.81269
G1 X139.296 Y98.127 E63.95195
G1 X139.649 Y98.696 E64.09391
G1 X139.97 Y99.277 E64.23463
G1 X140.268 Y99.886 E64.37836
G1 X140.521 Y100.475 E64.51426
G1 X140.773 Y101.148 E64.66661
G1 X140.971 Y101.767 E64.80439
G1 X141.14 Y102.402 E64.9437
G1 X141.272 Y103.013 E65.07622
G1 X141.374 Y103.623 E65.20733
G1 X141.449 Y104.252 E65.34163
G1 X141.5 Y104.979 E65.49613
G1 X141.514 Y105.607 E65.6293
G1 X141.499 Y106.214 E65.75802
G1 X141.45 Y106.869 E65.89727
G1 X141.36 Y107.591 E66.05152
G1 X141.263 Y108.167 E66.17535
G1 X141.145 Y108.715 E66.29419
G1 X140.988 Y109.307 E66.42403
G1 X140.777 Y109.978 E66.57315
G1 X140.544 Y110.607 E66.71535
G1 X140.275 Y111.233 E66.8598
G1 X140.015 Y111.77 E66.98629
G1 X139.725 Y112.306 E67.11548
G1 X139.403 Y112.839 E67.2475
G1 X139.03 Y113.396 E67.38961
G1 X138.632 Y113.93 E67.53081
G1 X138.161 Y114.5 E67.68756
G1 X137.697 Y115.006 E67.83311
G1 X137.183 Y115.511 E67.98587
G1 X136.653 Y115.979 E68.13577
G1 X136.086 Y116.428 E68.28909
G1 X135.598 Y116.779 E68.41653
G1 X135.087 Y117.113 E68.54595
G1 X134.512 Y117.449 E68.68714
G1 X133.864 Y117.785 E68.84188
G1 X133.297 Y118.046 E68.97421
G1 X132.733 Y118.274 E69.10318
G1 X132.125 Y118.486 E69.23969
G1 X131.427 Y118.692 E69.39397
G1 X130.792 Y118.846 E69.53249
G1 X130.136 Y118.971 E69.67407
G1 X129.536 Y119.057 E69.80257
G1 X128.928 Y119.116 E69.93207
G1 X128.279 Y119.147 E70.06982
G1 X127.544 Y119.146 E70.22564
G1 X126.945 Y119.118 E70.35276
G1 X126.413 Y119.069 E70.46602
G1 X125.854 Y118.993 E70.58562
G1 X125.189 Y118.874 E70.72884
G1 X124.541 Y118.725 E70.8698
G1 X123.895 Y118.541 E71.0122
G1 X123.31 Y118.344 E71.14306
G1 X122.695 Y118.105 E71.28294
G1 X122.171 Y117.875 E71.40426
G1 X121.677 Y117.632 E71.52097
G1 X121.161 Y117.342 E71.64646
G1 X120.6 Y117.007 E71.78498
G1 X120.066 Y116.647 E71.92151
G1 X119.518 Y116.237 E72.06661
G1 X118.992 Y115.799 E72.21172
G1 X118.416 Y115.267 E72.37794
G1 X117.959 Y114.801 E72.51632
G1 X117.592 Y114.388 E72.63345
G1 X117.238 Y113.954 E72.75218
G1 X116.844 Y113.427 E72.89168
G1 X116.493 Y112.909 E73.02433
G1 X116.179 Y112.394 E73.1522
G1 X115.918 Y111.922 E73.26654
G1 X115.666 Y111.421 E73.38544
G1 X115.437 Y110.914 E73.50338
G1 X115.214 Y110.359 E73.63018
G1 X115.005 Y109.756 E73.76547
G1 X114.797 Y109.048 E73.92191
G1 X114.645 Y108.418 E74.05931
G1 X114.522 Y107.771 E74.19893
G1 X114.434 Y107.153 E74.33126
G1 X114.372 Y106.492 E74.47201
