;FLAVOR:UltiGCode
;TIME:7432
;MATERIAL:16083
;MATERIAL2:0
;NOZZLE_DIAMETER:0.6
;MINX:65.82
;MINY:106.62
;MINZ:0.4
;MAXX:157.18
;MAXY:159.78
;MAXZ:14.95
;Generated with Cura_SteamEngine master
M82 ;absolute extrusion mode
G0 F3000 Y50 ;avoid prime blob
G92 E0
G92 E0
G10
;LAYER_COUNT:98
;LAYER:0
M107
G0 F3927.3 X69.633 Y108 Z0.4
;TYPE:SKIRT
G11
G1 F1800 X70.329 Y107.584 E0.1719
G1 X71.062 Y107.239 E0.34365
G1 X71.826 Y106.968 E0.5155
G1 X72.612 Y106.773 E0.68719
G1 X73.414 Y106.657 E0.85898
G1 X74.19 Y106.62 E1.02368
G1 X138.996 Y106.62 E14.76255
G1 X139.327 Y106.627 E14.83274
G1 X140.121 Y106.659 E15.0012
G1 X140.755 Y106.709 E15.13603
G1 X141.533 Y106.801 E15.30211
G1 X142.173 Y106.902 E15.43947
G1 X142.931 Y107.053 E15.60333
G1 X143.55 Y107.202 E15.7383
G1 X144.304 Y107.414 E15.90435
G1 X144.928 Y107.616 E16.0434
G1 X145.664 Y107.888 E16.20974
G1 X146.265 Y108.138 E16.34774
G1 X146.972 Y108.465 E16.51288
G1 X147.543 Y108.757 E16.64884
G1 X148.238 Y109.147 E16.81779
G1 X148.785 Y109.482 E16.95378
G1 X149.419 Y109.906 E17.11547
G1 X149.941 Y110.286 E17.25235
G1 X150.567 Y110.78 E17.42141
G1 X151.05 Y111.192 E17.556
G1 X151.621 Y111.719 E17.72073
G1 X152.091 Y112.19 E17.86179
G1 X152.618 Y112.762 E18.02667
G1 X153.029 Y113.244 E18.16096
G1 X153.523 Y113.871 E18.33019
G1 X153.904 Y114.396 E18.46771
G1 X154.327 Y115.03 E18.62929
G1 X154.661 Y115.576 E18.76498
G1 X155.054 Y116.278 E18.93554
G1 X155.341 Y116.84 E19.06932
G1 X155.665 Y117.54 E19.23284
G1 X155.918 Y118.149 E19.37265
G1 X156.185 Y118.873 E19.53624
G1 X156.39 Y119.507 E19.6775
G1 X156.606 Y120.281 E19.84786
G1 X156.749 Y120.882 E19.97883
G1 X156.899 Y121.634 E20.14139
G1 X157.002 Y122.287 E20.28154
G1 X157.093 Y123.065 E20.4476
G1 X157.142 Y123.69 E20.58051
G1 X157.173 Y124.463 E20.74451
G1 X157.18 Y124.792 E20.81428
G1 X157.18 Y141.595 E24.37651
G1 X157.173 Y141.925 E24.44649
G1 X157.141 Y142.72 E24.61517
G1 X157.091 Y143.355 E24.7502
G1 X156.999 Y144.133 E24.91629
G1 X156.899 Y144.765 E25.05194
G1 X156.75 Y145.517 E25.21446
G1 X156.599 Y146.149 E25.35222
G1 X156.385 Y146.908 E25.5194
G1 X156.185 Y147.523 E25.6565
G1 X155.913 Y148.26 E25.82304
G1 X155.665 Y148.859 E25.96049
G1 X155.34 Y149.563 E26.12487
G1 X155.044 Y150.143 E26.26292
G1 X154.652 Y150.841 E26.43263
G1 X154.321 Y151.38 E26.56673
G1 X153.903 Y152.006 E26.72631
G1 X153.53 Y152.52 E26.86094
G1 X153.038 Y153.146 E27.02974
G1 X152.613 Y153.645 E27.16869
G1 X152.078 Y154.224 E27.33582
G1 X151.61 Y154.691 E27.47598
G1 X151.038 Y155.218 E27.64087
G1 X150.558 Y155.627 E27.77456
G1 X149.934 Y156.119 E27.94302
G1 X149.407 Y156.502 E28.08113
G1 X148.767 Y156.929 E28.24424
G1 X148.216 Y157.266 E28.38117
G1 X147.52 Y157.655 E28.5502
G1 X146.968 Y157.937 E28.68161
G1 X146.265 Y158.263 E28.84589
G1 X145.649 Y158.518 E28.98723
G1 X144.919 Y158.787 E29.15217
G1 X144.288 Y158.991 E29.29276
G1 X143.525 Y159.204 E29.4607
G1 X142.919 Y159.349 E29.59279
G1 X142.16 Y159.5 E29.75686
G1 X141.513 Y159.602 E29.89571
G1 X140.736 Y159.693 E30.06156
G1 X140.105 Y159.743 E30.19576
G1 X139.321 Y159.774 E30.36209
G1 X138.996 Y159.78 E30.43101
G1 X74.19 Y159.78 E44.16988
G1 X73.381 Y159.74 E44.34159
G1 X72.579 Y159.62 E44.51351
G1 X71.793 Y159.423 E44.6853
G1 X71.031 Y159.148 E44.85704
G1 X70.299 Y158.8 E45.02887
G1 X69.605 Y158.381 E45.20073
G1 X68.955 Y157.896 E45.37266
G1 X68.381 Y157.374 E45.53715
G1 X68.226 Y157.219 E45.58362
G1 X67.682 Y156.618 E45.75547
G1 X67.2 Y155.967 E45.9272
G1 X66.784 Y155.271 E46.0991
G1 X66.439 Y154.538 E46.27084
G1 X66.168 Y153.774 E46.4427
G1 X65.973 Y152.988 E46.61438
G1 X65.857 Y152.186 E46.78618
G1 X65.82 Y151.41 E46.95088
G1 X65.82 Y114.99 E54.67192
G1 X65.86 Y114.181 E54.84363
G1 X65.98 Y113.379 E55.01555
G1 X66.177 Y112.593 E55.18734
G1 X66.452 Y111.831 E55.35908
G1 X66.8 Y111.099 E55.53091
G1 X67.219 Y110.405 E55.70277
G1 X67.704 Y109.755 E55.8747
G1 X68.226 Y109.181 E56.03918
G1 X68.381 Y109.026 E56.08566
G1 X68.982 Y108.482 E56.25751
G1 X69.633 Y108 E56.42923
G0 F3927.3 X69.97 Y108.412
G1 F1800 X70.646 Y108.016 E56.59533
G1 X71.359 Y107.69 E56.76153
G1 X72.102 Y107.439 E56.92779
G1 X72.866 Y107.265 E57.09391
G1 X73.644 Y107.169 E57.2601
G1 X74.19 Y107.15 E57.37592
G1 X138.996 Y107.15 E71.11479
G1 X139.305 Y107.156 E71.18031
G1 X140.099 Y107.188 E71.34877
G1 X140.692 Y107.235 E71.47488
G1 X141.47 Y107.327 E71.64097
G1 X142.069 Y107.422 E71.76955
G1 X142.827 Y107.573 E71.9334
G1 X143.406 Y107.712 E72.05963
G1 X144.16 Y107.924 E72.22568
G1 X144.744 Y108.114 E72.35588
G1 X145.48 Y108.386 E72.52222
G1 X146.042 Y108.619 E72.6512
G1 X146.749 Y108.946 E72.81634
G1 X147.284 Y109.219 E72.94367
G1 X147.979 Y109.609 E73.11263
G1 X148.49 Y109.923 E73.23978
G1 X149.124 Y110.347 E73.40147
G1 X149.613 Y110.702 E73.52958
G1 X150.239 Y111.196 E73.69863
G1 X150.69 Y111.582 E73.82448
G1 X151.261 Y112.109 E73.98921
G1 X151.701 Y112.549 E74.12113
G1 X152.228 Y113.121 E74.28602
G1 X152.613 Y113.572 E74.41173
G1 X153.107 Y114.199 E74.58095
G1 X153.463 Y114.69 E74.70953
G1 X153.886 Y115.324 E74.8711
G1 X154.199 Y115.835 E74.99814
G1 X154.592 Y116.537 E75.1687
G1 X154.86 Y117.063 E75.29385
G1 X155.184 Y117.763 E75.45738
G1 X155.42 Y118.332 E75.58797
G1 X155.687 Y119.056 E75.75156
G1 X155.879 Y119.649 E75.8837
G1 X156.095 Y120.423 E76.05406
G1 X156.23 Y120.986 E76.1768
G1 X156.38 Y121.738 E76.33937
G1 X156.476 Y122.348 E76.47028
G1 X156.567 Y123.126 E76.63634
G1 X156.613 Y123.711 E76.76074
G1 X156.644 Y124.484 E76.92475
G1 X156.65 Y124.792 E76.99006
G1 X156.65 Y141.595 E80.55229
G1 X156.644 Y141.904 E80.61781
G1 X156.612 Y142.699 E80.78649
G1 X156.565 Y143.292 E80.9126
G1 X156.473 Y144.07 E81.07869
G1 X156.379 Y144.662 E81.20576
G1 X156.23 Y145.414 E81.36829
G1 X156.089 Y146.005 E81.49709
G1 X155.875 Y146.764 E81.66428
G1 X155.688 Y147.34 E81.79266
G1 X155.416 Y148.077 E81.95921
G1 X155.183 Y148.637 E82.08779
G1 X154.858 Y149.341 E82.25218
G1 X154.582 Y149.883 E82.38112
G1 X154.19 Y150.581 E82.55084
G1 X153.88 Y151.086 E82.67646
G1 X153.462 Y151.712 E82.83604
G1 X153.113 Y152.193 E82.96202
G1 X152.621 Y152.819 E83.13082
G1 X152.223 Y153.285 E83.26074
G1 X151.688 Y153.864 E83.42786
G1 X151.251 Y154.301 E83.55888
G1 X150.679 Y154.828 E83.72377
G1 X150.23 Y155.211 E83.84888
G1 X149.606 Y155.703 E84.01734
G1 X149.113 Y156.061 E84.14651
G1 X148.473 Y156.488 E84.30962
G1 X147.957 Y156.803 E84.43778
G1 X147.261 Y157.192 E84.60682
G1 X146.745 Y157.456 E84.72969
G1 X146.042 Y157.782 E84.89397
G1 X145.466 Y158.021 E85.02618
G1 X144.736 Y158.29 E85.19111
G1 X144.145 Y158.481 E85.32279
G1 X143.382 Y158.694 E85.49073
G1 X142.816 Y158.829 E85.61408
G1 X142.057 Y158.98 E85.77815
G1 X141.451 Y159.076 E85.90822
G1 X140.674 Y159.167 E86.07407
G1 X140.084 Y159.213 E86.19953
G1 X139.3 Y159.244 E86.36587
G1 X138.996 Y159.25 E86.43033
G1 X74.19 Y159.25 E100.1692
G1 X73.407 Y159.21 E100.33541
G1 X72.633 Y159.091 E100.50143
G1 X71.874 Y158.893 E100.66772
G1 X71.14 Y158.619 E100.83382
G1 X70.437 Y158.271 E101.00012
G1 X69.773 Y157.854 E101.16634
G1 X69.156 Y157.372 E101.33233
G1 X68.756 Y156.999 E101.44827
G1 X68.601 Y156.844 E101.49475
G1 X68.076 Y156.262 E101.66091
G1 X67.612 Y155.63 E101.82713
G1 X67.216 Y154.954 E101.99322
G1 X66.89 Y154.241 E102.15943
G1 X66.639 Y153.498 E102.32569
G1 X66.465 Y152.734 E102.4918
G1 X66.369 Y151.956 E102.65799
G1 X66.35 Y151.41 E102.77381
G1 X66.35 Y114.99 E110.49485
G1 X66.39 Y114.207 E110.66106
G1 X66.509 Y113.433 E110.82708
G1 X66.707 Y112.674 E110.99337
G1 X66.981 Y111.94 E111.15947
G1 X67.329 Y111.237 E111.32577
G1 X67.746 Y110.573 E111.49199
G1 X68.228 Y109.956 E111.65798
G1 X68.601 Y109.556 E111.77393
G1 X68.756 Y109.401 E111.8204
G1 X69.338 Y108.876 E111.98656
G1 X69.97 Y108.412 E112.15278
G0 F3927.3 X70.306 Y108.826
G1 F1800 X70.961 Y108.45 E112.31289
G1 X71.653 Y108.145 E112.47322
G1 X72.374 Y107.914 E112.63372
G1 X73.115 Y107.761 E112.79413
G1 X74.19 Y107.68 E113.02267
G1 X138.996 Y107.68 E126.76154
G1 X139.284 Y107.686 E126.82261
G1 X140.078 Y107.718 E126.99108
G1 X140.63 Y107.762 E127.10847
G1 X141.408 Y107.854 E127.27456
G1 X141.966 Y107.942 E127.39432
G1 X142.724 Y108.093 E127.55817
G1 X143.263 Y108.222 E127.67567
G1 X144.017 Y108.434 E127.84171
G1 X144.56 Y108.611 E127.96279
G1 X145.296 Y108.883 E128.12914
G1 X145.82 Y109.1 E128.24937
G1 X146.527 Y109.427 E128.41451
G1 X147.024 Y109.681 E128.53284
G1 X147.719 Y110.071 E128.70179
G1 X148.196 Y110.363 E128.82036
G1 X148.83 Y110.787 E128.98205
G1 X149.284 Y111.118 E129.10117
G1 X149.91 Y111.612 E129.27022
G1 X150.331 Y111.971 E129.38752
G1 X150.902 Y112.498 E129.55225
G1 X151.311 Y112.908 E129.67502
G1 X151.838 Y113.48 E129.83991
G1 X152.196 Y113.9 E129.95691
G1 X152.69 Y114.527 E130.12613
G1 X153.022 Y114.984 E130.24588
G1 X153.445 Y115.618 E130.40746
G1 X153.736 Y116.094 E130.52573
G1 X154.129 Y116.796 E130.69629
G1 X154.379 Y117.286 E130.81291
G1 X154.703 Y117.986 E130.97644
G1 X154.923 Y118.515 E131.0979
G1 X155.19 Y119.239 E131.26149
G1 X155.369 Y119.792 E131.38471
G1 X155.585 Y120.566 E131.55507
G1 X155.71 Y121.089 E131.66907
G1 X155.86 Y121.841 E131.83164
G1 X155.95 Y122.41 E131.95376
G1 X156.041 Y123.188 E132.11982
G1 X156.083 Y123.732 E132.23549
G1 X156.114 Y124.505 E132.3995
G1 X156.12 Y124.792 E132.46036
G1 X156.12 Y141.595 E136.0226
G1 X156.114 Y141.883 E136.08366
G1 X156.082 Y142.678 E136.25234
G1 X156.038 Y143.23 E136.36974
G1 X155.946 Y144.008 E136.53582
G1 X155.86 Y144.559 E136.65405
G1 X155.711 Y145.311 E136.81657
G1 X155.579 Y145.862 E136.93669
G1 X155.365 Y146.621 E137.10387
G1 X155.19 Y147.156 E137.2232
G1 X154.918 Y147.893 E137.38975
G1 X154.702 Y148.415 E137.50951
G1 X154.377 Y149.119 E137.6739
G1 X154.12 Y149.624 E137.79402
G1 X153.728 Y150.322 E137.96374
G1 X153.439 Y150.791 E138.08053
G1 X153.021 Y151.417 E138.24011
G1 X152.696 Y151.865 E138.35744
G1 X152.204 Y152.491 E138.52624
G1 X151.834 Y152.926 E138.6473
G1 X151.299 Y153.505 E138.81443
G1 X150.892 Y153.911 E138.9363
G1 X150.32 Y154.438 E139.10119
G1 X149.902 Y154.795 E139.21773
G1 X149.278 Y155.287 E139.38619
G1 X148.819 Y155.62 E139.50641
G1 X148.179 Y156.047 E139.66951
G1 X147.699 Y156.341 E139.78885
G1 X147.003 Y156.73 E139.95788
G1 X146.522 Y156.975 E140.07232
G1 X145.819 Y157.301 E140.2366
G1 X145.283 Y157.524 E140.35967
G1 X144.553 Y157.793 E140.52461
G1 X144.003 Y157.971 E140.64716
G1 X143.24 Y158.184 E140.8151
G1 X142.712 Y158.309 E140.93013
G1 X141.953 Y158.46 E141.09419
G1 X141.389 Y158.549 E141.21524
G1 X140.612 Y158.64 E141.38109
G1 X140.063 Y158.683 E141.49783
G1 X139.279 Y158.714 E141.66417
G1 X138.996 Y158.72 E141.72418
G1 X74.19 Y158.72 E155.46305
G1 X73.435 Y158.68 E155.62334
G1 X72.688 Y158.561 E155.7837
G1 X71.958 Y158.363 E155.94405
G1 X71.253 Y158.089 E156.1044
G1 X70.581 Y157.743 E156.26464
G1 X69.949 Y157.327 E156.42504
G1 X69.131 Y156.624 E156.6537
G1 X68.976 Y156.469 E156.70017
G1 X68.47 Y155.907 E156.86049
G1 X68.026 Y155.294 E157.02096
G1 X67.65 Y154.639 E157.18107
G1 X67.345 Y153.947 E157.34139
G1 X67.114 Y153.226 E157.5019
G1 X66.961 Y152.485 E157.6623
G1 X66.88 Y151.41 E157.89085
G1 X66.88 Y114.99 E165.61189
G1 X66.92 Y114.235 E165.77217
G1 X67.039 Y113.488 E165.93254
G1 X67.237 Y112.758 E166.09289
G1 X67.511 Y112.053 E166.25324
G1 X67.857 Y111.381 E166.41348
G1 X68.273 Y110.749 E166.57388
G1 X68.976 Y109.931 E166.80254
G1 X69.131 Y109.776 E166.84901
G1 X69.693 Y109.27 E167.00933
G1 X70.306 Y108.826 E167.1698
G0 F3927.3 X70.64 Y109.242
G1 F1800 X71.274 Y108.886 E167.32394
G1 X71.945 Y108.602 E167.47841
G1 X72.642 Y108.393 E167.63268
G1 X73.358 Y108.263 E167.78695
G1 X74.19 Y108.21 E167.96369
G1 X138.996 Y108.21 E181.70256
G1 X139.263 Y108.215 E181.75918
G1 X140.057 Y108.247 E181.92764
G1 X140.568 Y108.288 E182.03632
G1 X141.346 Y108.38 E182.20241
G1 X141.862 Y108.462 E182.31317
G1 X142.62 Y108.613 E182.47703
G1 X143.119 Y108.732 E182.58578
G1 X143.873 Y108.944 E182.75183
G1 X144.377 Y109.108 E182.86419
G1 X145.113 Y109.38 E183.03053
G1 X145.597 Y109.581 E183.14164
G1 X146.304 Y109.908 E183.30678
G1 X146.765 Y110.143 E183.41648
G1 X147.46 Y110.533 E183.58543
G1 X147.901 Y110.804 E183.69516
G1 X148.535 Y111.228 E183.85686
G1 X148.956 Y111.534 E183.9672
G1 X149.582 Y112.028 E184.13625
G1 X149.971 Y112.361 E184.24481
G1 X150.542 Y112.888 E184.40954
G1 X150.921 Y113.267 E184.52317
G1 X151.448 Y113.839 E184.68805
G1 X151.78 Y114.228 E184.79647
G1 X152.274 Y114.855 E184.9657
G1 X152.581 Y115.278 E185.0765
G1 X153.004 Y115.912 E185.23808
G1 X153.274 Y116.353 E185.3477
G1 X153.667 Y117.055 E185.51826
G1 X153.898 Y117.508 E185.62606
G1 X154.222 Y118.208 E185.78959
G1 X154.426 Y118.699 E185.90231
G1 X154.693 Y119.423 E186.0659
G1 X154.858 Y119.934 E186.17974
G1 X155.074 Y120.708 E186.3501
G1 X155.19 Y121.193 E186.45582
G1 X155.34 Y121.945 E186.61838
G1 X155.423 Y122.471 E186.73127
G1 X155.514 Y123.249 E186.89733
G1 X155.554 Y123.754 E187.00473
G1 X155.585 Y124.527 E187.16874
G1 X155.59 Y124.792 E187.22493
G1 X155.59 Y141.595 E190.78716
G1 X155.585 Y141.861 E190.84357
G1 X155.553 Y142.656 E191.01224
G1 X155.512 Y143.168 E191.12113
G1 X155.42 Y143.946 E191.28722
G1 X155.34 Y144.456 E191.39666
G1 X155.191 Y145.208 E191.55918
G1 X155.068 Y145.718 E191.6704
G1 X154.854 Y146.477 E191.83759
G1 X154.693 Y146.973 E191.94814
G1 X154.421 Y147.71 E192.11468
G1 X154.221 Y148.193 E192.22551
G1 X153.896 Y148.897 E192.3899
G1 X153.657 Y149.364 E192.50111
G1 X153.265 Y150.062 E192.67083
G1 X152.999 Y150.497 E192.77892
G1 X152.581 Y151.123 E192.9385
G1 X152.28 Y151.538 E193.04719
G1 X151.788 Y152.164 E193.21598
G1 X151.445 Y152.566 E193.32801
G1 X150.91 Y153.145 E193.49514
G1 X150.533 Y153.521 E193.60802
G1 X149.961 Y154.048 E193.7729
G1 X149.574 Y154.378 E193.88072
G1 X148.95 Y154.87 E194.04919
G1 X148.525 Y155.179 E194.16058
G1 X147.885 Y155.606 E194.32369
G1 X147.44 Y155.878 E194.43426
G1 X146.744 Y156.267 E194.60329
G1 X146.299 Y156.494 E194.7092
G1 X145.596 Y156.82 E194.87348
G1 X145.1 Y157.026 E194.98734
G1 X144.37 Y157.295 E195.15227
G1 X143.86 Y157.46 E195.26591
G1 X143.097 Y157.673 E195.43385
G1 X142.609 Y157.79 E195.54024
G1 X141.85 Y157.941 E195.7043
G1 X141.328 Y158.023 E195.81632
G1 X140.551 Y158.114 E195.98217
G1 X140.042 Y158.154 E196.09041
G1 X139.258 Y158.185 E196.25675
G1 X138.996 Y158.19 E196.3123
G1 X74.19 Y158.19 E210.05117
G1 X73.463 Y158.15 E210.20553
G1 X72.745 Y158.031 E210.35982
G1 X72.045 Y157.833 E210.51405
G1 X71.37 Y157.56 E210.66841
G1 X70.73 Y157.215 E210.82254
G1 X70.131 Y156.801 E210.97691
G1 X69.505 Y156.25 E211.15371
G1 X69.35 Y156.095 E211.20018
G1 X68.865 Y155.553 E211.35437
G1 X68.442 Y154.96 E211.50879
G1 X68.086 Y154.326 E211.66294
G1 X67.802 Y153.655 E211.81741
G1 X67.593 Y152.958 E211.97168
G1 X67.463 Y152.242 E212.12595
G1 X67.41 Y151.41 E212.30269
G1 X67.41 Y114.99 E220.02373
G1 X67.45 Y114.263 E220.17809
G1 X67.569 Y113.545 E220.33238
G1 X67.767 Y112.845 E220.4866
G1 X68.04 Y112.17 E220.64096
G1 X68.385 Y111.53 E220.7951
G1 X68.799 Y110.931 E220.94947
G1 X69.35 Y110.305 E221.12627
G1 X69.505 Y110.15 E221.17274
G1 X70.047 Y109.665 E221.32693
G1 X70.64 Y109.242 E221.48135
G0 F3927.3 X70.972 Y109.659
G1 F1800 X71.585 Y109.325 E221.62935
G1 X72.232 Y109.063 E221.77733
G1 X72.905 Y108.877 E221.92535
G1 X73.594 Y108.769 E222.0732
G1 X74.19 Y108.74 E222.19971
G1 X138.996 Y108.74 E235.93858
G1 X139.241 Y108.745 E235.99053
G1 X140.035 Y108.777 E236.15899
G1 X140.506 Y108.814 E236.25915
G1 X141.284 Y108.906 E236.42524
G1 X141.759 Y108.981 E236.52719
G1 X142.517 Y109.132 E236.69104
G1 X142.976 Y109.243 E236.79115
G1 X143.73 Y109.455 E236.9572
G1 X144.193 Y109.605 E237.06038
G1 X144.929 Y109.877 E237.22672
G1 X145.375 Y110.062 E237.32909
G1 X146.082 Y110.389 E237.49423
G1 X146.506 Y110.606 E237.5952
G1 X147.201 Y110.996 E237.76416
G1 X147.606 Y111.245 E237.86495
G1 X148.24 Y111.669 E238.02664
G1 X148.628 Y111.95 E238.1282
G1 X149.254 Y112.444 E238.29726
G1 X149.612 Y112.75 E238.3971
G1 X150.183 Y113.277 E238.56183
G1 X150.532 Y113.626 E238.66647
G1 X151.059 Y114.198 E238.83135
G1 X151.364 Y114.556 E238.93106
G1 X151.858 Y115.183 E239.10028
G1 X152.14 Y115.572 E239.20214
