;FLAVOR:UltiGCode
;TIME:10277
;MATERIAL:23701
;MATERIAL2:0
;NOZZLE_DIAMETER:0.6
;MINX:50.016
;MINY:102.592
;MINZ:0.4
;MAXX:144.374
;MAXY:188.949
;MAXZ:14.95
;Generated with Cura_SteamEngine master
M82 ;absolute extrusion mode
G0 F3000 Y50 ;avoid prime blob
G92 E0
G92 E0
G10
;LAYER_COUNT:98
;LAYER:0
M107
G0 F3927.3 X69.885 Y109.426 Z0.4
;TYPE:SKIRT
G11
G1 F1800 X71.301 Y108.556 E0.35233
G1 X71.637 Y108.36 E0.43479
G1 X73.098 Y107.555 E0.78843
G1 X73.442 Y107.376 E0.87064
G1 X74.925 Y106.648 E1.22087
G1 X75.286 Y106.481 E1.3052
G1 X76.799 Y105.827 E1.65464
G1 X77.153 Y105.684 E1.73558
G1 X78.719 Y105.092 E2.0905
G1 X79.081 Y104.964 E2.1719
G1 X80.654 Y104.452 E2.5226
G1 X81.042 Y104.337 E2.60839
G1 X82.631 Y103.905 E2.95748
G1 X83.005 Y103.812 E3.03919
G1 X84.626 Y103.452 E3.39121
G1 X84.997 Y103.379 E3.47137
G1 X86.639 Y103.093 E3.82472
G1 X87.037 Y103.034 E3.91001
G1 X88.689 Y102.829 E4.26292
G1 X89.072 Y102.79 E4.34454
G1 X90.713 Y102.664 E4.69346
G1 X91.1 Y102.644 E4.77561
G1 X92.764 Y102.595 E5.12853
G1 X93.154 Y102.592 E5.21121
G1 X94.817 Y102.622 E5.56383
G1 X95.208 Y102.639 E5.6468
G1 X96.849 Y102.747 E5.99544
G1 X97.236 Y102.781 E6.0778
G1 X98.885 Y102.968 E6.42963
G1 X99.278 Y103.023 E6.51376
G1 X100.913 Y103.289 E6.86494
G1 X101.287 Y103.358 E6.94556
G1 X102.925 Y103.703 E7.30044
G1 X103.304 Y103.792 E7.38297
G1 X104.908 Y104.21 E7.73437
G1 X105.292 Y104.321 E7.81912
G1 X106.859 Y104.812 E8.16725
G1 X107.22 Y104.934 E8.24803
G1 X108.784 Y105.505 E8.601
G1 X109.15 Y105.649 E8.68439
G1 X110.687 Y106.295 E9.03784
G1 X111.041 Y106.453 E9.12002
G1 X112.538 Y107.167 E9.47164
G1 X112.881 Y107.341 E9.55318
G1 X114.344 Y108.125 E9.90506
G1 X114.696 Y108.325 E9.99089
G1 X116.105 Y109.172 E10.33941
G1 X116.424 Y109.374 E10.41946
G1 X117.802 Y110.291 E10.77037
G1 X118.123 Y110.516 E10.85347
G1 X119.471 Y111.509 E11.20841
G1 X119.78 Y111.747 E11.2911
G1 X121.055 Y112.783 E11.63938
G1 X121.35 Y113.035 E11.72164
G1 X122.597 Y114.15 E12.07627
G1 X122.882 Y114.418 E12.1592
G1 X124.055 Y115.572 E12.50805
G1 X124.326 Y115.851 E12.59051
G1 X125.452 Y117.069 E12.94216
G1 X125.903 Y117.591 E13.08841
G1 X136.004 Y117.591 E15.22982
G1 X136.813 Y117.631 E15.40153
G1 X137.615 Y117.751 E15.57345
G1 X138.401 Y117.948 E15.74524
G1 X139.163 Y118.223 E15.91698
G1 X139.895 Y118.571 E16.08881
G1 X140.589 Y118.99 E16.26067
G1 X141.239 Y119.475 E16.4326
G1 X141.813 Y119.997 E16.59709
G1 X141.968 Y120.152 E16.64356
G1 X142.512 Y120.753 E16.81541
G1 X142.994 Y121.404 E16.98714
G1 X143.41 Y122.1 E17.15904
G1 X143.755 Y122.833 E17.33078
G1 X144.026 Y123.597 E17.50264
G1 X144.221 Y124.383 E17.67432
G1 X144.337 Y125.185 E17.84612
G1 X144.374 Y125.961 E18.01082
G1 X144.374 Y165.581 E26.41026
G1 X144.334 Y166.39 E26.58197
G1 X144.214 Y167.192 E26.75389
G1 X144.017 Y167.978 E26.92568
G1 X143.742 Y168.74 E27.09742
G1 X143.394 Y169.472 E27.26925
G1 X142.975 Y170.166 E27.44111
G1 X142.49 Y170.816 E27.61304
G1 X141.968 Y171.39 E27.77752
G1 X141.813 Y171.545 E27.824
G1 X141.212 Y172.089 E27.99585
G1 X140.561 Y172.571 E28.16757
G1 X139.865 Y172.987 E28.33947
G1 X139.132 Y173.332 E28.51122
G1 X138.368 Y173.603 E28.68308
G1 X137.582 Y173.798 E28.85476
G1 X136.78 Y173.914 E29.02655
G1 X136.004 Y173.951 E29.19125
G1 X125.901 Y173.951 E31.33309
G1 X125.447 Y174.477 E31.48039
G1 X124.321 Y175.694 E31.83189
G1 X124.052 Y175.971 E31.91375
G1 X122.877 Y177.127 E32.26319
G1 X122.591 Y177.395 E32.34628
G1 X121.346 Y178.508 E32.70032
G1 X121.049 Y178.762 E32.78317
G1 X119.773 Y179.798 E33.13161
G1 X119.47 Y180.032 E33.21277
G1 X118.122 Y181.026 E33.56784
G1 X117.802 Y181.251 E33.65078
G1 X116.421 Y182.171 E34.00257
G1 X116.092 Y182.379 E34.08508
G1 X114.69 Y183.22 E34.43168
G1 X114.343 Y183.416 E34.51617
G1 X112.874 Y184.203 E34.86947
G1 X112.53 Y184.378 E34.9513
G1 X111.032 Y185.092 E35.3031
G1 X110.678 Y185.25 E35.38529
G1 X109.142 Y185.895 E35.73846
G1 X108.778 Y186.038 E35.82137
G1 X107.214 Y186.609 E36.17435
G1 X106.85 Y186.732 E36.2558
G1 X105.281 Y187.223 E36.60434
G1 X104.901 Y187.332 E36.68814
G1 X103.298 Y187.75 E37.03934
G1 X102.92 Y187.839 E37.12167
G1 X101.284 Y188.184 E37.47613
G1 X100.903 Y188.255 E37.55829
G1 X99.274 Y188.519 E37.90815
G1 X98.882 Y188.573 E37.99204
G1 X97.226 Y188.76 E38.34534
G1 X96.843 Y188.794 E38.42685
G1 X95.202 Y188.902 E38.7755
G1 X94.811 Y188.919 E38.85847
G1 X93.147 Y188.949 E39.2113
G1 X92.752 Y188.946 E39.29504
G1 X91.087 Y188.896 E39.64818
G1 X90.705 Y188.876 E39.72927
G1 X89.063 Y188.75 E40.0784
G1 X88.679 Y188.711 E40.16023
G1 X87.03 Y188.506 E40.5125
G1 X86.637 Y188.448 E40.59672
G1 X84.996 Y188.163 E40.94982
G1 X84.617 Y188.088 E41.03173
G1 X82.995 Y187.727 E41.38401
G1 X82.62 Y187.634 E41.46592
G1 X81.031 Y187.201 E41.81507
G1 X80.647 Y187.086 E41.90005
G1 X79.075 Y186.574 E42.25054
G1 X78.714 Y186.447 E42.33167
G1 X77.148 Y185.855 E42.68659
G1 X76.793 Y185.711 E42.76781
G1 X75.278 Y185.056 E43.11772
G1 X74.926 Y184.894 E43.19987
G1 X73.451 Y184.172 E43.54802
G1 X73.089 Y183.982 E43.63469
G1 X71.628 Y183.176 E43.98843
G1 X71.298 Y182.984 E44.06937
G1 X69.881 Y182.114 E44.42188
G1 X69.549 Y181.899 E44.50573
G1 X68.192 Y180.973 E44.85402
G1 X67.877 Y180.747 E44.9362
G1 X66.54 Y179.739 E45.29118
G1 X66.233 Y179.496 E45.37418
G1 X64.958 Y178.436 E45.7257
G1 X64.669 Y178.184 E45.80699
G1 X63.454 Y177.074 E46.15587
G1 X63.166 Y176.798 E46.24044
G1 X61.988 Y175.612 E46.59482
G1 X61.728 Y175.338 E46.6749
G1 X60.624 Y174.119 E47.02356
G1 X60.362 Y173.815 E47.10864
G1 X59.31 Y172.533 E47.46022
G1 X59.072 Y172.228 E47.54223
G1 X58.081 Y170.897 E47.89403
G1 X57.859 Y170.584 E47.97538
G1 X56.925 Y169.199 E48.32953
G1 X56.712 Y168.867 E48.41315
G1 X55.859 Y167.461 E48.76179
G1 X55.664 Y167.121 E48.84488
G1 X54.866 Y165.652 E49.19929
G1 X54.691 Y165.311 E49.28055
G1 X53.968 Y163.818 E49.63223
G1 X53.802 Y163.453 E49.71723
G1 X53.153 Y161.927 E50.06879
G1 X53.012 Y161.573 E50.14957
G1 X52.439 Y160.031 E50.49831
G1 X52.311 Y159.66 E50.58151
G1 X51.804 Y158.066 E50.93612
G1 X51.695 Y157.693 E51.01851
G1 X51.268 Y156.092 E51.36978
G1 X51.178 Y155.716 E51.45175
G1 X50.829 Y154.107 E51.80079
G1 X50.755 Y153.723 E51.88369
G1 X50.479 Y152.075 E52.23794
G1 X50.423 Y151.684 E52.32167
G1 X50.228 Y150.038 E52.67307
G1 X50.192 Y149.657 E52.7542
G1 X50.075 Y148.018 E53.10255
G1 X50.056 Y147.631 E53.18469
G1 X50.016 Y145.973 E53.53629
G1 X50.016 Y145.579 E53.61982
G1 X50.056 Y143.906 E53.9746
G1 X50.075 Y143.517 E54.05716
G1 X50.192 Y141.878 E54.40551
G1 X50.229 Y141.492 E54.48772
G1 X50.425 Y139.845 E54.83935
G1 X50.48 Y139.459 E54.92201
G1 X50.756 Y137.811 E55.27625
G1 X50.83 Y137.426 E55.35936
G1 X51.179 Y135.818 E55.7082
G1 X51.27 Y135.441 E55.79042
G1 X51.698 Y133.838 E56.14216
G1 X51.807 Y133.464 E56.22474
G1 X52.314 Y131.872 E56.57895
G1 X52.44 Y131.506 E56.66101
G1 X53.012 Y129.965 E57.00948
G1 X53.156 Y129.604 E57.09188
G1 X53.807 Y128.076 E57.44399
G1 X53.972 Y127.714 E57.52833
G1 X54.695 Y126.222 E57.87981
G1 X54.869 Y125.883 E57.9606
G1 X55.667 Y124.414 E58.31501
G1 X55.865 Y124.07 E58.39915
G1 X56.718 Y122.666 E58.74743
G1 X56.928 Y122.338 E58.83
G1 X57.864 Y120.95 E59.18491
G1 X58.088 Y120.635 E59.26685
G1 X59.079 Y119.305 E59.61847
G1 X59.317 Y118.999 E59.70066
G1 X60.369 Y117.718 E60.05207
G1 X60.627 Y117.42 E60.13564
G1 X61.73 Y116.201 E60.48415
G1 X61.997 Y115.919 E60.56648
G1 X63.178 Y114.732 E60.92146
G1 X63.459 Y114.463 E61.00393
G1 X64.671 Y113.355 E61.35206
G1 X64.964 Y113.099 E61.43455
G1 X66.241 Y112.038 E61.78652
G1 X66.55 Y111.794 E61.86999
G1 X67.885 Y110.789 E62.22424
G1 X68.197 Y110.565 E62.30567
G1 X69.556 Y109.638 E62.65442
G1 X69.885 Y109.426 E62.7374
G0 F3927.3 X70.162 Y109.877
G1 F1800 X71.578 Y109.007 E63.08972
G1 X71.892 Y108.824 E63.16677
G1 X73.353 Y108.019 E63.52041
G1 X73.675 Y107.851 E63.5974
G1 X75.158 Y107.123 E63.94764
G1 X75.496 Y106.968 E64.02647
G1 X77.009 Y106.314 E64.37591
G1 X77.341 Y106.18 E64.45181
G1 X78.907 Y105.588 E64.80673
G1 X79.245 Y105.468 E64.88277
G1 X80.818 Y104.956 E65.23347
G1 X81.181 Y104.848 E65.31376
G1 X82.77 Y104.416 E65.66285
G1 X83.12 Y104.33 E65.73926
G1 X84.741 Y103.97 E66.09128
G1 X85.088 Y103.901 E66.16629
G1 X86.73 Y103.615 E66.51963
G1 X87.103 Y103.559 E66.59959
G1 X88.755 Y103.354 E66.9525
G1 X89.113 Y103.319 E67.02876
G1 X90.754 Y103.193 E67.37768
G1 X91.116 Y103.173 E67.45454
G1 X92.78 Y103.124 E67.80746
G1 X93.145 Y103.122 E67.88484
G1 X94.808 Y103.152 E68.23746
G1 X95.174 Y103.168 E68.31512
G1 X96.815 Y103.276 E68.66377
G1 X97.176 Y103.308 E68.7406
G1 X98.825 Y103.495 E69.09243
G1 X99.193 Y103.546 E69.17119
G1 X100.828 Y103.812 E69.52237
G1 X101.178 Y103.877 E69.59783
G1 X102.816 Y104.222 E69.95271
G1 X103.17 Y104.305 E70.02979
G1 X104.774 Y104.723 E70.3812
G1 X105.134 Y104.827 E70.46064
G1 X106.701 Y105.318 E70.80877
G1 X107.039 Y105.432 E70.88439
G1 X108.603 Y106.003 E71.23736
G1 X108.945 Y106.137 E71.31524
G1 X110.482 Y106.783 E71.66869
G1 X110.812 Y106.932 E71.74545
G1 X112.309 Y107.646 E72.09706
G1 X112.631 Y107.808 E72.17348
G1 X114.094 Y108.592 E72.52536
G1 X114.423 Y108.779 E72.60559
G1 X115.832 Y109.626 E72.95412
G1 X116.131 Y109.815 E73.02911
G1 X117.509 Y110.732 E73.38001
G1 X117.809 Y110.943 E73.45777
G1 X119.157 Y111.936 E73.81271
G1 X119.445 Y112.159 E73.88993
G1 X120.72 Y113.195 E74.23821
G1 X120.996 Y113.43 E74.31506
G1 X122.243 Y114.545 E74.6697
G1 X122.511 Y114.796 E74.74754
G1 X123.684 Y115.95 E75.09638
G1 X123.937 Y116.211 E75.17344
G1 X125.063 Y117.429 E75.5251
G1 X125.3 Y117.698 E75.6011
G1 X125.656 Y118.121 E75.71831
G1 X136.004 Y118.121 E77.91208
G1 X136.787 Y118.161 E78.0783
G1 X137.561 Y118.28 E78.24431
G1 X138.32 Y118.478 E78.41061
G1 X139.054 Y118.752 E78.5767
G1 X139.757 Y119.1 E78.743
G1 X140.421 Y119.517 E78.90922
G1 X141.038 Y119.999 E79.07521
G1 X141.438 Y120.372 E79.19116
G1 X141.593 Y120.527 E79.23763
G1 X142.118 Y121.109 E79.4038
G1 X142.582 Y121.741 E79.57001
G1 X142.978 Y122.417 E79.7361
G1 X143.304 Y123.13 E79.90231
G1 X143.555 Y123.873 E80.06857
G1 X143.729 Y124.637 E80.23469
G1 X143.825 Y125.415 E80.40087
G1 X143.844 Y125.961 E80.5167
G1 X143.844 Y165.581 E88.91614
G1 X143.804 Y166.364 E89.08235
G1 X143.685 Y167.138 E89.24837
G1 X143.487 Y167.897 E89.41466
G1 X143.213 Y168.631 E89.58075
G1 X142.865 Y169.334 E89.74705
G1 X142.448 Y169.998 E89.91328
G1 X141.966 Y170.615 E90.07926
G1 X141.593 Y171.015 E90.19521
G1 X141.438 Y171.17 E90.24168
G1 X140.856 Y171.695 E90.40785
G1 X140.224 Y172.159 E90.57407
G1 X139.548 Y172.555 E90.74016
G1 X138.835 Y172.881 E90.90636
G1 X138.092 Y173.132 E91.07262
G1 X137.328 Y173.306 E91.23874
G1 X136.55 Y173.402 E91.40493
G1 X136.004 Y173.421 E91.52075
G1 X125.654 Y173.421 E93.71495
G1 X125.3 Y173.842 E93.83156
G1 X125.058 Y174.117 E93.90922
G1 X123.932 Y175.334 E94.26072
G1 X123.681 Y175.593 E94.33718
G1 X122.506 Y176.749 E94.68662
G1 X122.238 Y177 E94.76446
G1 X120.993 Y178.113 E95.1185
G1 X120.715 Y178.35 E95.19594
G1 X119.439 Y179.386 E95.54439
G1 X119.156 Y179.605 E95.62025
G1 X117.808 Y180.599 E95.97532
G1 X117.508 Y180.81 E96.05308
G1 X116.127 Y181.73 E96.40487
G1 X115.819 Y181.924 E96.48204
G1 X114.417 Y182.765 E96.82863
G1 X114.093 Y182.949 E96.90763
G1 X112.624 Y183.736 E97.26093
G1 X112.302 Y183.899 E97.33744
G1 X110.804 Y184.613 E97.68925
G1 X110.472 Y184.762 E97.7664
G1 X108.936 Y185.407 E98.11957
G1 X108.597 Y185.54 E98.19677
G1 X107.033 Y186.111 E98.54975
G1 X106.692 Y186.226 E98.62604
G1 X105.123 Y186.717 E98.97457
G1 X104.767 Y186.819 E99.05308
G1 X103.164 Y187.237 E99.40428
G1 X102.811 Y187.321 E99.48121
G1 X101.175 Y187.666 E99.83567
G1 X100.818 Y187.732 E99.91264
G1 X99.189 Y187.996 E100.26249
G1 X98.822 Y188.046 E100.34101
G1 X97.166 Y188.233 E100.69432
G1 X96.809 Y188.265 E100.7703
G1 X95.168 Y188.373 E101.11895
G1 X94.802 Y188.389 E101.19661
G1 X93.138 Y188.419 E101.54944
G1 X92.768 Y188.417 E101.62788
G1 X91.103 Y188.367 E101.98102
G1 X90.746 Y188.347 E102.05682
G1 X89.104 Y188.221 E102.40595
G1 X88.744 Y188.185 E102.48265
G1 X87.095 Y187.98 E102.83493
G1 X86.728 Y187.926 E102.91357
G1 X85.087 Y187.641 E103.26667
G1 X84.732 Y187.57 E103.34342
G1 X83.11 Y187.209 E103.6957
G1 X82.76 Y187.123 E103.77211
G1 X81.171 Y186.69 E104.12126
G1 X80.811 Y186.582 E104.20094
G1 X79.239 Y186.07 E104.55143
G1 X78.902 Y185.951 E104.6272
G1 X77.336 Y185.359 E104.98212
G1 X77.003 Y185.225 E105.05822
G1 X75.488 Y184.57 E105.40813
G1 X75.159 Y184.418 E105.48496
G1 X73.684 Y183.696 E105.83312
G1 X73.345 Y183.518 E105.91429
G1 X71.884 Y182.712 E106.26803
G1 X71.575 Y182.532 E106.34384
G1 X70.158 Y181.662 E106.69635
G1 X69.847 Y181.461 E106.77485
G1 X68.49 Y180.535 E107.12313
G1 X68.196 Y180.323 E107.19997
G1 X66.859 Y179.315 E107.55495
G1 X66.572 Y179.088 E107.63252
G1 X65.297 Y178.028 E107.98404
G1 X65.027 Y177.793 E108.05992
G1 X63.812 Y176.683 E108.40881
G1 X63.543 Y176.425 E108.48783
G1 X62.365 Y175.239 E108.84221
G1 X62.121 Y174.982 E108.91734
G1 X61.017 Y173.763 E109.266
G1 X60.772 Y173.479 E109.34551
G1 X59.72 Y172.197 E109.69709
G1 X59.497 Y171.911 E109.77397
G1 X58.506 Y170.58 E110.12577
G1 X58.298 Y170.288 E110.20177
G1 X57.364 Y168.903 E110.55592
G1 X57.166 Y168.592 E110.63408
G1 X56.313 Y167.186 E110.98272
G1 X56.13 Y166.868 E111.0605
G1 X55.332 Y165.399 E111.41491
G1 X55.168 Y165.08 E111.49095
G1 X54.445 Y163.587 E111.84263
G1 X54.29 Y163.246 E111.92204
G1 X53.641 Y161.72 E112.27359
G1 X53.509 Y161.389 E112.34914
G1 X52.936 Y159.847 E112.69788
G1 X52.817 Y159.499 E112.77585
G1 X52.31 Y157.905 E113.13046
G1 X52.208 Y157.556 E113.20755
G1 X51.781 Y155.955 E113.55882
G1 X51.696 Y155.604 E113.63539
G1 X51.347 Y153.995 E113.98443
G1 X51.278 Y153.635 E114.06213
G1 X51.002 Y151.987 E114.41638
G1 X50.949 Y151.622 E114.49457
G1 X50.754 Y149.976 E114.84596
G1 X50.721 Y149.619 E114.92197
G1 X50.604 Y147.98 E115.27032
G1 X50.586 Y147.618 E115.34716
G1 X50.546 Y145.96 E115.69876
G1 X50.546 Y145.591 E115.77698
G1 X50.586 Y143.918 E116.13176
G1 X50.604 Y143.555 E116.20881
G1 X50.721 Y141.916 E116.55716
G1 X50.755 Y141.555 E116.63404
G1 X50.951 Y139.908 E116.98566
G1 X51.003 Y139.547 E117.06298
G1 X51.279 Y137.899 E117.41723
G1 X51.348 Y137.538 E117.49514
G1 X51.697 Y135.93 E117.84398
G1 X51.782 Y135.578 E117.92075
G1 X52.21 Y133.975 E118.27249
G1 X52.312 Y133.625 E118.34977
G1 X52.819 Y132.033 E118.70398
G1 X52.937 Y131.691 E118.78068
G1 X53.509 Y130.15 E119.12915
G1 X53.644 Y129.812 E119.20631
G1 X54.295 Y128.284 E119.55842
G1 X54.449 Y127.945 E119.63736
G1 X55.172 Y126.453 E119.98884
G1 X55.335 Y126.136 E120.06441
G1 X56.133 Y124.667 E120.41882
G1 X56.318 Y124.345 E120.49755
G1 X57.171 Y122.941 E120.84583
G1 X57.367 Y122.634 E120.92304
G1 X58.303 Y121.246 E121.27795
G1 X58.513 Y120.951 E121.35472
G1 X59.504 Y119.621 E121.70635
G1 X59.727 Y119.336 E121.78306
G1 X60.779 Y118.055 E122.13448
G1 X61.02 Y117.776 E122.21264
G1 X62.123 Y116.557 E122.56115
G1 X62.373 Y116.293 E122.63823
G1 X63.554 Y115.106 E122.99321
G1 X63.817 Y114.854 E123.07043
G1 X65.029 Y113.746 E123.41857
G1 X65.303 Y113.507 E123.49565
G1 X66.58 Y112.446 E123.84762
G1 X66.869 Y112.217 E123.92579
G1 X68.204 Y111.212 E124.28004
G1 X68.495 Y111.003 E124.356
G1 X69.854 Y110.076 E124.70475
G1 X70.162 Y109.877 E124.78249
G0 F3927.3 X70.439 Y110.329
G1 F1800 X71.855 Y109.459 E125.13482
G1 X72.148 Y109.288 E125.20674
G1 X73.609 Y108.483 E125.56037
G1 X73.909 Y108.327 E125.63206
G1 X75.392 Y107.599 E125.98229
G1 X75.706 Y107.454 E126.05562
G1 X77.219 Y106.8 E126.40505
G1 X77.528 Y106.675 E126.47572
G1 X79.094 Y106.083 E126.83064
G1 X79.409 Y105.972 E126.90145
G1 X80.982 Y105.46 E127.25214
G1 X81.32 Y105.36 E127.32687
G1 X82.909 Y104.928 E127.67597
G1 X83.235 Y104.847 E127.74718
G1 X84.856 Y104.487 E128.0992
G1 X85.179 Y104.423 E128.16901
G1 X86.821 Y104.137 E128.52236
G1 X87.168 Y104.085 E128.59674
G1 X88.82 Y103.88 E128.94965
G1 X89.153 Y103.847 E129.02059
G1 X90.794 Y103.721 E129.36951
G1 X91.131 Y103.703 E129.44106
G1 X92.795 Y103.654 E129.79398
G1 X93.135 Y103.652 E129.86606
G1 X94.798 Y103.682 E130.21867
G1 X95.139 Y103.696 E130.29102
G1 X96.78 Y103.804 E130.63967
G1 X97.116 Y103.835 E130.7112
