;FLAVOR:UltiGCode
;TIME:1693
;MATERIAL:3429
;MATERIAL2:0
;NOZZLE_DIAMETER:0.6
;MINX:100.328
;MINY:96.28
;MINZ:0.4
;MAXX:126.664
;MAXY:122.624
;MAXZ:46.75
;Generated with Cura_SteamEngine master
M82 ;absolute extrusion mode
G0 F3000 Y50 ;avoid prime blob
G92 E0
G92 E0
G10
;LAYER_COUNT:310
;LAYER:0
M107
G0 F3927.3 X104.048 Y100.287 Z0.4
;TYPE:SKIRT
G11
G1 F1800 X104.658 Y99.698 E0.17977
G1 X105.247 Y99.181 E0.34591
G1 X105.767 Y98.797 E0.48295
G1 X106.454 Y98.331 E0.65894
G1 X107.147 Y97.91 E0.83084
G1 X107.658 Y97.655 E0.95192
G1 X108.417 Y97.309 E1.12875
G1 X109.171 Y97.01 E1.30071
G1 X109.729 Y96.841 E1.42431
G1 X110.54 Y96.627 E1.60213
G1 X111.251 Y96.472 E1.7564
G1 X111.946 Y96.382 E1.90497
G1 X112.761 Y96.311 E2.07841
G1 X113.495 Y96.28 E2.23416
G1 X114.172 Y96.308 E2.3778
G1 X114.994 Y96.376 E2.55266
G1 X115.748 Y96.473 E2.71383
G1 X116.395 Y96.613 E2.85416
G1 X117.177 Y96.815 E3.02539
G1 X117.95 Y97.056 E3.19705
G1 X118.46 Y97.263 E3.31373
G1 X119.229 Y97.605 E3.49216
G1 X119.953 Y97.97 E3.66405
G1 X120.457 Y98.282 E3.78971
G1 X121.169 Y98.758 E3.97128
G1 X121.799 Y99.224 E4.13741
G1 X122.301 Y99.667 E4.27934
G1 X122.892 Y100.233 E4.45283
G1 X123.199 Y100.543 E4.54532
G1 X123.818 Y101.281 E4.74952
G1 X124.3 Y101.929 E4.92074
G1 X124.752 Y102.602 E5.09261
G1 X125.027 Y103.1 E5.21321
G1 X125.41 Y103.851 E5.39193
G1 X125.525 Y104.085 E5.4472
G1 X125.953 Y105.185 E5.69744
G1 X126.198 Y105.981 E5.874
G1 X126.397 Y106.767 E6.04589
G1 X126.491 Y107.325 E6.16585
G1 X126.6 Y108.152 E6.34269
G1 X126.663 Y108.874 E6.49634
G1 X126.664 Y109.589 E6.64792
G1 X126.629 Y110.428 E6.82594
G1 X126.555 Y111.235 E6.99774
G1 X126.457 Y111.789 E7.11701
G1 X126.287 Y112.591 E7.29082
G1 X126.144 Y113.166 E7.41643
G1 X125.868 Y113.97 E7.59664
G1 X125.55 Y114.762 E7.77757
G1 X125.212 Y115.498 E7.94927
G1 X124.927 Y116 E8.07165
G1 X124.502 Y116.692 E8.24381
G1 X124.149 Y117.221 E8.37864
G1 X123.661 Y117.833 E8.54458
G1 X123.119 Y118.45 E8.71869
G1 X122.56 Y119.026 E8.88885
G1 X122.107 Y119.423 E9.01655
G1 X121.47 Y119.94 E9.19047
G1 X120.832 Y120.408 E9.35821
G1 X120.305 Y120.732 E9.48936
G1 X119.598 Y121.13 E9.66137
G1 X119.066 Y121.404 E9.78823
G1 X118.288 Y121.725 E9.96665
G1 X117.485 Y122.009 E10.14722
G1 X116.709 Y122.241 E10.31893
G1 X116.161 Y122.356 E10.43764
G1 X115.366 Y122.495 E10.60873
G1 X114.609 Y122.592 E10.77053
G1 X113.967 Y122.62 E10.90676
G1 X113.141 Y122.624 E11.08188
G1 X112.395 Y122.594 E11.24016
G1 X111.712 Y122.508 E11.3861
G1 X110.911 Y122.373 E11.5583
G1 X110.264 Y122.237 E11.69846
G1 X109.521 Y122.013 E11.86298
G1 X108.708 Y121.726 E12.04576
G1 X107.958 Y121.419 E12.21757
G1 X107.435 Y121.151 E12.34215
G1 X106.73 Y120.757 E12.51337
G1 X106.241 Y120.461 E12.63455
G1 X105.582 Y119.985 E12.80689
G1 X104.944 Y119.474 E12.98018
G1 X104.421 Y119.017 E13.12743
G1 X103.913 Y118.492 E13.2823
G1 X103.37 Y117.879 E13.45591
G1 X102.863 Y117.247 E13.62768
G1 X102.536 Y116.76 E13.75204
G1 X102.091 Y116.042 E13.93112
G1 X101.699 Y115.333 E14.10287
G1 X101.476 Y114.837 E14.21816
G1 X101.157 Y114.061 E14.39603
G1 X100.886 Y113.298 E14.56769
G1 X100.729 Y112.688 E14.70122
G1 X100.548 Y111.858 E14.88132
G1 X100.431 Y111.196 E15.02384
G1 X100.364 Y110.448 E15.18305
G1 X100.328 Y109.632 E15.35621
G1 X100.329 Y108.875 E15.51669
G1 X100.387 Y108.21 E15.65821
G1 X100.49 Y107.401 E15.8311
G1 X100.602 Y106.74 E15.97323
G1 X100.778 Y106.045 E16.12522
G1 X101.013 Y105.265 E16.29792
G1 X101.285 Y104.502 E16.46965
G1 X101.525 Y103.973 E16.5928
G1 X101.904 Y103.212 E16.77303
G1 X102.187 Y102.692 E16.89854
G1 X102.653 Y101.986 E17.07788
G1 X103.139 Y101.326 E17.25164
G1 X103.651 Y100.698 E17.42341
G1 X104.048 Y100.287 E17.54456
G0 F3927.3 X104.416 Y100.669
G1 F1800 X105.026 Y100.08 E17.72432
G1 X105.578 Y99.595 E17.8801
G1 X106.065 Y99.236 E18.00836
G1 X106.752 Y98.77 E18.18435
G1 X107.422 Y98.364 E18.35044
G1 X107.878 Y98.137 E18.45842
G1 X108.637 Y97.791 E18.63526
G1 X109.366 Y97.503 E18.80143
G1 X109.864 Y97.353 E18.91169
G1 X110.675 Y97.139 E19.08951
G1 X111.342 Y96.995 E19.23417
G1 X111.992 Y96.91 E19.37315
G1 X112.807 Y96.839 E19.54658
G1 X113.495 Y96.81 E19.69257
G1 X114.129 Y96.836 E19.82709
G1 X114.951 Y96.904 E20.00195
G1 X115.657 Y96.996 E20.15288
G1 X116.262 Y97.126 E20.28407
G1 X117.044 Y97.328 E20.4553
G1 X117.792 Y97.563 E20.62152
G1 X118.245 Y97.747 E20.72517
G1 X119.014 Y98.089 E20.90359
G1 X119.713 Y98.444 E21.0698
G1 X120.162 Y98.722 E21.18176
G1 X120.874 Y99.198 E21.36332
G1 X121.465 Y99.636 E21.51927
G1 X121.934 Y100.05 E21.6519
G1 X122.525 Y100.616 E21.82538
G1 X122.814 Y100.907 E21.91233
G1 X123.393 Y101.597 E22.10328
G1 X123.875 Y102.245 E22.2745
G1 X124.31 Y102.897 E22.44066
G1 X124.555 Y103.341 E22.54817
G1 X124.938 Y104.092 E22.72689
G1 X125.046 Y104.312 E22.77885
G1 X125.446 Y105.341 E23.0129
G1 X125.691 Y106.137 E23.18946
G1 X125.883 Y106.897 E23.35564
G1 X125.965 Y107.394 E23.46243
G1 X126.074 Y108.221 E23.63927
G1 X126.133 Y108.898 E23.78334
G1 X126.134 Y109.567 E23.92517
G1 X126.099 Y110.406 E24.10319
G1 X126.027 Y111.187 E24.26946
G1 X125.939 Y111.68 E24.37563
G1 X125.769 Y112.482 E24.54943
G1 X125.634 Y113.02 E24.66703
G1 X125.377 Y113.772 E24.8355
G1 X125.059 Y114.564 E25.01644
G1 X124.73 Y115.276 E25.18272
G1 X124.476 Y115.723 E25.29171
G1 X124.051 Y116.415 E25.46387
G1 X123.719 Y116.91 E25.59023
G1 X123.263 Y117.483 E25.74548
G1 X122.721 Y118.1 E25.91958
G1 X122.197 Y118.64 E26.0791
G1 X121.773 Y119.011 E26.19854
G1 X121.136 Y119.528 E26.37247
G1 X120.538 Y119.967 E26.52974
G1 X120.045 Y120.27 E26.65242
G1 X119.338 Y120.668 E26.82442
G1 X118.839 Y120.925 E26.94341
G1 X118.111 Y121.225 E27.11034
G1 X117.308 Y121.509 E27.29091
G1 X116.557 Y121.733 E27.45705
G1 X116.07 Y121.834 E27.56249
G1 X115.275 Y121.973 E27.73359
G1 X114.565 Y122.063 E27.88531
G1 X113.964 Y122.09 E28.01285
G1 X113.138 Y122.094 E28.18797
G1 X112.439 Y122.065 E28.33628
G1 X111.8 Y121.985 E28.47281
G1 X110.999 Y121.85 E28.64502
G1 X110.392 Y121.723 E28.77649
G1 X109.698 Y121.514 E28.93014
G1 X108.885 Y121.227 E29.11292
G1 X108.16 Y120.928 E29.27918
G1 X107.694 Y120.688 E29.3903
G1 X106.989 Y120.294 E29.56152
G1 X106.53 Y120.016 E29.67529
G1 X105.914 Y119.571 E29.83639
G1 X105.276 Y119.06 E30.00968
G1 X104.785 Y118.632 E30.14777
G1 X104.309 Y118.141 E30.29274
G1 X103.766 Y117.528 E30.46635
G1 X103.277 Y116.915 E30.63259
G1 X102.987 Y116.48 E30.74343
G1 X102.542 Y115.762 E30.92251
G1 X102.163 Y115.076 E31.08866
G1 X101.966 Y114.636 E31.19086
G1 X101.647 Y113.86 E31.36873
G1 X101.386 Y113.121 E31.53488
G1 X101.246 Y112.575 E31.65438
G1 X101.065 Y111.745 E31.83448
G1 X100.956 Y111.124 E31.96814
G1 X100.893 Y110.425 E32.11693
G1 X100.857 Y109.609 E32.29009
G1 X100.859 Y108.899 E32.44061
G1 X100.913 Y108.277 E32.57297
G1 X101.016 Y107.468 E32.74586
G1 X101.121 Y106.848 E32.87918
G1 X101.286 Y106.198 E33.02135
G1 X101.521 Y105.418 E33.19405
G1 X101.785 Y104.68 E33.36021
G1 X102 Y104.209 E33.46998
G1 X102.379 Y103.448 E33.65021
G1 X102.644 Y102.961 E33.76775
G1 X103.08 Y102.3 E33.93562
G1 X103.566 Y101.64 E34.10938
G1 X104.062 Y101.034 E34.2754
G1 X104.416 Y100.669 E34.38319
G0 F3927.3 X104.784 Y101.05
G1 F1800 X105.394 Y100.461 E34.56296
G1 X105.909 Y100.009 E34.70823
G1 X106.363 Y99.675 E34.82772
G1 X107.05 Y99.209 E35.0037
G1 X107.697 Y98.818 E35.16397
G1 X108.098 Y98.62 E35.25878
G1 X108.857 Y98.274 E35.43562
G1 X109.561 Y97.997 E35.596
G1 X109.999 Y97.866 E35.69292
G1 X110.81 Y97.652 E35.87074
G1 X111.433 Y97.517 E36.00588
G1 X112.038 Y97.438 E36.13523
G1 X112.853 Y97.367 E36.30867
G1 X113.495 Y97.34 E36.44489
G1 X114.085 Y97.364 E36.57007
G1 X114.907 Y97.432 E36.74493
G1 X115.566 Y97.518 E36.88583
G1 X116.129 Y97.639 E37.00791
G1 X116.911 Y97.841 E37.17913
G1 X117.633 Y98.069 E37.33965
G1 X118.029 Y98.231 E37.43035
G1 X118.798 Y98.573 E37.60878
G1 X119.472 Y98.917 E37.7692
G1 X119.868 Y99.163 E37.86803
G1 X120.58 Y99.639 E38.0496
G1 X121.131 Y100.047 E38.19495
G1 X121.568 Y100.433 E38.31856
G1 X122.159 Y100.999 E38.49204
G1 X122.429 Y101.271 E38.57329
G1 X122.968 Y101.914 E38.75117
G1 X123.45 Y102.562 E38.92238
G1 X123.869 Y103.192 E39.08278
G1 X124.083 Y103.581 E39.1769
G1 X124.466 Y104.332 E39.35563
G1 X124.567 Y104.539 E39.40445
G1 X124.939 Y105.497 E39.62232
G1 X125.184 Y106.293 E39.79889
G1 X125.368 Y107.027 E39.95931
G1 X125.44 Y107.463 E40.053
G1 X125.549 Y108.29 E40.22984
G1 X125.604 Y108.922 E40.36433
G1 X125.605 Y109.545 E40.4964
G1 X125.57 Y110.384 E40.67443
G1 X125.498 Y111.137 E40.83479
G1 X125.42 Y111.57 E40.92806
G1 X125.25 Y112.372 E41.10186
G1 X125.125 Y112.875 E41.21174
G1 X124.885 Y113.575 E41.36862
G1 X124.567 Y114.367 E41.54956
G1 X124.248 Y115.053 E41.70994
G1 X124.024 Y115.446 E41.80584
G1 X123.599 Y116.138 E41.97801
G1 X123.289 Y116.6 E42.09596
G1 X122.865 Y117.133 E42.24034
G1 X122.323 Y117.75 E42.41445
G1 X121.834 Y118.254 E42.56332
G1 X121.439 Y118.599 E42.67451
G1 X120.802 Y119.116 E42.84843
G1 X120.244 Y119.526 E42.99523
G1 X119.785 Y119.808 E43.10943
G1 X119.078 Y120.206 E43.28144
G1 X118.612 Y120.446 E43.39256
G1 X117.935 Y120.726 E43.54787
G1 X117.132 Y121.01 E43.72844
G1 X116.406 Y121.224 E43.8889
G1 X115.978 Y121.312 E43.98154
G1 X115.183 Y121.451 E44.15263
G1 X114.521 Y121.535 E44.2941
G1 X113.962 Y121.56 E44.41273
G1 X113.136 Y121.564 E44.58784
G1 X112.483 Y121.537 E44.7264
G1 X111.888 Y121.462 E44.85354
G1 X111.087 Y121.327 E45.02574
G1 X110.521 Y121.208 E45.14836
G1 X109.874 Y121.014 E45.29156
G1 X109.061 Y120.727 E45.47434
G1 X108.362 Y120.438 E45.63469
G1 X107.952 Y120.226 E45.73254
G1 X107.247 Y119.832 E45.90376
G1 X106.819 Y119.572 E46.00993
G1 X106.245 Y119.158 E46.15996
G1 X105.607 Y118.647 E46.33325
G1 X105.149 Y118.247 E46.46217
G1 X104.706 Y117.789 E46.59725
G1 X104.163 Y117.176 E46.77086
G1 X103.692 Y116.584 E46.93124
G1 X103.437 Y116.201 E47.02879
G1 X102.992 Y115.483 E47.20787
G1 X102.628 Y114.82 E47.36821
G1 X102.456 Y114.434 E47.4578
G1 X102.137 Y113.658 E47.63567
G1 X101.887 Y112.945 E47.79585
G1 X101.764 Y112.462 E47.90152
G1 X101.583 Y111.632 E48.08161
G1 X101.482 Y111.053 E48.20621
G1 X101.423 Y110.401 E48.345
G1 X101.387 Y109.585 E48.51816
G1 X101.388 Y108.923 E48.65851
G1 X101.438 Y108.344 E48.78171
G1 X101.541 Y107.535 E48.9546
G1 X101.639 Y106.956 E49.0791
G1 X101.793 Y106.351 E49.21145
G1 X102.028 Y105.571 E49.38415
G1 X102.284 Y104.859 E49.54455
G1 X102.474 Y104.445 E49.64112
G1 X102.853 Y103.684 E49.82136
G1 X103.101 Y103.229 E49.93121
G1 X103.507 Y102.614 E50.08744
G1 X103.993 Y101.954 E50.2612
G1 X104.473 Y101.37 E50.42146
G1 X104.784 Y101.05 E50.51607
G0 F3927.3 X105.152 Y101.431
G1 F1800 X105.762 Y100.842 E50.69583
G1 X106.24 Y100.423 E50.83059
G1 X106.66 Y100.113 E50.94125
G1 X107.347 Y99.647 E51.11724
G1 X107.971 Y99.272 E51.27158
G1 X108.318 Y99.102 E51.3535
G1 X109.077 Y98.756 E51.53034
G1 X109.755 Y98.491 E51.68466
G1 X110.135 Y98.378 E51.76871
G1 X110.946 Y98.164 E51.94653
G1 X111.524 Y98.039 E52.0719
G1 X112.084 Y97.966 E52.19162
G1 X112.899 Y97.895 E52.36505
G1 X113.495 Y97.87 E52.49152
G1 X114.041 Y97.893 E52.60737
G1 X114.863 Y97.961 E52.78223
G1 X115.475 Y98.04 E52.91305
G1 X115.997 Y98.153 E53.02628
G1 X116.779 Y98.355 E53.19751
G1 X117.472 Y98.575 E53.35165
G1 X117.814 Y98.716 E53.43007
G1 X118.583 Y99.058 E53.60849
G1 X119.231 Y99.389 E53.76275
G1 X119.573 Y99.603 E53.84828
G1 X120.285 Y100.079 E54.02985
G1 X120.797 Y100.458 E54.1649
G1 X121.201 Y100.815 E54.2792
G1 X121.792 Y101.381 E54.45268
G1 X122.043 Y101.635 E54.52838
G1 X122.543 Y102.23 E54.69315
G1 X123.025 Y102.878 E54.86436
G1 X123.426 Y103.485 E55.01859
G1 X123.611 Y103.822 E55.10009
G1 X123.994 Y104.573 E55.27881
G1 X124.088 Y104.766 E55.32432
G1 X124.433 Y105.653 E55.52609
G1 X124.678 Y106.449 E55.70265
G1 X124.853 Y107.155 E55.85685
G1 X124.914 Y107.532 E55.93782
G1 X125.023 Y108.359 E56.11466
G1 X125.074 Y108.946 E56.23957
G1 X125.075 Y109.523 E56.3619
G1 X125.04 Y110.362 E56.53992
G1 X124.97 Y111.086 E56.69412
G1 X124.902 Y111.46 E56.77471
G1 X124.732 Y112.262 E56.94851
G1 X124.615 Y112.729 E57.05057
G1 X124.393 Y113.377 E57.19579
G1 X124.075 Y114.169 E57.37672
G1 X123.767 Y114.829 E57.53113
G1 X123.572 Y115.168 E57.61404
G1 X123.147 Y115.86 E57.7862
G1 X122.86 Y116.29 E57.8958
G1 X122.466 Y116.783 E58.02959
G1 X121.924 Y117.4 E58.2037
G1 X121.471 Y117.868 E58.34178
G1 X121.105 Y118.188 E58.44485
G1 X120.468 Y118.705 E58.61877
G1 X119.95 Y119.085 E58.75497
G1 X119.525 Y119.346 E58.8607
G1 X118.818 Y119.744 E59.0327
G1 X118.385 Y119.967 E59.13596
G1 X117.758 Y120.226 E59.27978
G1 X116.955 Y120.51 E59.46035
G1 X116.257 Y120.714 E59.61451
G1 X115.887 Y120.79 E59.69459
G1 X115.092 Y120.929 E59.86569
G1 X114.477 Y121.007 E59.99711
G1 X113.959 Y121.03 E60.10704
G1 X113.133 Y121.034 E60.28215
G1 X112.527 Y121.009 E60.41073
G1 X111.976 Y120.94 E60.52846
G1 X111.175 Y120.805 E60.70066
G1 X110.649 Y120.694 E60.81463
G1 X110.051 Y120.514 E60.94703
G1 X109.238 Y120.227 E61.12981
G1 X108.566 Y119.948 E61.28406
G1 X108.211 Y119.763 E61.36893
G1 X107.506 Y119.369 E61.54014
G1 X107.107 Y119.128 E61.63896
G1 X106.576 Y118.744 E61.77789
G1 X105.938 Y118.233 E61.95118
G1 X105.513 Y117.861 E62.07092
G1 X105.103 Y117.438 E62.19581
G1 X104.56 Y116.825 E62.36942
G1 X104.108 Y116.254 E62.5238
G1 X103.888 Y115.922 E62.60824
G1 X103.443 Y115.204 E62.78732
G1 X102.947 Y114.233 E63.01847
G1 X102.628 Y113.457 E63.19634
G1 X102.388 Y112.77 E63.35062
G1 X102.282 Y112.35 E63.44245
G1 X102.101 Y111.52 E63.62255
G1 X102.007 Y110.981 E63.73854
G1 X101.952 Y110.378 E63.8669
G1 X101.916 Y109.562 E64.04006
G1 X101.918 Y108.947 E64.17045
G1 X101.964 Y108.411 E64.2845
G1 X102.067 Y107.602 E64.45739
G1 X102.158 Y107.064 E64.57306
G1 X102.301 Y106.504 E64.69559
G1 X102.536 Y105.724 E64.8683
G1 X102.784 Y105.04 E65.02254
G1 X102.949 Y104.682 E65.10611
G1 X103.328 Y103.921 E65.28634
G1 X103.558 Y103.498 E65.38842
G1 X103.933 Y102.929 E65.53289
G1 X104.419 Y102.269 E65.70665
G1 X104.882 Y101.707 E65.86102
G1 X105.152 Y101.431 E65.94287
G0 F3927.3 X105.52 Y101.812
G1 F1800 X106.13 Y101.223 E66.12264
G1 X106.571 Y100.837 E66.24688
G1 X106.958 Y100.552 E66.34878
G1 X107.645 Y100.086 E66.52476
G1 X108.538 Y99.584 E66.74194
G1 X109.297 Y99.238 E66.91878
G1 X110.27 Y98.891 E67.13778
G1 X111.081 Y98.677 E67.3156
G1 X111.615 Y98.561 E67.43145
G1 X112.13 Y98.494 E67.54155
G1 X112.945 Y98.423 E67.71498
G1 X113.495 Y98.4 E67.83168
G1 X113.997 Y98.421 E67.9382
G1 X114.819 Y98.489 E68.11306
G1 X115.384 Y98.562 E68.23384
G1 X115.864 Y98.666 E68.33796
G1 X116.646 Y98.868 E68.50918
G1 X117.599 Y99.2 E68.72313
G1 X118.368 Y99.542 E68.90155
G1 X119.278 Y100.044 E69.12188
G1 X119.99 Y100.52 E69.30345
G1 X120.462 Y100.87 E69.42802
G1 X120.835 Y101.198 E69.53332
G1 X121.426 Y101.764 E69.7068
G1 X121.658 Y101.999 E69.77681
G1 X122.117 Y102.546 E69.92819
G1 X122.599 Y103.194 E70.09941
G1 X123.139 Y104.063 E70.31631
G1 X123.522 Y104.814 E70.49503
G1 X123.609 Y104.993 E70.53722
G1 X123.926 Y105.809 E70.72281
G1 X124.171 Y106.605 E70.89937
G1 X124.389 Y107.602 E71.11573
G1 X124.498 Y108.429 E71.29257
G1 X124.545 Y108.97 E71.40769
G1 X124.546 Y109.501 E71.52027
G1 X124.511 Y110.34 E71.69829
G1 X124.384 Y111.35 E71.91409
G1 X124.214 Y112.152 E72.0879
G1 X124.105 Y112.583 E72.18215
G1 X123.901 Y113.18 E72.31589
G1 X123.583 Y113.972 E72.49683
G1 X123.121 Y114.891 E72.71489
G1 X122.696 Y115.583 E72.88705
G1 X122.43 Y115.98 E72.98836
G1 X122.068 Y116.434 E73.11146
G1 X121.526 Y117.051 E73.28557
G1 X121.107 Y117.482 E73.413
G1 X120.771 Y117.776 E73.50765
G1 X120.134 Y118.293 E73.68157
G1 X119.656 Y118.644 E73.8073
G1 X119.265 Y118.884 E73.90456
G1 X118.558 Y119.282 E74.07656
G1 X118.158 Y119.488 E74.17195
G1 X117.581 Y119.726 E74.30427
G1 X116.778 Y120.01 E74.48484
G1 X115.796 Y120.268 E74.70009
G1 X115.001 Y120.407 E74.87118
G1 X114.433 Y120.479 E74.99256
G1 X113.957 Y120.5 E75.09357
G1 X113.131 Y120.504 E75.26869
G1 X112.571 Y120.481 E75.38751
G1 X112.064 Y120.417 E75.49584
G1 X111.263 Y120.282 E75.66805
G1 X110.778 Y120.18 E75.77312
G1 X110.227 Y120.014 E75.89512
G1 X109.414 Y119.727 E76.0779
G1 X108.47 Y119.3 E76.29755
