;FLAVOR:UltiGCode
;TIME:187
;MATERIAL:497
;MATERIAL2:0
;NOZZLE_DIAMETER:0.6
;MINX:98.444
;MINY:94.491
;MINZ:0.4
;MAXX:125.793
;MAXY:121.818
;MAXZ:3.55
;Generated with Cura_SteamEngine master
M82 ;absolute extrusion mode
G0 F3000 Y50 ;avoid prime blob
G92 E0
G92 E0
G10
;LAYER_COUNT:22
;LAYER:0
M107
G0 F3927.3 X102.362 Y98.575 Z0.4
;TYPE:SKIRT
G11
G1 F1800 X102.923 Y98.035 E0.16508
G1 X103.797 Y97.304 E0.40663
G1 X104.401 Y96.866 E0.5648
G1 X105.383 Y96.254 E0.81011
G1 X106.058 Y95.897 E0.97199
G1 X107.099 Y95.436 E1.21335
G1 X107.83 Y95.171 E1.37819
G1 X108.922 Y94.859 E1.61896
G1 X109.637 Y94.707 E1.77393
G1 X110.083 Y94.625 E1.87007
G1 X110.797 Y94.544 E2.0224
G1 X111.563 Y94.491 E2.18518
G1 X112.712 Y94.492 E2.42877
G1 X113.458 Y94.545 E2.58732
G1 X114.572 Y94.701 E2.8258
G1 X115.321 Y94.859 E2.98808
G1 X116.441 Y95.18 E3.23508
G1 X117.159 Y95.442 E3.39711
G1 X118.193 Y95.902 E3.63703
G1 X118.864 Y96.258 E3.79807
G1 X119.826 Y96.857 E4.03831
G1 X120.432 Y97.295 E4.19683
G1 X121.31 Y98.027 E4.43917
G1 X121.862 Y98.557 E4.6014
G1 X122.639 Y99.417 E4.84711
G1 X123.12 Y100.031 E5.01247
G1 X123.761 Y100.978 E5.2549
G1 X124.133 Y101.62 E5.4122
G1 X124.636 Y102.648 E5.65483
G1 X124.928 Y103.367 E5.81935
G1 X125.116 Y103.878 E5.93478
G1 X125.298 Y104.506 E6.07339
G1 X125.481 Y105.247 E6.2352
G1 X125.676 Y106.363 E6.47538
G1 X125.752 Y107.09 E6.63034
G1 X125.793 Y108.213 E6.86858
G1 X125.768 Y108.975 E7.03021
G1 X125.729 Y109.543 E7.15091
G1 X125.642 Y110.169 E7.2849
G1 X125.506 Y110.931 E7.44899
G1 X125.235 Y112.018 E7.68649
G1 X125.01 Y112.713 E7.84136
G1 X124.584 Y113.772 E8.08335
G1 X124.245 Y114.47 E8.24786
G1 X123.673 Y115.463 E8.4908
G1 X123.255 Y116.085 E8.64967
G1 X122.56 Y116.979 E8.88974
G1 X122.052 Y117.547 E9.05129
G1 X121.725 Y117.893 E9.15221
G1 X121.206 Y118.369 E9.30151
G1 X120.638 Y118.847 E9.45889
G1 X119.703 Y119.528 E9.70412
G1 X119.044 Y119.94 E9.86888
G1 X118.065 Y120.463 E10.10419
G1 X117.384 Y120.77 E10.26255
G1 X116.269 Y121.179 E10.51433
G1 X115.511 Y121.396 E10.68148
G1 X114.393 Y121.633 E10.92377
G1 X113.653 Y121.737 E11.08219
G1 X112.521 Y121.817 E11.32277
G1 X111.76 Y121.818 E11.4841
G1 X111.275 Y121.804 E11.58697
G1 X110.588 Y121.737 E11.7333
G1 X109.848 Y121.633 E11.89172
G1 X108.731 Y121.396 E12.1338
G1 X107.976 Y121.18 E12.30028
G1 X106.869 Y120.775 E12.55018
G1 X106.188 Y120.469 E12.70845
G1 X105.202 Y119.943 E12.94537
G1 X104.541 Y119.53 E13.11061
G1 X103.603 Y118.848 E13.35647
G1 X103.034 Y118.369 E13.51415
G1 X102.212 Y117.572 E13.75688
G1 X101.702 Y117.004 E13.91871
G1 X101.533 Y116.809 E13.97342
G1 X100.993 Y116.096 E14.16303
G1 X100.585 Y115.491 E14.31773
G1 X100.017 Y114.508 E14.55842
G1 X99.676 Y113.811 E14.72292
G1 X99.54 Y113.519 E14.7912
G1 X99.228 Y112.701 E14.97681
G1 X98.999 Y111.99 E15.13516
G1 X98.729 Y110.903 E15.37261
G1 X98.597 Y110.157 E15.53322
G1 X98.476 Y109.017 E15.77626
G1 X98.449 Y108.254 E15.93811
G1 X98.444 Y107.946 E16.00342
G1 X98.489 Y107.092 E16.18472
G1 X98.565 Y106.365 E16.33968
G1 X98.761 Y105.244 E16.58094
G1 X98.949 Y104.485 E16.74671
G1 X99.312 Y103.367 E16.99591
G1 X99.605 Y102.646 E17.1609
G1 X100.105 Y101.625 E17.40191
G1 X100.477 Y100.982 E17.5594
G1 X101.118 Y100.034 E17.802
G1 X101.589 Y99.432 E17.96405
G1 X102.362 Y98.575 E18.20872
G0 F3927.3 X102.73 Y98.957
G1 F1800 X103.291 Y98.417 E18.3738
G1 X104.108 Y97.733 E18.59969
G1 X104.712 Y97.295 E18.75786
G1 X105.631 Y96.723 E18.98734
G1 X106.306 Y96.366 E19.14923
G1 X107.28 Y95.934 E19.37511
G1 X108.011 Y95.669 E19.53995
G1 X109.032 Y95.377 E19.76508
G1 X109.747 Y95.225 E19.92005
G1 X110.165 Y95.148 E20.01016
G1 X110.834 Y95.072 E20.1529
G1 X111.6 Y95.019 E20.31568
G1 X112.675 Y95.02 E20.54358
G1 X113.421 Y95.073 E20.70213
G1 X114.462 Y95.219 E20.92498
G1 X115.211 Y95.377 E21.08726
G1 X116.259 Y95.678 E21.31842
G1 X116.977 Y95.94 E21.48046
G1 X117.945 Y96.37 E21.70501
G1 X118.616 Y96.726 E21.86604
G1 X119.516 Y97.287 E22.09087
G1 X120.122 Y97.725 E22.24939
G1 X120.943 Y98.41 E22.47607
G1 X121.495 Y98.94 E22.6383
G1 X122.222 Y99.744 E22.8681
G1 X122.703 Y100.358 E23.03345
G1 X123.302 Y101.244 E23.26018
G1 X123.674 Y101.886 E23.41748
G1 X124.145 Y102.847 E23.64437
G1 X124.437 Y103.566 E23.80889
G1 X124.614 Y104.046 E23.91735
G1 X124.784 Y104.633 E24.0469
G1 X124.967 Y105.374 E24.20871
G1 X125.149 Y106.418 E24.43338
G1 X125.225 Y107.145 E24.58834
G1 X125.263 Y108.196 E24.8113
G1 X125.238 Y108.958 E24.97293
G1 X125.202 Y109.491 E25.08619
G1 X125.12 Y110.076 E25.21142
G1 X124.984 Y110.838 E25.37552
G1 X124.73 Y111.855 E25.59774
G1 X124.505 Y112.55 E25.75261
G1 X124.107 Y113.54 E25.97882
G1 X123.768 Y114.238 E26.14332
G1 X123.233 Y115.168 E26.37078
G1 X122.815 Y115.79 E26.52965
G1 X122.165 Y116.626 E26.75415
G1 X121.657 Y117.194 E26.9157
G1 X121.35 Y117.518 E27.01033
G1 X120.864 Y117.964 E27.15017
G1 X120.296 Y118.442 E27.30755
G1 X119.422 Y119.078 E27.5367
G1 X118.763 Y119.49 E27.70147
G1 X117.847 Y119.98 E27.9217
G1 X117.166 Y120.287 E28.08006
G1 X116.123 Y120.669 E28.31554
G1 X115.365 Y120.886 E28.48269
G1 X114.32 Y121.108 E28.70918
G1 X113.58 Y121.212 E28.8676
G1 X112.52 Y121.287 E29.09288
G1 X111.759 Y121.288 E29.25421
G1 X111.305 Y121.275 E29.3505
G1 X110.661 Y121.212 E29.48768
G1 X109.921 Y121.108 E29.6461
G1 X108.877 Y120.887 E29.87233
G1 X108.122 Y120.671 E30.03882
G1 X107.086 Y120.292 E30.27268
G1 X106.405 Y119.986 E30.43096
G1 X105.483 Y119.493 E30.65261
G1 X104.822 Y119.08 E30.81785
G1 X103.945 Y118.442 E31.04777
G1 X103.376 Y117.963 E31.20545
G1 X102.607 Y117.218 E31.43243
G1 X102.097 Y116.65 E31.59427
G1 X101.937 Y116.467 E31.6458
G1 X101.432 Y115.8 E31.82316
G1 X101.024 Y115.195 E31.97786
G1 X100.493 Y114.275 E32.20306
G1 X100.152 Y113.578 E32.36756
G1 X100.024 Y113.304 E32.43167
G1 X99.732 Y112.539 E32.60526
G1 X99.503 Y111.828 E32.76362
G1 X99.251 Y110.811 E32.98575
G1 X99.119 Y110.065 E33.14636
G1 X99.006 Y108.998 E33.37382
G1 X98.979 Y108.235 E33.53568
G1 X98.974 Y107.946 E33.59696
G1 X99.016 Y107.147 E33.76658
G1 X99.092 Y106.42 E33.92154
G1 X99.275 Y105.371 E34.14729
G1 X99.463 Y104.612 E34.31306
G1 X99.803 Y103.567 E34.54603
G1 X100.096 Y102.846 E34.71102
G1 X100.564 Y101.891 E34.93649
G1 X100.936 Y101.248 E35.09397
G1 X101.535 Y100.36 E35.32105
G1 X102.006 Y99.758 E35.4831
G1 X102.73 Y98.957 E35.712
G0 F3927.3 X103.097 Y99.339
G1 F1800 X103.658 Y98.799 E35.87707
G1 X104.42 Y98.162 E36.08763
G1 X105.024 Y97.724 E36.2458
G1 X105.879 Y97.191 E36.4594
G1 X106.554 Y96.834 E36.62128
G1 X107.46 Y96.432 E36.83141
G1 X108.191 Y96.167 E36.99625
G1 X109.142 Y95.895 E37.20595
G1 X109.857 Y95.743 E37.36091
G1 X110.248 Y95.672 E37.44516
G1 X110.87 Y95.601 E37.57788
G1 X111.636 Y95.548 E37.74066
G1 X112.637 Y95.549 E37.95288
G1 X113.383 Y95.602 E38.11143
G1 X114.353 Y95.738 E38.31908
G1 X115.102 Y95.896 E38.48136
G1 X116.078 Y96.176 E38.69662
G1 X116.796 Y96.438 E38.85865
G1 X117.696 Y96.838 E39.06745
G1 X118.367 Y97.194 E39.22848
G1 X119.205 Y97.716 E39.43778
G1 X119.811 Y98.154 E39.5963
G1 X120.575 Y98.792 E39.80732
G1 X121.127 Y99.322 E39.96955
G1 X121.804 Y100.071 E40.18359
G1 X122.285 Y100.685 E40.34894
G1 X122.844 Y101.51 E40.56021
G1 X123.216 Y102.152 E40.71751
G1 X123.654 Y103.047 E40.92875
G1 X123.946 Y103.766 E41.09327
G1 X124.111 Y104.213 E41.19429
G1 X124.269 Y104.761 E41.3152
G1 X124.452 Y105.502 E41.47701
G1 X124.622 Y106.473 E41.68599
G1 X124.698 Y107.2 E41.84095
G1 X124.733 Y108.179 E42.04864
G1 X124.708 Y108.941 E42.21027
G1 X124.674 Y109.438 E42.31588
G1 X124.599 Y109.983 E42.43251
G1 X124.463 Y110.745 E42.5966
G1 X124.226 Y111.692 E42.80356
G1 X124.001 Y112.387 E42.95843
G1 X123.63 Y113.309 E43.16912
G1 X123.291 Y114.007 E43.33363
G1 X122.794 Y114.872 E43.54512
G1 X122.376 Y115.494 E43.70399
G1 X121.77 Y116.273 E43.91323
G1 X121.262 Y116.841 E44.07478
G1 X120.975 Y117.143 E44.1631
G1 X120.523 Y117.558 E44.29319
G1 X119.955 Y118.036 E44.45057
G1 X119.141 Y118.629 E44.66408
G1 X118.482 Y119.041 E44.82884
G1 X117.63 Y119.497 E45.03371
G1 X116.949 Y119.804 E45.19207
G1 X115.977 Y120.16 E45.41152
G1 X115.219 Y120.377 E45.57867
G1 X114.246 Y120.583 E45.78952
G1 X113.506 Y120.687 E45.94794
G1 X112.519 Y120.757 E46.15771
G1 X111.758 Y120.758 E46.31904
G1 X111.334 Y120.746 E46.40897
G1 X110.735 Y120.687 E46.53657
G1 X109.995 Y120.583 E46.69499
G1 X109.023 Y120.377 E46.90563
G1 X108.268 Y120.161 E47.07212
G1 X107.303 Y119.808 E47.28995
G1 X106.622 Y119.502 E47.44823
G1 X105.764 Y119.044 E47.65442
G1 X105.103 Y118.631 E47.81966
G1 X104.286 Y118.037 E48.0338
G1 X103.717 Y117.558 E48.19148
G1 X103.001 Y116.864 E48.40287
G1 X102.491 Y116.296 E48.56471
G1 X102.342 Y116.125 E48.61279
G1 X101.872 Y115.504 E48.7779
G1 X101.464 Y114.899 E48.9326
G1 X100.969 Y114.042 E49.14241
G1 X100.628 Y113.345 E49.30691
G1 X100.509 Y113.089 E49.36676
G1 X100.237 Y112.377 E49.52834
G1 X100.008 Y111.666 E49.6867
G1 X99.772 Y110.719 E49.89361
G1 X99.64 Y109.973 E50.05421
G1 X99.535 Y108.979 E50.26611
G1 X99.508 Y108.216 E50.42797
G1 X99.504 Y107.946 E50.48522
G1 X99.543 Y107.202 E50.64316
G1 X99.619 Y106.475 E50.79813
G1 X99.79 Y105.499 E51.00819
G1 X99.978 Y104.74 E51.17396
G1 X100.294 Y103.766 E51.39104
G1 X100.587 Y103.045 E51.55604
G1 X101.023 Y102.156 E51.76595
G1 X101.395 Y101.513 E51.92343
G1 X101.953 Y100.687 E52.13476
G1 X102.424 Y100.085 E52.2968
G1 X103.097 Y99.339 E52.5098
G0 F3927.3 X103.465 Y99.721
G1 F1800 X104.026 Y99.181 E52.67488
G1 X104.731 Y98.591 E52.86977
G1 X105.335 Y98.153 E53.02794
G1 X106.127 Y97.66 E53.22572
G1 X106.802 Y97.303 E53.3876
G1 X107.641 Y96.931 E53.58217
G1 X108.372 Y96.666 E53.74701
G1 X109.252 Y96.414 E53.94107
G1 X109.967 Y96.262 E54.09604
G1 X110.331 Y96.195 E54.1745
G1 X110.907 Y96.13 E54.29739
G1 X111.673 Y96.077 E54.46017
G1 X112.599 Y96.078 E54.65648
G1 X113.345 Y96.131 E54.81503
G1 X114.243 Y96.257 E55.00727
G1 X114.992 Y96.415 E55.16955
G1 X115.896 Y96.673 E55.36886
G1 X116.614 Y96.935 E55.53089
G1 X117.448 Y97.307 E55.72449
G1 X118.119 Y97.663 E55.88552
G1 X118.895 Y98.146 E56.0793
G1 X119.501 Y98.584 E56.23781
G1 X120.208 Y99.174 E56.43303
G1 X120.76 Y99.704 E56.59526
G1 X121.387 Y100.397 E56.79339
G1 X121.868 Y101.011 E56.95874
G1 X122.385 Y101.776 E57.15448
G1 X122.757 Y102.418 E57.31179
G1 X123.163 Y103.246 E57.50729
G1 X123.455 Y103.965 E57.67181
G1 X123.608 Y104.381 E57.76578
G1 X123.755 Y104.888 E57.87769
G1 X123.938 Y105.629 E58.0395
G1 X124.095 Y106.528 E58.23297
G1 X124.171 Y107.255 E58.38793
G1 X124.203 Y108.161 E58.58013
G1 X124.178 Y108.923 E58.74176
G1 X124.147 Y109.385 E58.83992
G1 X124.077 Y109.89 E58.948
G1 X123.941 Y110.652 E59.1121
G1 X123.722 Y111.529 E59.30373
G1 X123.497 Y112.224 E59.4586
G1 X123.153 Y113.077 E59.65359
G1 X122.814 Y113.775 E59.8181
G1 X122.354 Y114.576 E60.01392
G1 X121.936 Y115.198 E60.17279
G1 X121.375 Y115.919 E60.36646
G1 X120.867 Y116.487 E60.52801
G1 X120.601 Y116.769 E60.6102
G1 X120.182 Y117.153 E60.73069
G1 X119.614 Y117.631 E60.88807
G1 X118.86 Y118.18 E61.0858
G1 X118.201 Y118.592 E61.25056
G1 X117.412 Y119.014 E61.44025
G1 X116.731 Y119.321 E61.59862
G1 X115.831 Y119.65 E61.80177
G1 X115.073 Y119.867 E61.96892
G1 X114.172 Y120.059 E62.16422
G1 X113.432 Y120.163 E62.32264
G1 X112.519 Y120.227 E62.51667
G1 X111.758 Y120.228 E62.678
G1 X111.364 Y120.217 E62.76156
G1 X110.809 Y120.163 E62.87978
G1 X110.069 Y120.059 E63.0382
G1 X109.169 Y119.867 E63.2333
G1 X108.414 Y119.651 E63.39978
G1 X107.521 Y119.325 E63.60131
G1 X106.84 Y119.019 E63.75959
G1 X106.045 Y118.594 E63.9507
G1 X105.384 Y118.181 E64.11594
G1 X104.627 Y117.631 E64.31431
G1 X104.058 Y117.152 E64.47199
G1 X103.396 Y116.51 E64.66749
G1 X102.886 Y115.942 E64.82932
G1 X102.747 Y115.782 E64.87426
G1 X102.311 Y115.207 E65.02724
G1 X101.903 Y114.602 E65.18194
G1 X101.445 Y113.809 E65.37608
G1 X101.104 Y113.112 E65.54058
G1 X100.993 Y112.874 E65.59625
G1 X100.741 Y112.214 E65.74602
G1 X100.512 Y111.503 E65.90438
G1 X100.294 Y110.626 E66.09596
G1 X100.162 Y109.88 E66.25657
G1 X100.065 Y108.96 E66.45269
G1 X100.038 Y108.197 E66.61455
G1 X100.034 Y107.946 E66.66777
G1 X100.07 Y107.257 E66.81404
G1 X100.146 Y106.53 E66.969
G1 X100.304 Y105.626 E67.16355
G1 X100.492 Y104.867 E67.32932
G1 X100.785 Y103.966 E67.53018
G1 X101.078 Y103.245 E67.69517
G1 X101.482 Y102.421 E67.88973
G1 X101.854 Y101.778 E68.04721
G1 X102.37 Y101.014 E68.24266
G1 X102.841 Y100.412 E68.40471
G1 X103.465 Y99.721 E68.60209
G0 F3927.3 X103.832 Y100.103
G1 F1800 X104.393 Y99.563 E68.76717
G1 X105.042 Y99.02 E68.94656
G1 X105.646 Y98.582 E69.10473
G1 X106.374 Y98.128 E69.28662
G1 X107.049 Y97.771 E69.4485
G1 X107.822 Y97.429 E69.6277
G1 X108.553 Y97.164 E69.79254
G1 X109.363 Y96.932 E69.97117
G1 X110.078 Y96.78 E70.12613
G1 X110.413 Y96.719 E70.19832
G1 X110.943 Y96.659 E70.3114
G1 X111.709 Y96.606 E70.47418
G1 X112.562 Y96.606 E70.65502
G1 X113.308 Y96.659 E70.81357
G1 X114.134 Y96.775 E70.9904
G1 X114.883 Y96.933 E71.15268
G1 X115.714 Y97.171 E71.33594
G1 X116.432 Y97.433 E71.49797
G1 X117.2 Y97.775 E71.6762
G1 X117.871 Y98.131 E71.83723
G1 X118.584 Y98.575 E72.0153
G1 X119.19 Y99.013 E72.17382
G1 X119.841 Y99.556 E72.35353
G1 X120.393 Y100.086 E72.51577
G1 X120.97 Y100.724 E72.69813
G1 X121.451 Y101.338 E72.86349
G1 X121.927 Y102.041 E73.04347
G1 X122.299 Y102.683 E73.20078
G1 X122.672 Y103.446 E73.38083
G1 X122.964 Y104.165 E73.54534
G1 X123.24 Y105.015 E73.73481
G1 X123.423 Y105.756 E73.89662
G1 X123.568 Y106.583 E74.07462
G1 X123.644 Y107.31 E74.22958
G1 X123.674 Y108.144 E74.4065
G1 X123.649 Y108.906 E74.56813
G1 X123.555 Y109.797 E74.75807
G1 X123.419 Y110.559 E74.92217
G1 X123.218 Y111.365 E75.09827
G1 X122.993 Y112.06 E75.25314
G1 X122.677 Y112.846 E75.43274
G1 X122.338 Y113.544 E75.59724
G1 X121.914 Y114.281 E75.7775
G1 X121.496 Y114.903 E75.93637
G1 X120.98 Y115.566 E76.11448
G1 X120.472 Y116.134 E76.27603
G1 X120.226 Y116.394 E76.35191
G1 X119.84 Y116.747 E76.4628
G1 X119.272 Y117.225 E76.62019
G1 X118.579 Y117.73 E76.80197
G1 X117.92 Y118.142 E76.96674
G1 X117.194 Y118.53 E77.14125
G1 X116.513 Y118.837 E77.29961
G1 X115.685 Y119.141 E77.48661
G1 X114.927 Y119.358 E77.65376
G1 X114.098 Y119.534 E77.83342
G1 X113.358 Y119.638 E77.99185
G1 X112.518 Y119.697 E78.17036
G1 X111.757 Y119.698 E78.3317
G1 X111.393 Y119.688 E78.40889
G1 X110.883 Y119.638 E78.51753
G1 X110.143 Y119.534 E78.67595
G1 X109.315 Y119.358 E78.85541
G1 X108.56 Y119.142 E79.02189
G1 X107.738 Y118.842 E79.2074
G1 X107.057 Y118.536 E79.36568
G1 X106.325 Y118.145 E79.54161
G1 X105.664 Y117.732 E79.70685
G1 X104.969 Y117.226 E79.8891
G1 X104.4 Y116.747 E80.04678
G1 X103.79 Y116.156 E80.22684
G1 X103.28 Y115.588 E80.38868
G1 X103.151 Y115.44 E80.4303
G1 X102.751 Y114.911 E80.5709
G1 X102.343 Y114.306 E80.7256
G1 X101.921 Y113.577 E80.90417
G1 X101.58 Y112.88 E81.06867
G1 X101.477 Y112.658 E81.12055
G1 X101.245 Y112.052 E81.25812
G1 X101.016 Y111.341 E81.41648
G1 X100.816 Y110.534 E81.59274
G1 X100.684 Y109.788 E81.75335
G1 X100.595 Y108.942 E81.93369
G1 X100.568 Y108.179 E82.09554
G1 X100.564 Y107.946 E82.14495
G1 X100.597 Y107.312 E82.27954
G1 X100.673 Y106.585 E82.4345
G1 X100.819 Y105.754 E82.61337
G1 X101.007 Y104.995 E82.77914
G1 X101.276 Y104.165 E82.96411
G1 X101.569 Y103.444 E83.1291
G1 X101.94 Y102.687 E83.30783
G1 X102.312 Y102.044 E83.46531
G1 X102.788 Y101.34 E83.64547
G1 X103.259 Y100.738 E83.80752
G1 X103.832 Y100.103 E83.98884
G0 F3927.3 X104.2 Y100.485
G1 F1800 X104.761 Y99.945 E84.15392
G1 X105.353 Y99.449 E84.31765
G1 X105.957 Y99.011 E84.47582
G1 X106.622 Y98.597 E84.64189
G1 X107.297 Y98.24 E84.80377
G1 X108.002 Y97.927 E84.9673
G1 X108.733 Y97.662 E85.13214
G1 X109.473 Y97.451 E85.29528
G1 X110.188 Y97.299 E85.45024
G1 X110.98 Y97.187 E85.61982
G1 X111.746 Y97.134 E85.7826
G1 X112.524 Y97.135 E85.94753
G1 X113.27 Y97.188 E86.10608
G1 X114.025 Y97.294 E86.26771
G1 X114.774 Y97.452 E86.43
G1 X115.533 Y97.669 E86.59735
G1 X116.251 Y97.931 E86.75939
G1 X116.951 Y98.243 E86.92186
G1 X117.622 Y98.599 E87.08289
G1 X118.274 Y99.005 E87.24572
G1 X118.88 Y99.443 E87.40424
G1 X119.474 Y99.939 E87.5683
G1 X120.026 Y100.469 E87.73053
G1 X120.553 Y101.051 E87.89698
