;FLAVOR:UltiGCode
;TIME:1360
;MATERIAL:3018
;MATERIAL2:0
;NOZZLE_DIAMETER:0.6
;MINX:88.322
;MINY:79.329
;MINZ:0.4
;MAXX:134.678
;MAXY:143.677
;MAXZ:3.55
;Generated with Cura_SteamEngine master
M82 ;absolute extrusion mode
G0 F3000 Y50 ;avoid prime blob
G92 E0
G92 E0
G10
;LAYER_COUNT:22
;LAYER:0
M107
G0 F3927.3 X92.339 Y83.488 Z0.4
;TYPE:SKIRT
G11
G1 F1800 X92.805 Y82.985 E0.14537
G1 X93.2 Y82.586 E0.26439
G1 X93.93 Y81.971 E0.46675
G1 X94.497 Y81.547 E0.61685
G1 X95.169 Y81.094 E0.78866
G1 X95.601 Y80.851 E0.89374
G1 X96.091 Y80.594 E1.01104
G1 X96.827 Y80.253 E1.183
G1 X97.218 Y80.106 E1.27156
G1 X97.833 Y79.893 E1.40954
G1 X98.611 Y79.666 E1.58135
G1 X99.078 Y79.569 E1.68247
G1 X99.627 Y79.471 E1.8007
G1 X100.431 Y79.368 E1.97254
G1 X100.873 Y79.345 E2.06637
G1 X101.537 Y79.329 E2.20718
G1 X102.147 Y79.337 E2.33651
G1 X102.854 Y79.402 E2.48703
G1 X103.41 Y79.477 E2.60597
G1 X104.591 Y79.725 E2.8618
G1 X105.166 Y79.891 E2.98868
G1 X105.932 Y80.154 E3.16037
G1 X106.312 Y80.317 E3.24803
G1 X106.833 Y80.556 E3.36955
G1 X107.552 Y80.93 E3.54137
G1 X107.919 Y81.158 E3.63296
G1 X108.441 Y81.501 E3.76538
G1 X109.096 Y81.978 E3.93716
G1 X109.513 Y82.339 E4.05409
G1 X110.015 Y82.804 E4.19915
G1 X110.414 Y83.2 E4.31833
G1 X111.019 Y83.917 E4.51722
G1 X111.441 Y84.479 E4.66621
G1 X111.498 Y84.563 E4.68773
G1 X111.975 Y83.908 E4.85951
G1 X112.339 Y83.488 E4.97734
G1 X112.805 Y82.985 E5.1227
G1 X113.2 Y82.586 E5.24173
G1 X113.93 Y81.971 E5.44409
G1 X114.497 Y81.547 E5.59419
G1 X115.169 Y81.094 E5.766
G1 X115.601 Y80.851 E5.87108
G1 X116.091 Y80.594 E5.98838
G1 X116.827 Y80.253 E6.16034
G1 X117.218 Y80.106 E6.2489
G1 X117.833 Y79.893 E6.38688
G1 X118.611 Y79.666 E6.55869
G1 X119.078 Y79.569 E6.65981
G1 X119.627 Y79.471 E6.77804
G1 X120.431 Y79.368 E6.94988
G1 X120.873 Y79.345 E7.04371
G1 X121.537 Y79.329 E7.18452
G1 X122.147 Y79.337 E7.31385
G1 X122.854 Y79.402 E7.46436
G1 X123.41 Y79.477 E7.5833
G1 X124.591 Y79.725 E7.83914
G1 X125.166 Y79.891 E7.96601
G1 X125.932 Y80.154 E8.13771
G1 X126.312 Y80.317 E8.22537
G1 X126.833 Y80.556 E8.34689
G1 X127.552 Y80.93 E8.51871
G1 X127.919 Y81.158 E8.6103
G1 X128.441 Y81.501 E8.74272
G1 X129.096 Y81.978 E8.9145
G1 X129.513 Y82.339 E9.03143
G1 X130.015 Y82.804 E9.17649
G1 X130.414 Y83.2 E9.29567
G1 X131.019 Y83.917 E9.49456
G1 X131.441 Y84.479 E9.64355
G1 X131.895 Y85.151 E9.81548
G1 X132.151 Y85.603 E9.9256
G1 X132.41 Y86.098 E10.04404
G1 X132.75 Y86.834 E10.21592
G1 X132.894 Y87.218 E10.30286
G1 X133.107 Y87.833 E10.44084
G1 X133.334 Y88.611 E10.61265
G1 X133.428 Y89.06 E10.7099
G1 X133.524 Y89.591 E10.8243
G1 X133.641 Y90.582 E11.03585
G1 X133.68 Y91.488 E11.2281
G1 X133.68 Y104.778 E14.04558
G1 X133.873 Y105.441 E14.19197
G1 X134.035 Y106.075 E14.3307
G1 X134.125 Y106.467 E14.41597
G1 X134.279 Y107.222 E14.57932
G1 X134.344 Y107.578 E14.65604
G1 X134.445 Y108.215 E14.79277
G1 X134.499 Y108.625 E14.88044
G1 X134.582 Y109.399 E15.04547
G1 X134.613 Y109.765 E15.12334
G1 X134.653 Y110.408 E15.25992
G1 X134.668 Y110.812 E15.34563
G1 X134.678 Y111.588 E15.51015
G1 X134.674 Y111.986 E15.59453
G1 X134.651 Y112.632 E15.73157
G1 X134.631 Y112.982 E15.80589
G1 X134.58 Y113.633 E15.94433
G1 X134.547 Y113.967 E16.01548
G1 X134.471 Y114.602 E16.15106
G1 X134.411 Y115.014 E16.23933
G1 X134.28 Y115.778 E16.40366
G1 X134.211 Y116.134 E16.48054
G1 X134.075 Y116.76 E16.61634
G1 X133.989 Y117.116 E16.69399
G1 X133.824 Y117.74 E16.83082
G1 X133.68 Y118.227 E16.93848
G1 X133.678 Y131.661 E19.78649
G1 X133.623 Y132.606 E19.98717
G1 X133.556 Y133.184 E20.11053
G1 X133.486 Y133.669 E20.21441
G1 X133.293 Y134.51 E20.39734
G1 X133.11 Y135.153 E20.53907
G1 X132.85 Y135.92 E20.71076
G1 X132.675 Y136.331 E20.80546
G1 X132.445 Y136.832 E20.92233
G1 X132.071 Y137.551 E21.09415
G1 X131.846 Y137.913 E21.18451
G1 X131.502 Y138.437 E21.3174
G1 X131.025 Y139.092 E21.48917
G1 X130.661 Y139.512 E21.607
G1 X130.195 Y140.015 E21.75237
G1 X129.8 Y140.414 E21.87139
G1 X129.077 Y141.023 E22.0718
G1 X128.514 Y141.445 E22.22096
G1 X127.842 Y141.899 E22.39289
G1 X127.403 Y142.147 E22.49978
G1 X126.913 Y142.404 E22.61709
G1 X126.23 Y142.723 E22.7769
G1 X126.07 Y142.789 E22.81359
G1 X125.261 Y143.074 E22.99543
G1 X124.61 Y143.266 E23.13932
G1 X123.822 Y143.457 E23.31121
G1 X123.247 Y143.546 E23.43456
G1 X122.602 Y143.622 E23.57225
G1 X121.794 Y143.677 E23.74394
G1 X121.151 Y143.663 E23.88029
G1 X120.398 Y143.618 E24.04021
G1 X119.845 Y143.567 E24.15794
G1 X118.969 Y143.408 E24.34669
G1 X118.425 Y143.279 E24.46522
G1 X117.646 Y143.054 E24.63711
G1 X117.249 Y142.905 E24.72701
G1 X116.661 Y142.668 E24.86141
G1 X115.925 Y142.329 E25.0332
G1 X115.513 Y142.098 E25.13334
G1 X114.985 Y141.782 E25.26379
G1 X114.312 Y141.333 E25.4353
G1 X113.825 Y140.945 E25.56731
G1 X113.3 Y140.493 E25.71417
G1 X112.713 Y139.934 E25.88602
G1 X112.402 Y139.589 E25.98449
G1 X112.055 Y139.181 E26.09804
G1 X111.561 Y138.539 E26.26977
G1 X111.498 Y138.442 E26.29429
G1 X111.025 Y139.092 E26.46471
G1 X110.661 Y139.512 E26.58254
G1 X110.195 Y140.015 E26.72791
G1 X109.8 Y140.414 E26.84693
G1 X109.077 Y141.023 E27.04734
G1 X108.514 Y141.445 E27.1965
G1 X107.842 Y141.899 E27.36843
G1 X107.402 Y142.148 E27.47561
G1 X106.908 Y142.407 E27.59386
G1 X106.172 Y142.747 E27.76574
G1 X105.782 Y142.894 E27.8541
G1 X105.167 Y143.107 E27.99207
G1 X104.389 Y143.334 E28.16389
G1 X103.922 Y143.431 E28.265
G1 X103.373 Y143.529 E28.38323
G1 X102.569 Y143.632 E28.55507
G1 X102.127 Y143.655 E28.6489
G1 X101.463 Y143.671 E28.78971
G1 X100.853 Y143.663 E28.91904
G1 X100.146 Y143.598 E29.06956
G1 X99.59 Y143.523 E29.1885
G1 X98.409 Y143.275 E29.44433
G1 X97.834 Y143.109 E29.57121
G1 X97.068 Y142.846 E29.74291
G1 X96.674 Y142.677 E29.83379
G1 X96.149 Y142.435 E29.95635
G1 X95.431 Y142.059 E30.12817
G1 X95.08 Y141.842 E30.21566
G1 X94.562 Y141.502 E30.34702
G1 X93.907 Y141.024 E30.51892
G1 X93.489 Y140.662 E30.63615
G1 X92.976 Y140.187 E30.78437
G1 X92.409 Y139.608 E30.95617
G1 X91.98 Y139.081 E31.10023
G1 X91.549 Y138.505 E31.25274
G1 X91.096 Y137.833 E31.42456
G1 X90.851 Y137.398 E31.5304
G1 X90.593 Y136.906 E31.64817
G1 X90.252 Y136.171 E31.81994
G1 X90.104 Y135.776 E31.90937
G1 X89.892 Y135.163 E32.04688
G1 X89.665 Y134.385 E32.21869
G1 X89.569 Y133.925 E32.31831
G1 X89.472 Y133.383 E32.43504
G1 X89.357 Y132.4 E32.64486
G1 X89.32 Y131.512 E32.83328
G1 X89.32 Y118.22 E35.65118
G1 X89.123 Y117.546 E35.80005
G1 X88.963 Y116.918 E35.93744
G1 X88.875 Y116.534 E36.02096
G1 X88.72 Y115.775 E36.18519
G1 X88.654 Y115.41 E36.26382
G1 X88.553 Y114.769 E36.40139
G1 X88.499 Y114.36 E36.48885
G1 X88.417 Y113.59 E36.65301
G1 X88.387 Y113.228 E36.73002
G1 X88.347 Y112.583 E36.86702
G1 X88.332 Y112.182 E36.95209
G1 X88.322 Y111.413 E37.11513
G1 X88.326 Y111.014 E37.19973
G1 X88.349 Y110.368 E37.33677
G1 X88.369 Y110.018 E37.41109
G1 X88.42 Y109.367 E37.54952
G1 X88.453 Y109.033 E37.62067
G1 X88.529 Y108.398 E37.75626
G1 X88.589 Y107.986 E37.84452
G1 X88.72 Y107.222 E38.00885
G1 X88.789 Y106.866 E38.08573
G1 X88.925 Y106.24 E38.22154
G1 X89.012 Y105.878 E38.30047
G1 X89.178 Y105.252 E38.43776
G1 X89.32 Y104.774 E38.54348
G1 X89.322 Y91.339 E41.3917
G1 X89.377 Y90.394 E41.59238
G1 X89.444 Y89.816 E41.71573
G1 X89.514 Y89.331 E41.81962
G1 X89.707 Y88.49 E42.00255
G1 X89.89 Y87.847 E42.14427
G1 X90.15 Y87.08 E42.31597
G1 X90.325 Y86.669 E42.41067
G1 X90.555 Y86.168 E42.52754
G1 X90.929 Y85.449 E42.69935
G1 X91.154 Y85.087 E42.78971
G1 X91.498 Y84.563 E42.9226
G1 X91.975 Y83.908 E43.09438
G1 X92.339 Y83.488 E43.21221
G0 F3927.3 X92.727 Y83.848
G1 F1800 X93.193 Y83.345 E43.35757
G1 X93.565 Y82.971 E43.4694
G1 X94.248 Y82.395 E43.65882
G1 X94.815 Y81.971 E43.80891
G1 X95.466 Y81.535 E43.97502
G1 X95.847 Y81.32 E44.06776
G1 X96.337 Y81.063 E44.18506
G1 X97.392 Y80.607 E44.42872
G1 X98.007 Y80.394 E44.5667
G1 X98.76 Y80.176 E44.73289
G1 X99.172 Y80.091 E44.82208
G1 X99.721 Y79.993 E44.9403
G1 X100.886 Y79.875 E45.18855
G1 X101.55 Y79.859 E45.32936
G1 X102.122 Y79.867 E45.45063
G1 X102.783 Y79.927 E45.59134
G1 X103.339 Y80.002 E45.71028
G1 X104.444 Y80.235 E45.94969
G1 X105.019 Y80.401 E46.07657
G1 X106.091 Y80.799 E46.31899
G1 X106.612 Y81.038 E46.44051
G1 X107.628 Y81.6 E46.68666
G1 X108.15 Y81.943 E46.81907
G1 X108.782 Y82.407 E46.98529
G1 X109.152 Y82.728 E47.08914
G1 X109.654 Y83.193 E47.2342
G1 X110.029 Y83.565 E47.34618
G1 X110.595 Y84.236 E47.53229
G1 X111.017 Y84.798 E47.68128
G1 X111.455 Y85.447 E47.84727
G1 X111.507 Y85.54 E47.86986
G1 X111.597 Y85.378 E47.90915
G1 X111.941 Y84.854 E48.04203
G1 X112.404 Y84.221 E48.2083
G1 X112.727 Y83.848 E48.3129
G1 X113.193 Y83.345 E48.45826
G1 X113.565 Y82.971 E48.5701
G1 X114.248 Y82.395 E48.75951
G1 X114.815 Y81.971 E48.9096
G1 X115.466 Y81.535 E49.07571
G1 X115.847 Y81.32 E49.16845
G1 X116.337 Y81.063 E49.28576
G1 X117.392 Y80.607 E49.52941
G1 X118.007 Y80.394 E49.66739
G1 X118.76 Y80.176 E49.83358
G1 X119.172 Y80.091 E49.92277
G1 X119.721 Y79.993 E50.04099
G1 X120.886 Y79.875 E50.28924
G1 X121.55 Y79.859 E50.43005
G1 X122.122 Y79.867 E50.55132
G1 X122.783 Y79.927 E50.69203
G1 X123.339 Y80.002 E50.81097
G1 X124.444 Y80.235 E51.05038
G1 X125.019 Y80.401 E51.17726
G1 X126.091 Y80.799 E51.41968
G1 X126.612 Y81.038 E51.5412
G1 X127.628 Y81.6 E51.78735
G1 X128.15 Y81.943 E51.91977
G1 X128.782 Y82.407 E52.08598
G1 X129.152 Y82.728 E52.18983
G1 X129.654 Y83.193 E52.33489
G1 X130.029 Y83.565 E52.44688
G1 X130.595 Y84.236 E52.63298
G1 X131.017 Y84.798 E52.78197
G1 X131.455 Y85.447 E52.94796
G1 X131.681 Y85.849 E53.04573
G1 X131.94 Y86.344 E53.16417
G1 X132.393 Y87.392 E53.40621
G1 X132.606 Y88.007 E53.54419
G1 X132.824 Y88.76 E53.71038
G1 X132.906 Y89.155 E53.7959
G1 X133.002 Y89.686 E53.9103
G1 X133.112 Y90.612 E54.10799
G1 X133.15 Y91.488 E54.29388
G1 X133.15 Y104.858 E57.12832
G1 X133.36 Y105.572 E57.2861
G1 X133.522 Y106.206 E57.42483
G1 X133.606 Y106.573 E57.50464
G1 X133.76 Y107.328 E57.668
G1 X133.82 Y107.661 E57.73973
G1 X133.921 Y108.298 E57.87646
G1 X133.972 Y108.682 E57.95858
G1 X134.055 Y109.456 E58.12361
G1 X134.084 Y109.798 E58.19638
G1 X134.124 Y110.441 E58.33296
G1 X134.138 Y110.819 E58.41315
G1 X134.148 Y111.595 E58.57767
G1 X134.144 Y111.967 E58.65654
G1 X134.121 Y112.613 E58.79358
G1 X134.103 Y112.94 E58.86301
G1 X134.052 Y113.591 E59.00144
G1 X134.021 Y113.904 E59.06812
G1 X133.945 Y114.539 E59.20371
G1 X133.888 Y114.925 E59.28643
G1 X133.757 Y115.689 E59.45076
G1 X133.693 Y116.022 E59.52264
G1 X133.557 Y116.648 E59.65845
G1 X133.477 Y116.981 E59.73106
G1 X133.312 Y117.605 E59.86789
G1 X133.15 Y118.146 E59.98762
G1 X133.148 Y131.661 E62.8528
G1 X133.097 Y132.545 E63.04052
G1 X133.03 Y133.123 E63.16387
G1 X132.963 Y133.578 E63.26137
G1 X132.783 Y134.365 E63.43252
G1 X132.6 Y135.008 E63.57425
G1 X132.348 Y135.75 E63.74038
G1 X132.193 Y136.11 E63.82348
G1 X131.963 Y136.611 E63.94035
G1 X131.403 Y137.622 E64.18536
G1 X131.059 Y138.146 E64.31825
G1 X130.596 Y138.779 E64.48451
G1 X130.273 Y139.152 E64.58911
G1 X129.807 Y139.655 E64.73448
G1 X129.435 Y140.029 E64.84631
G1 X128.759 Y140.599 E65.03377
G1 X128.196 Y141.021 E65.18293
G1 X127.546 Y141.459 E65.3491
G1 X127.157 Y141.678 E65.44374
G1 X126.667 Y141.935 E65.56104
G1 X126.028 Y142.233 E65.71051
G1 X125.868 Y142.299 E65.74721
G1 X125.111 Y142.566 E65.91738
G1 X124.46 Y142.758 E66.06127
G1 X123.698 Y142.941 E66.22741
G1 X123.185 Y143.019 E66.33741
G1 X122.54 Y143.095 E66.4751
G1 X121.758 Y143.147 E66.64125
G1 X121.183 Y143.134 E66.76318
G1 X120.43 Y143.089 E66.9231
G1 X119.911 Y143.041 E67.0336
G1 X119.091 Y142.893 E67.21025
G1 X118.547 Y142.764 E67.32877
G1 X117.447 Y142.414 E67.57349
G1 X116.859 Y142.177 E67.70789
G1 X116.148 Y141.847 E67.87407
G1 X115.785 Y141.643 E67.96235
G1 X115.257 Y141.327 E68.0928
G1 X114.626 Y140.906 E68.25361
G1 X114.171 Y140.543 E68.37701
G1 X113.646 Y140.091 E68.52387
G1 X113.079 Y139.55 E68.69002
G1 X112.806 Y139.246 E68.77664
G1 X112.459 Y138.838 E68.89019
G1 X111.982 Y138.216 E69.05636
G1 X111.762 Y137.877 E69.14204
G1 X111.499 Y137.448 E69.24871
G1 X111.403 Y137.622 E69.29084
G1 X111.059 Y138.146 E69.42373
G1 X110.596 Y138.779 E69.58999
G1 X110.273 Y139.152 E69.6946
G1 X109.807 Y139.655 E69.83996
G1 X109.435 Y140.029 E69.95179
G1 X108.759 Y140.599 E70.13925
G1 X108.196 Y141.021 E70.28842
G1 X107.546 Y141.459 E70.45458
G1 X107.155 Y141.678 E70.54959
G1 X106.661 Y141.937 E70.66784
G1 X105.608 Y142.393 E70.91111
G1 X104.993 Y142.606 E71.04909
G1 X104.24 Y142.824 E71.21528
G1 X103.828 Y142.909 E71.30446
G1 X103.279 Y143.007 E71.42269
G1 X102.114 Y143.125 E71.67093
G1 X101.45 Y143.141 E71.81174
G1 X100.878 Y143.133 E71.93302
G1 X100.217 Y143.073 E72.07373
G1 X99.661 Y142.998 E72.19266
G1 X98.556 Y142.765 E72.43208
G1 X97.981 Y142.599 E72.55895
G1 X96.896 Y142.195 E72.8044
G1 X96.371 Y141.953 E72.92696
G1 X95.371 Y141.399 E73.16932
G1 X94.853 Y141.059 E73.30068
G1 X94.221 Y140.596 E73.46677
G1 X93.849 Y140.273 E73.57121
G1 X93.336 Y139.798 E73.71943
G1 X92.789 Y139.237 E73.88554
G1 X92.404 Y138.763 E74.015
G1 X91.973 Y138.187 E74.16751
G1 X91.536 Y137.536 E74.33373
G1 X91.32 Y137.152 E74.42714
G1 X91.062 Y136.66 E74.54491
G1 X90.605 Y135.603 E74.78904
G1 X90.393 Y134.99 E74.92655
G1 X90.175 Y134.237 E75.09274
G1 X90.091 Y133.832 E75.18043
G1 X89.994 Y133.29 E75.29716
G1 X89.886 Y132.37 E75.49354
G1 X89.85 Y131.512 E75.67559
G1 X89.85 Y118.14 E78.51046
G1 X89.637 Y117.415 E78.67065
G1 X89.477 Y116.787 E78.80804
G1 X89.394 Y116.428 E78.88616
G1 X89.239 Y115.669 E79.05039
G1 X89.178 Y115.327 E79.12404
G1 X89.077 Y114.686 E79.26161
G1 X89.026 Y114.304 E79.34331
G1 X88.944 Y113.534 E79.50747
G1 X88.916 Y113.196 E79.57937
G1 X88.876 Y112.551 E79.71637
G1 X88.862 Y112.175 E79.79614
G1 X88.852 Y111.406 E79.95918
G1 X88.856 Y111.033 E80.03826
G1 X88.879 Y110.387 E80.1753
G1 X88.897 Y110.06 E80.24473
G1 X88.948 Y109.409 E80.38317
G1 X88.979 Y109.096 E80.44985
G1 X89.055 Y108.461 E80.58543
G1 X89.112 Y108.075 E80.66815
G1 X89.243 Y107.311 E80.83248
G1 X89.307 Y106.978 E80.90437
G1 X89.443 Y106.352 E81.04018
G1 X89.525 Y106.014 E81.11391
G1 X89.691 Y105.388 E81.25121
G1 X89.85 Y104.855 E81.36913
G1 X89.852 Y91.339 E84.23452
G1 X89.903 Y90.455 E84.42224
G1 X89.97 Y89.877 E84.54559
G1 X90.037 Y89.422 E84.64309
G1 X90.217 Y88.635 E84.81425
G1 X90.4 Y87.992 E84.95598
G1 X90.652 Y87.25 E85.1221
G1 X90.807 Y86.89 E85.2052
G1 X91.037 Y86.389 E85.32207
G1 X91.597 Y85.378 E85.56708
G1 X91.941 Y84.854 E85.69997
G1 X92.404 Y84.221 E85.86623
G1 X92.727 Y83.848 E85.97084
G0 F3927.3 X93.116 Y84.208
G1 F1800 X93.582 Y83.705 E86.1162
G1 X93.929 Y83.356 E86.22054
G1 X94.565 Y82.82 E86.39687
G1 X95.132 Y82.396 E86.54696
G1 X95.761 Y81.976 E86.7073
G1 X96.094 Y81.79 E86.78817
G1 X96.584 Y81.533 E86.90547
G1 X97.565 Y81.108 E87.13212
G1 X98.18 Y80.895 E87.2701
G1 X99.265 Y80.612 E87.50781
G1 X99.814 Y80.514 E87.62604
G1 X100.899 Y80.405 E87.85722
G1 X101.563 Y80.389 E87.99803
G1 X102.096 Y80.396 E88.11103
G1 X102.712 Y80.452 E88.24216
G1 X103.268 Y80.527 E88.3611
G1 X104.297 Y80.744 E88.58405
G1 X104.872 Y80.91 E88.71093
G1 X105.87 Y81.281 E88.93665
G1 X106.391 Y81.52 E89.05817
G1 X107.337 Y82.043 E89.28733
G1 X107.859 Y82.386 E89.41975
G1 X108.468 Y82.835 E89.58015
G1 X108.792 Y83.117 E89.67121
G1 X109.294 Y83.582 E89.81628
G1 X109.644 Y83.929 E89.92076
G1 X110.172 Y84.554 E90.09422
G1 X110.594 Y85.116 E90.24321
G1 X111.015 Y85.744 E90.40349
G1 X111.212 Y86.095 E90.48882
G1 X111.471 Y86.59 E90.60726
G1 X111.498 Y86.653 E90.62179
G1 X111.518 Y86.61 E90.63185
G1 X112.04 Y85.668 E90.86016
G1 X112.384 Y85.144 E90.99305
G1 X112.832 Y84.535 E91.15333
G1 X113.116 Y84.208 E91.24515
G1 X113.582 Y83.705 E91.39051
G1 X113.929 Y83.356 E91.49485
G1 X114.565 Y82.82 E91.67118
G1 X115.132 Y82.396 E91.82127
G1 X115.761 Y81.976 E91.98162
G1 X116.094 Y81.79 E92.06248
G1 X116.584 Y81.533 E92.17978
G1 X117.565 Y81.108 E92.40643
G1 X118.18 Y80.895 E92.54441
G1 X119.265 Y80.612 E92.78212
G1 X119.814 Y80.514 E92.90035
G1 X120.899 Y80.405 E93.13153
G1 X121.563 Y80.389 E93.27234
G1 X122.096 Y80.396 E93.38534
G1 X122.712 Y80.452 E93.51648
G1 X123.268 Y80.527 E93.63541
G1 X124.297 Y80.744 E93.85836
