;FLAVOR:UltiGCode
;TIME:10195
;MATERIAL:23703
;MATERIAL2:0
;NOZZLE_DIAMETER:0.6
;MINX:64.32
;MINY:61.5
;MINZ:0.4
;MAXX:158.678
;MAXY:147.857
;MAXZ:14.95
;Generated with Cura_SteamEngine master
M82 ;absolute extrusion mode
G0 F3000 Y50 ;avoid prime blob
G92 E0
G92 E0
G10
;LAYER_COUNT:98
;LAYER:0
M107
G0 F3927.3 X67.482 Y78.36 Z0.4
;TYPE:SKIRT
G11
G1 F1800 X68.133 Y77.878 E0.17172
G1 X68.829 Y77.462 E0.34362
G1 X69.562 Y77.117 E0.51537
G1 X70.326 Y76.846 E0.68723
G1 X71.112 Y76.651 E0.85891
G1 X71.914 Y76.535 E1.0307
G1 X72.69 Y76.498 E1.1954
G1 X82.792 Y76.498 E3.33703
G1 X83.251 Y75.967 E3.48583
G1 X84.373 Y74.755 E3.83597
G1 X84.642 Y74.478 E3.91783
G1 X85.82 Y73.32 E4.26802
G1 X86.101 Y73.056 E4.34976
G1 X87.346 Y71.942 E4.70393
G1 X87.64 Y71.691 E4.78589
G1 X88.916 Y70.653 E5.1346
G1 X89.233 Y70.408 E5.21954
G1 X90.582 Y69.416 E5.57453
G1 X90.898 Y69.195 E5.65628
G1 X92.276 Y68.278 E6.00718
G1 X92.596 Y68.075 E6.08752
G1 X93.999 Y67.232 E6.43452
G1 X94.351 Y67.033 E6.52024
G1 X95.82 Y66.246 E6.87355
G1 X96.162 Y66.072 E6.9549
G1 X97.659 Y65.358 E7.30651
G1 X98.017 Y65.198 E7.38964
G1 X99.554 Y64.553 E7.74301
G1 X99.916 Y64.411 E7.82545
G1 X101.48 Y63.84 E8.17843
G1 X101.845 Y63.716 E8.26015
G1 X103.415 Y63.225 E8.60889
G1 X103.794 Y63.117 E8.69243
G1 X105.397 Y62.699 E9.04363
G1 X105.774 Y62.61 E9.12575
G1 X107.409 Y62.265 E9.48001
G1 X107.792 Y62.194 E9.56259
G1 X109.422 Y61.93 E9.91265
G1 X109.813 Y61.876 E9.99633
G1 X111.468 Y61.689 E10.34942
G1 X111.851 Y61.655 E10.43094
G1 X113.492 Y61.547 E10.77958
G1 X113.883 Y61.53 E10.86255
G1 X115.547 Y61.5 E11.21538
G1 X115.937 Y61.503 E11.29806
G1 X117.602 Y61.552 E11.65119
G1 X117.994 Y61.572 E11.7344
G1 X119.635 Y61.699 E12.08334
G1 X120.013 Y61.738 E12.1639
G1 X121.664 Y61.943 E12.5166
G1 X122.053 Y62 E12.59995
G1 X123.688 Y62.283 E12.95172
G1 X124.076 Y62.36 E13.03558
G1 X125.703 Y62.723 E13.38898
G1 X126.074 Y62.815 E13.47002
G1 X127.663 Y63.248 E13.81917
G1 X128.046 Y63.362 E13.90389
G1 X129.619 Y63.874 E14.25458
G1 X129.981 Y64.002 E14.33598
G1 X131.544 Y64.593 E14.69024
G1 X131.898 Y64.736 E14.77118
G1 X133.416 Y65.392 E15.12176
G1 X133.771 Y65.555 E15.20457
G1 X135.245 Y66.277 E15.55253
G1 X135.606 Y66.467 E15.63902
G1 X137.065 Y67.272 E15.99228
G1 X137.391 Y67.462 E16.07227
G1 X138.811 Y68.333 E16.42543
G1 X139.147 Y68.551 E16.51035
G1 X140.517 Y69.486 E16.86198
G1 X140.834 Y69.713 E16.94464
G1 X142.146 Y70.703 E17.29308
G1 X142.446 Y70.941 E17.37427
G1 X143.732 Y72.009 E17.72866
G1 X144.033 Y72.271 E17.81326
G1 X145.246 Y73.382 E18.16197
G1 X145.521 Y73.646 E18.24279
G1 X146.701 Y74.832 E18.59747
G1 X146.968 Y75.114 E18.6798
G1 X148.071 Y76.333 E19.02832
G1 X148.326 Y76.629 E19.11114
G1 X149.388 Y77.921 E19.4657
G1 X149.634 Y78.235 E19.55027
G1 X150.614 Y79.553 E19.89846
G1 X150.833 Y79.862 E19.97875
G1 X151.769 Y81.25 E20.33366
G1 X151.982 Y81.582 E20.41729
G1 X152.835 Y82.988 E20.76593
G1 X153.03 Y83.328 E20.84902
G1 X153.828 Y84.797 E21.20343
G1 X154.002 Y85.136 E21.28421
G1 X154.719 Y86.616 E21.63285
G1 X154.885 Y86.981 E21.71786
G1 X155.54 Y88.52 E22.07245
G1 X155.684 Y88.882 E22.15504
G1 X156.254 Y90.42 E22.50277
G1 X156.381 Y90.784 E22.5845
G1 X156.884 Y92.362 E22.93562
G1 X156.993 Y92.736 E23.01821
G1 X157.422 Y94.341 E23.37041
G1 X157.514 Y94.721 E23.4533
G1 X157.865 Y96.34 E23.8045
G1 X157.939 Y96.723 E23.8872
G1 X158.213 Y98.358 E24.23865
G1 X158.268 Y98.744 E24.32131
G1 X158.466 Y100.406 E24.67615
G1 X158.503 Y100.793 E24.75857
G1 X158.62 Y102.432 E25.10692
G1 X158.639 Y102.824 E25.19012
G1 X158.678 Y104.481 E25.5415
G1 X158.678 Y104.865 E25.62291
G1 X158.639 Y106.538 E25.97768
G1 X158.62 Y106.932 E26.06131
G1 X158.503 Y108.57 E26.40945
G1 X158.466 Y108.96 E26.4925
G1 X158.269 Y110.608 E26.84436
G1 X158.214 Y110.991 E26.92639
G1 X157.938 Y112.638 E27.28042
G1 X157.864 Y113.021 E27.36312
G1 X157.515 Y114.63 E27.71216
G1 X157.424 Y115.008 E27.79459
G1 X156.996 Y116.611 E28.14633
G1 X156.887 Y116.985 E28.22891
G1 X156.38 Y118.577 E28.58312
G1 X156.254 Y118.943 E28.66518
G1 X155.682 Y120.484 E29.01365
G1 X155.538 Y120.845 E29.09605
G1 X154.887 Y122.373 E29.44816
G1 X154.722 Y122.735 E29.5325
G1 X153.999 Y124.227 E29.88398
G1 X153.825 Y124.566 E29.96477
G1 X153.027 Y126.035 E30.31918
G1 X152.829 Y126.379 E30.40332
G1 X151.976 Y127.783 E30.7516
G1 X151.766 Y128.111 E30.83417
G1 X150.832 Y129.496 E31.18831
G1 X150.611 Y129.807 E31.2692
G1 X149.619 Y131.14 E31.62146
G1 X149.375 Y131.453 E31.70559
G1 X148.331 Y132.723 E32.05413
G1 X148.079 Y133.015 E32.1359
G1 X146.968 Y134.244 E32.48713
G1 X146.702 Y134.524 E32.569
G1 X145.522 Y135.712 E32.92398
G1 X145.234 Y135.988 E33.00855
G1 X144.021 Y137.096 E33.35684
G1 X143.728 Y137.352 E33.43932
G1 X142.451 Y138.412 E33.79116
G1 X142.147 Y138.652 E33.87327
G1 X140.813 Y139.657 E34.22736
G1 X140.498 Y139.883 E34.30955
G1 X139.137 Y140.811 E34.65877
G1 X138.809 Y141.023 E34.74156
G1 X137.393 Y141.893 E35.09389
G1 X137.057 Y142.089 E35.17636
G1 X135.596 Y142.894 E35.52999
G1 X135.254 Y143.072 E35.61173
G1 X133.772 Y143.8 E35.96177
G1 X133.409 Y143.968 E36.04657
G1 X131.896 Y144.622 E36.39601
G1 X131.542 Y144.765 E36.47695
G1 X129.976 Y145.357 E36.83187
G1 X129.609 Y145.486 E36.91434
G1 X128.036 Y145.997 E37.26497
G1 X127.652 Y146.112 E37.34995
G1 X126.062 Y146.544 E37.69925
G1 X125.697 Y146.634 E37.77895
G1 X124.106 Y146.988 E38.12449
G1 X123.688 Y147.073 E38.21492
G1 X122.047 Y147.357 E38.56799
G1 X121.662 Y147.414 E38.6505
G1 X120.009 Y147.62 E39.00364
G1 X119.622 Y147.659 E39.0861
G1 X117.981 Y147.785 E39.43502
G1 X117.594 Y147.805 E39.51717
G1 X115.93 Y147.854 E39.87009
G1 X115.54 Y147.857 E39.95277
G1 X113.878 Y147.827 E40.30518
G1 X113.487 Y147.81 E40.38815
G1 X111.845 Y147.702 E40.737
G1 X111.451 Y147.667 E40.82086
G1 X109.797 Y147.478 E41.17379
G1 X109.417 Y147.425 E41.25513
G1 X107.787 Y147.161 E41.60519
G1 X107.406 Y147.09 E41.68735
G1 X105.769 Y146.745 E42.04202
G1 X105.387 Y146.655 E42.12522
G1 X103.783 Y146.236 E42.47668
G1 X103.404 Y146.128 E42.56023
G1 X101.836 Y145.637 E42.90856
G1 X101.478 Y145.515 E42.98874
G1 X99.914 Y144.945 E43.34164
G1 X99.544 Y144.8 E43.42589
G1 X98.007 Y144.154 E43.77935
G1 X97.648 Y143.993 E43.86276
G1 X96.152 Y143.278 E44.21427
G1 X95.82 Y143.11 E44.29315
G1 X94.356 Y142.327 E44.64512
G1 X93.995 Y142.122 E44.73314
G1 X92.587 Y141.275 E45.08148
G1 X92.27 Y141.074 E45.16105
G1 X90.891 Y140.156 E45.51226
G1 X90.574 Y139.934 E45.5943
G1 X89.226 Y138.942 E45.94912
G1 X88.908 Y138.696 E46.03435
G1 X87.632 Y137.657 E46.3832
G1 X87.346 Y137.413 E46.4629
G1 X86.099 Y136.299 E46.81739
G1 X85.813 Y136.032 E46.90034
G1 X84.639 Y134.878 E47.24933
G1 X84.366 Y134.596 E47.33254
G1 X83.24 Y133.378 E47.68419
G1 X82.791 Y132.858 E47.82984
G1 X72.69 Y132.858 E49.97125
G1 X71.881 Y132.818 E50.14297
G1 X71.079 Y132.698 E50.31489
G1 X70.293 Y132.501 E50.48667
G1 X69.531 Y132.226 E50.65842
G1 X68.799 Y131.878 E50.83025
G1 X68.105 Y131.459 E51.00211
G1 X67.455 Y130.974 E51.17404
G1 X66.881 Y130.452 E51.33852
G1 X66.726 Y130.297 E51.38499
G1 X66.182 Y129.696 E51.55685
G1 X65.7 Y129.045 E51.72857
G1 X65.284 Y128.349 E51.90047
G1 X64.939 Y127.616 E52.07222
G1 X64.668 Y126.852 E52.24408
G1 X64.473 Y126.066 E52.41576
G1 X64.357 Y125.264 E52.58755
G1 X64.32 Y124.488 E52.75225
G1 X64.32 Y84.868 E61.15169
G1 X64.36 Y84.059 E61.32341
G1 X64.48 Y83.257 E61.49533
G1 X64.677 Y82.471 E61.66711
G1 X64.952 Y81.709 E61.83886
G1 X65.3 Y80.977 E62.01068
G1 X65.719 Y80.283 E62.18255
G1 X66.204 Y79.633 E62.35448
G1 X66.726 Y79.059 E62.51896
G1 X66.881 Y78.904 E62.56543
G1 X67.482 Y78.36 E62.73729
G0 F3927.3 X67.838 Y78.754
G1 F1800 X68.47 Y78.29 E62.90351
G1 X69.146 Y77.894 E63.0696
G1 X69.859 Y77.568 E63.2358
G1 X70.602 Y77.317 E63.40206
G1 X71.366 Y77.143 E63.56818
G1 X72.144 Y77.047 E63.73437
G1 X72.69 Y77.028 E63.85019
G1 X83.039 Y77.028 E66.04418
G1 X83.399 Y76.6 E66.16274
G1 X83.64 Y76.327 E66.23994
G1 X84.762 Y75.115 E66.59009
G1 X85.014 Y74.856 E66.66669
G1 X86.192 Y73.698 E67.01689
G1 X86.455 Y73.451 E67.09338
G1 X87.7 Y72.337 E67.44755
G1 X87.974 Y72.102 E67.52408
G1 X89.25 Y71.064 E67.87279
G1 X89.547 Y70.835 E67.9523
G1 X90.896 Y69.843 E68.30729
G1 X91.191 Y69.636 E68.38369
G1 X92.569 Y68.719 E68.7346
G1 X92.869 Y68.53 E68.80977
G1 X94.272 Y67.687 E69.15677
G1 X94.601 Y67.5 E69.23699
G1 X96.07 Y66.713 E69.5903
G1 X96.391 Y66.551 E69.66652
G1 X97.888 Y65.837 E70.01814
G1 X98.222 Y65.687 E70.09576
G1 X99.759 Y65.042 E70.44913
G1 X100.097 Y64.909 E70.52614
G1 X101.661 Y64.338 E70.87911
G1 X102.003 Y64.222 E70.95567
G1 X103.573 Y63.731 E71.30441
G1 X103.928 Y63.63 E71.38266
G1 X105.531 Y63.212 E71.73386
G1 X105.883 Y63.129 E71.81053
G1 X107.518 Y62.784 E72.16478
G1 X107.876 Y62.717 E72.24199
G1 X109.506 Y62.453 E72.59205
G1 X109.872 Y62.403 E72.67037
G1 X111.527 Y62.216 E73.02346
G1 X111.885 Y62.184 E73.09966
G1 X113.526 Y62.076 E73.4483
G1 X113.892 Y62.06 E73.52597
G1 X115.556 Y62.03 E73.87879
G1 X115.921 Y62.032 E73.95618
G1 X117.586 Y62.081 E74.30931
G1 X117.953 Y62.101 E74.38723
G1 X119.594 Y62.228 E74.73616
G1 X119.948 Y62.264 E74.8116
G1 X121.599 Y62.469 E75.1643
G1 X121.963 Y62.523 E75.24231
G1 X123.598 Y62.806 E75.59408
G1 X123.96 Y62.877 E75.67229
G1 X125.587 Y63.24 E76.02569
G1 X125.934 Y63.326 E76.10148
G1 X127.523 Y63.759 E76.45063
G1 X127.882 Y63.866 E76.53005
G1 X129.455 Y64.378 E76.88075
G1 X129.794 Y64.498 E76.95698
G1 X131.357 Y65.089 E77.31124
G1 X131.688 Y65.223 E77.38694
G1 X133.206 Y65.879 E77.73752
G1 X133.538 Y66.031 E77.81493
G1 X135.012 Y66.753 E78.16289
G1 X135.35 Y66.931 E78.24388
G1 X136.809 Y67.736 E78.59714
G1 X137.114 Y67.914 E78.67201
G1 X138.534 Y68.785 E79.02517
G1 X138.848 Y68.988 E79.10444
G1 X140.218 Y69.923 E79.45607
G1 X140.515 Y70.136 E79.53355
G1 X141.827 Y71.126 E79.882
G1 X142.108 Y71.349 E79.95805
G1 X143.394 Y72.417 E80.31244
G1 X143.675 Y72.662 E80.39147
G1 X144.888 Y73.773 E80.74019
G1 X145.145 Y74.02 E80.81576
G1 X146.325 Y75.206 E81.17044
G1 X146.575 Y75.47 E81.24752
G1 X147.678 Y76.689 E81.59604
G1 X147.917 Y76.965 E81.67344
G1 X148.979 Y78.257 E82.028
G1 X149.209 Y78.551 E82.10714
G1 X150.189 Y79.869 E82.45533
G1 X150.394 Y80.158 E82.53044
G1 X151.33 Y81.546 E82.88536
G1 X151.528 Y81.857 E82.96352
G1 X152.381 Y83.263 E83.31215
G1 X152.564 Y83.581 E83.38994
G1 X153.362 Y85.05 E83.74435
G1 X153.525 Y85.367 E83.81992
G1 X154.242 Y86.847 E84.16856
G1 X154.397 Y87.188 E84.24797
G1 X155.052 Y88.727 E84.60255
G1 X155.187 Y89.066 E84.67991
G1 X155.757 Y90.604 E85.02764
G1 X155.876 Y90.945 E85.10421
G1 X156.379 Y92.523 E85.45533
G1 X156.481 Y92.873 E85.53261
G1 X156.91 Y94.478 E85.88482
G1 X156.997 Y94.834 E85.96251
G1 X157.348 Y96.453 E86.31371
G1 X157.416 Y96.811 E86.39097
G1 X157.69 Y98.446 E86.74242
G1 X157.742 Y98.807 E86.81974
G1 X157.94 Y100.469 E87.17458
G1 X157.974 Y100.831 E87.25166
G1 X158.091 Y102.47 E87.60001
G1 X158.109 Y102.836 E87.6777
G1 X158.148 Y104.493 E88.02908
G1 X158.148 Y104.853 E88.1054
G1 X158.109 Y106.526 E88.46017
G1 X158.091 Y106.895 E88.53849
G1 X157.974 Y108.533 E88.88663
G1 X157.94 Y108.897 E88.96414
G1 X157.743 Y110.545 E89.316
G1 X157.691 Y110.903 E89.39269
G1 X157.415 Y112.55 E89.74673
G1 X157.346 Y112.909 E89.82423
G1 X156.997 Y114.518 E90.17327
G1 X156.912 Y114.871 E90.25024
G1 X156.484 Y116.474 E90.60198
G1 X156.382 Y116.824 E90.67927
G1 X155.875 Y118.416 E91.03348
G1 X155.757 Y118.758 E91.11017
G1 X155.185 Y120.299 E91.45865
G1 X155.05 Y120.637 E91.53581
G1 X154.399 Y122.165 E91.88792
G1 X154.245 Y122.504 E91.96685
G1 X153.522 Y123.996 E92.31834
G1 X153.359 Y124.313 E92.3939
G1 X152.561 Y125.782 E92.74832
G1 X152.376 Y126.104 E92.82705
G1 X151.523 Y127.508 E93.17532
G1 X151.327 Y127.815 E93.25254
G1 X150.393 Y129.2 E93.60669
G1 X150.186 Y129.491 E93.68239
G1 X149.194 Y130.824 E94.03465
G1 X148.966 Y131.116 E94.11319
G1 X147.922 Y132.386 E94.46173
G1 X147.686 Y132.66 E94.53839
G1 X146.575 Y133.889 E94.88962
G1 X146.326 Y134.151 E94.96625
G1 X145.146 Y135.339 E95.32123
G1 X144.877 Y135.597 E95.40025
G1 X143.664 Y136.705 E95.74854
G1 X143.389 Y136.944 E95.82578
G1 X142.112 Y138.004 E96.17762
G1 X141.828 Y138.229 E96.25443
G1 X140.494 Y139.234 E96.60851
G1 X140.199 Y139.445 E96.6854
G1 X138.838 Y140.373 E97.03462
G1 X138.532 Y140.572 E97.11201
G1 X137.116 Y141.442 E97.46433
G1 X136.802 Y141.625 E97.54138
G1 X135.341 Y142.43 E97.89502
G1 X135.02 Y142.597 E97.97173
G1 X133.538 Y143.325 E98.32177
G1 X133.199 Y143.481 E98.40089
G1 X131.686 Y144.135 E98.75032
G1 X131.354 Y144.269 E98.82623
G1 X129.788 Y144.861 E99.18115
G1 X129.445 Y144.982 E99.25826
G1 X127.872 Y145.493 E99.60889
G1 X127.513 Y145.6 E99.6883
G1 X125.923 Y146.032 E100.0376
G1 X125.582 Y146.117 E100.11211
G1 X123.991 Y146.471 E100.45765
G1 X123.598 Y146.55 E100.54263
G1 X121.957 Y146.834 E100.89569
G1 X121.596 Y146.888 E100.97308
G1 X119.943 Y147.094 E101.32622
G1 X119.581 Y147.13 E101.40335
G1 X117.94 Y147.256 E101.75226
G1 X117.578 Y147.276 E101.82912
G1 X115.914 Y147.325 E102.18204
G1 X115.549 Y147.327 E102.25943
G1 X113.887 Y147.297 E102.61183
G1 X113.522 Y147.281 E102.68928
G1 X111.88 Y147.173 E103.03814
G1 X111.512 Y147.14 E103.11647
G1 X109.858 Y146.951 E103.4694
G1 X109.501 Y146.902 E103.54579
G1 X107.871 Y146.638 E103.89585
G1 X107.515 Y146.572 E103.97261
G1 X105.878 Y146.227 E104.32728
G1 X105.521 Y146.142 E104.40508
G1 X103.917 Y145.723 E104.75654
G1 X103.562 Y145.622 E104.83478
G1 X101.994 Y145.131 E105.18312
G1 X101.66 Y145.017 E105.25794
G1 X100.096 Y144.447 E105.61084
G1 X99.749 Y144.312 E105.68977
G1 X98.212 Y143.666 E106.04323
G1 X97.876 Y143.515 E106.12132
G1 X96.38 Y142.8 E106.47283
G1 X96.07 Y142.643 E106.5465
G1 X94.606 Y141.86 E106.89847
G1 X94.269 Y141.668 E106.9807
G1 X92.861 Y140.821 E107.32904
G1 X92.563 Y140.633 E107.40374
G1 X91.184 Y139.715 E107.75494
G1 X90.888 Y139.508 E107.83152
G1 X89.54 Y138.516 E108.18633
G1 X89.243 Y138.285 E108.2661
G1 X87.967 Y137.246 E108.61495
G1 X87.699 Y137.018 E108.68954
G1 X86.452 Y135.904 E109.04403
G1 X86.185 Y135.654 E109.12158
G1 X85.011 Y134.5 E109.47057
G1 X84.755 Y134.236 E109.54853
G1 X83.629 Y133.018 E109.90018
G1 X83.387 Y132.744 E109.97769
G1 X83.038 Y132.328 E110.0928
G1 X72.69 Y132.328 E112.28658
G1 X71.907 Y132.288 E112.45279
G1 X71.133 Y132.169 E112.61881
G1 X70.374 Y131.971 E112.7851
G1 X69.64 Y131.697 E112.9512
G1 X68.937 Y131.349 E113.11749
G1 X68.273 Y130.932 E113.28372
G1 X67.656 Y130.45 E113.4497
G1 X67.256 Y130.077 E113.56565
G1 X67.101 Y129.922 E113.61212
G1 X66.576 Y129.34 E113.77829
G1 X66.112 Y128.708 E113.94451
G1 X65.716 Y128.032 E114.1106
G1 X65.39 Y127.319 E114.27681
G1 X65.139 Y126.576 E114.44307
G1 X64.965 Y125.812 E114.60918
G1 X64.869 Y125.034 E114.77537
G1 X64.85 Y124.488 E114.89119
G1 X64.85 Y84.868 E123.29063
G1 X64.89 Y84.085 E123.45684
G1 X65.009 Y83.311 E123.62286
G1 X65.207 Y82.552 E123.78915
G1 X65.481 Y81.818 E123.95525
G1 X65.829 Y81.115 E124.12155
G1 X66.246 Y80.451 E124.28777
G1 X66.728 Y79.834 E124.45376
G1 X67.101 Y79.434 E124.56971
G1 X67.256 Y79.279 E124.61618
G1 X67.838 Y78.754 E124.78234
G0 F3927.3 X68.193 Y79.148
G1 F1800 X68.806 Y78.704 E124.94281
G1 X69.461 Y78.328 E125.10292
G1 X70.153 Y78.023 E125.26324
G1 X70.874 Y77.792 E125.42375
G1 X71.615 Y77.639 E125.58415
G1 X72.69 Y77.558 E125.8127
G1 X83.285 Y77.558 E128.05884
G1 X83.804 Y76.941 E128.22976
G1 X84.028 Y76.687 E128.30156
G1 X85.15 Y75.475 E128.6517
G1 X85.385 Y75.234 E128.72306
G1 X86.563 Y74.076 E129.07326
G1 X86.808 Y73.846 E129.1445
G1 X88.053 Y72.732 E129.49867
G1 X88.309 Y72.514 E129.56996
G1 X89.585 Y71.476 E129.91867
G1 X89.861 Y71.262 E129.99271
G1 X91.21 Y70.27 E130.3477
G1 X91.485 Y70.077 E130.41893
G1 X92.863 Y69.16 E130.76983
G1 X93.142 Y68.984 E130.83977
G1 X94.545 Y68.141 E131.18677
G1 X94.851 Y67.967 E131.26139
G1 X96.32 Y67.18 E131.6147
G1 X96.619 Y67.029 E131.68571
G1 X98.116 Y66.315 E132.03732
G1 X98.427 Y66.175 E132.10963
G1 X99.964 Y65.53 E132.463
G1 X100.279 Y65.407 E132.53469
G1 X101.843 Y64.836 E132.88766
G1 X102.161 Y64.728 E132.95886
G1 X103.731 Y64.237 E133.3076
G1 X104.062 Y64.143 E133.38055
G1 X105.665 Y63.725 E133.73175
